LUTs/Utility/Canon C-LOG to LOG.cube
TITLE "VisionColor Utility LUT: Canon C-LOG to LOG"
LUT_3D_SIZE 32
0.0902 0.0902 0.0902
0.1139 0.0936 0.0936
0.1375 0.0970 0.0970
0.1612 0.1003 0.1003
0.1849 0.1037 0.1037
0.2087 0.1071 0.1071
0.2325 0.1105 0.1105
0.2564 0.1139 0.1139
0.2803 0.1173 0.1173
0.3044 0.1206 0.1206
0.3285 0.1240 0.1240
0.3527 0.1274 0.1274
0.3771 0.1308 0.1308
0.4016 0.1341 0.1341
0.4262 0.1375 0.1375
0.4510 0.1409 0.1409
0.4759 0.1443 0.1443
0.5010 0.1477 0.1477
0.5263 0.1511 0.1511
0.5518 0.1544 0.1544
0.5774 0.1578 0.1578
0.6033 0.1612 0.1612
0.6295 0.1646 0.1646
0.6558 0.1680 0.1680
0.6824 0.1714 0.1714
0.7093 0.1747 0.1747
0.7364 0.1781 0.1781
0.7637 0.1815 0.1815
0.7913 0.1849 0.1849
0.8190 0.1883 0.1883
0.8469 0.1917 0.1917
0.8749 0.1951 0.1951
0.0936 0.1139 0.0936
0.1139 0.1139 0.0936
0.1375 0.1173 0.0970
0.1612 0.1206 0.1003
0.1849 0.1240 0.1037
0.2087 0.1274 0.1071
0.2325 0.1308 0.1105
0.2564 0.1342 0.1139
0.2803 0.1375 0.1173
0.3044 0.1409 0.1206
0.3285 0.1443 0.1240
0.3527 0.1476 0.1274
0.3771 0.1510 0.1308
0.4016 0.1544 0.1341
0.4262 0.1578 0.1375
0.4510 0.1612 0.1409
0.4759 0.1646 0.1443
0.5010 0.1680 0.1477
0.5263 0.1714 0.1511
0.5518 0.1748 0.1544
0.5774 0.1782 0.1578
0.6033 0.1815 0.1612
0.6295 0.1849 0.1646
0.6558 0.1883 0.1680
0.6824 0.1917 0.1714
0.7093 0.1951 0.1747
0.7364 0.1986 0.1781
0.7637 0.2019 0.1815
0.7913 0.2052 0.1849
0.8190 0.2086 0.1883
0.8469 0.2121 0.1917
0.8749 0.2155 0.1951
0.0970 0.1375 0.0970
0.1173 0.1375 0.0970
0.1375 0.1375 0.0970
0.1612 0.1409 0.1003
0.1849 0.1443 0.1037
0.2087 0.1476 0.1071
0.2325 0.1510 0.1105
0.2564 0.1544 0.1139
0.2803 0.1578 0.1173
0.3044 0.1612 0.1206
0.3285 0.1646 0.1240
0.3527 0.1680 0.1274
0.3771 0.1714 0.1308
0.4016 0.1747 0.1341
0.4262 0.1781 0.1375
0.4510 0.1815 0.1409
0.4759 0.1849 0.1443
0.5010 0.1883 0.1477
0.5263 0.1917 0.1511
0.5518 0.1951 0.1544
0.5774 0.1985 0.1578
0.6033 0.2018 0.1612
0.6295 0.2053 0.1646
0.6558 0.2087 0.1680
0.6824 0.2120 0.1714
0.7093 0.2155 0.1747
0.7364 0.2189 0.1781
0.7637 0.2222 0.1815
0.7913 0.2257 0.1849
0.8190 0.2290 0.1883
0.8469 0.2325 0.1917
0.8749 0.2359 0.1951
0.1003 0.1612 0.1003
0.1206 0.1612 0.1003
0.1409 0.1612 0.1003
0.1612 0.1612 0.1003
0.1849 0.1646 0.1037
0.2087 0.1680 0.1071
0.2325 0.1714 0.1105
0.2564 0.1747 0.1139
0.2803 0.1781 0.1173
0.3044 0.1815 0.1206
0.3285 0.1849 0.1240
0.3527 0.1883 0.1274
0.3771 0.1917 0.1308
0.4016 0.1951 0.1341
0.4262 0.1985 0.1375
0.4510 0.2019 0.1409
0.4759 0.2053 0.1443
0.5010 0.2087 0.1477
0.5263 0.2121 0.1511
0.5518 0.2155 0.1544
0.5774 0.2188 0.1578
0.6033 0.2223 0.1612
0.6295 0.2257 0.1646
0.6558 0.2291 0.1680
0.6824 0.2325 0.1714
0.7093 0.2360 0.1747
0.7364 0.2394 0.1781
0.7637 0.2427 0.1815
0.7913 0.2461 0.1849
0.8190 0.2496 0.1883
0.8469 0.2530 0.1917
0.8749 0.2563 0.1951
0.1037 0.1849 0.1037
0.1240 0.1849 0.1037
0.1443 0.1849 0.1037
0.1646 0.1849 0.1037
0.1849 0.1849 0.1037
0.2087 0.1883 0.1071
0.2325 0.1917 0.1105
0.2564 0.1951 0.1139
0.2803 0.1985 0.1173
0.3044 0.2018 0.1206
0.3285 0.2053 0.1240
0.3527 0.2087 0.1274
0.3771 0.2120 0.1308
0.4016 0.2154 0.1341
0.4262 0.2188 0.1375
0.4510 0.2223 0.1409
0.4759 0.2257 0.1443
0.5010 0.2291 0.1477
0.5263 0.2325 0.1511
0.5518 0.2359 0.1544
0.5774 0.2393 0.1578
0.6033 0.2427 0.1612
0.6295 0.2462 0.1646
0.6558 0.2495 0.1680
0.6824 0.2530 0.1714
0.7093 0.2563 0.1747
0.7364 0.2597 0.1781
0.7637 0.2632 0.1815
0.7913 0.2666 0.1849
0.8190 0.2701 0.1883
0.8469 0.2734 0.1917
0.8749 0.2770 0.1951
0.1071 0.2087 0.1071
0.1274 0.2087 0.1071
0.1476 0.2087 0.1071
0.1680 0.2087 0.1071
0.1883 0.2087 0.1071
0.2087 0.2087 0.1071
0.2325 0.2121 0.1105
0.2564 0.2155 0.1139
0.2803 0.2189 0.1173
0.3044 0.2223 0.1206
0.3285 0.2257 0.1240
0.3527 0.2291 0.1274
0.3771 0.2325 0.1308
0.4016 0.2359 0.1341
0.4262 0.2393 0.1375
0.4510 0.2427 0.1409
0.4759 0.2461 0.1443
0.5010 0.2496 0.1477
0.5263 0.2530 0.1511
0.5518 0.2564 0.1544
0.5774 0.2598 0.1578
0.6033 0.2632 0.1612
0.6295 0.2666 0.1646
0.6558 0.2700 0.1680
0.6824 0.2734 0.1714
0.7093 0.2769 0.1747
0.7364 0.2803 0.1781
0.7637 0.2837 0.1815
0.7913 0.2871 0.1849
0.8190 0.2906 0.1883
0.8469 0.2941 0.1917
0.8749 0.2976 0.1951
0.1105 0.2325 0.1105
0.1308 0.2325 0.1105
0.1510 0.2325 0.1105
0.1714 0.2325 0.1105
0.1917 0.2325 0.1105
0.2121 0.2325 0.1105
0.2325 0.2325 0.1105
0.2564 0.2359 0.1139
0.2803 0.2393 0.1173
0.3044 0.2427 0.1206
0.3285 0.2462 0.1240
0.3527 0.2495 0.1274
0.3771 0.2530 0.1308
0.4016 0.2563 0.1341
0.4262 0.2597 0.1375
0.4510 0.2632 0.1409
0.4759 0.2666 0.1443
0.5010 0.2701 0.1477
0.5263 0.2734 0.1511
0.5518 0.2769 0.1544
0.5774 0.2803 0.1578
0.6033 0.2837 0.1612
0.6295 0.2872 0.1646
0.6558 0.2906 0.1680
0.6824 0.2941 0.1714
0.7093 0.2975 0.1747
0.7364 0.3009 0.1781
0.7637 0.3044 0.1815
0.7913 0.3078 0.1849
0.8190 0.3112 0.1883
0.8469 0.3146 0.1917
0.8749 0.3182 0.1951
0.1139 0.2564 0.1139
0.1342 0.2564 0.1139
0.1544 0.2564 0.1139
0.1747 0.2564 0.1139
0.1951 0.2564 0.1139
0.2155 0.2564 0.1139
0.2359 0.2564 0.1139
0.2564 0.2564 0.1139
0.2803 0.2598 0.1173
0.3044 0.2632 0.1206
0.3285 0.2666 0.1240
0.3527 0.2701 0.1274
0.3771 0.2734 0.1308
0.4016 0.2770 0.1341
0.4262 0.2803 0.1375
0.4510 0.2837 0.1409
0.4759 0.2872 0.1443
0.5010 0.2906 0.1477
0.5263 0.2941 0.1511
0.5518 0.2975 0.1544
0.5774 0.3010 0.1578
0.6033 0.3043 0.1612
0.6295 0.3078 0.1646
0.6558 0.3113 0.1680
0.6824 0.3147 0.1714
0.7093 0.3182 0.1747
0.7364 0.3216 0.1781
0.7637 0.3250 0.1815
0.7913 0.3285 0.1849
0.8190 0.3320 0.1883
0.8469 0.3355 0.1917
0.8749 0.3389 0.1951
0.1173 0.2803 0.1173
0.1375 0.2803 0.1173
0.1578 0.2803 0.1173
0.1781 0.2803 0.1173
0.1985 0.2803 0.1173
0.2189 0.2803 0.1173
0.2393 0.2803 0.1173
0.2598 0.2803 0.1173
0.2803 0.2803 0.1173
0.3044 0.2838 0.1206
0.3285 0.2872 0.1240
0.3527 0.2906 0.1274
0.3771 0.2941 0.1308
0.4016 0.2975 0.1341
0.4262 0.3009 0.1375
0.4510 0.3044 0.1409
0.4759 0.3078 0.1443
0.5010 0.3112 0.1477
0.5263 0.3146 0.1511
0.5518 0.3182 0.1544
0.5774 0.3215 0.1578
0.6033 0.3250 0.1612
0.6295 0.3284 0.1646
0.6558 0.3320 0.1680
0.6824 0.3354 0.1714
0.7093 0.3389 0.1747
0.7364 0.3423 0.1781
0.7637 0.3458 0.1815
0.7913 0.3492 0.1849
0.8190 0.3527 0.1883
0.8469 0.3562 0.1917
0.8749 0.3597 0.1951
0.1206 0.3044 0.1206
0.1409 0.3044 0.1206
0.1612 0.3044 0.1206
0.1815 0.3044 0.1206
0.2018 0.3044 0.1206
0.2223 0.3044 0.1206
0.2427 0.3044 0.1206
0.2632 0.3044 0.1206
0.2838 0.3044 0.1206
0.3044 0.3044 0.1206
0.3285 0.3078 0.1240
0.3527 0.3112 0.1274
0.3771 0.3147 0.1308
0.4016 0.3182 0.1341
0.4262 0.3216 0.1375
0.4510 0.3251 0.1409
0.4759 0.3285 0.1443
0.5010 0.3319 0.1477
0.5263 0.3354 0.1511
0.5518 0.3388 0.1544
0.5774 0.3423 0.1578
0.6033 0.3458 0.1612
0.6295 0.3493 0.1646
0.6558 0.3528 0.1680
0.6824 0.3562 0.1714
0.7093 0.3597 0.1747
0.7364 0.3632 0.1781
0.7637 0.3666 0.1815
0.7913 0.3702 0.1849
0.8190 0.3735 0.1883
0.8469 0.3771 0.1917
0.8749 0.3806 0.1951
0.1240 0.3285 0.1240
0.1443 0.3285 0.1240
0.1646 0.3285 0.1240
0.1849 0.3285 0.1240
0.2053 0.3285 0.1240
0.2257 0.3285 0.1240
0.2462 0.3285 0.1240
0.2666 0.3285 0.1240
0.2872 0.3285 0.1240
0.3078 0.3285 0.1240
0.3285 0.3285 0.1240
0.3527 0.3319 0.1274
0.3771 0.3354 0.1308
0.4016 0.3388 0.1341
0.4262 0.3424 0.1375
0.4510 0.3458 0.1409
0.4759 0.3493 0.1443
0.5010 0.3527 0.1477
0.5263 0.3561 0.1511
0.5518 0.3597 0.1544
0.5774 0.3632 0.1578
0.6033 0.3666 0.1612
0.6295 0.3702 0.1646
0.6558 0.3736 0.1680
0.6824 0.3771 0.1714
0.7093 0.3805 0.1747
0.7364 0.3840 0.1781
0.7637 0.3875 0.1815
0.7913 0.3911 0.1849
0.8190 0.3945 0.1883
0.8469 0.3980 0.1917
0.8749 0.4015 0.1951
0.1274 0.3527 0.1274
0.1476 0.3527 0.1274
0.1680 0.3527 0.1274
0.1883 0.3527 0.1274
0.2087 0.3527 0.1274
0.2291 0.3527 0.1274
0.2495 0.3527 0.1274
0.2701 0.3527 0.1274
0.2906 0.3527 0.1274
0.3112 0.3527 0.1274
0.3319 0.3527 0.1274
0.3527 0.3527 0.1274
0.3771 0.3562 0.1308
0.4016 0.3597 0.1341
0.4262 0.3631 0.1375
0.4510 0.3666 0.1409
0.4759 0.3702 0.1443
0.5010 0.3736 0.1477
0.5263 0.3771 0.1511
0.5518 0.3805 0.1544
0.5774 0.3841 0.1578
0.6033 0.3875 0.1612
0.6295 0.3911 0.1646
0.6558 0.3946 0.1680
0.6824 0.3980 0.1714
0.7093 0.4016 0.1747
0.7364 0.4051 0.1781
0.7637 0.4086 0.1815
0.7913 0.4121 0.1849
0.8190 0.4157 0.1883
0.8469 0.4192 0.1917
0.8749 0.4226 0.1951
0.1308 0.3771 0.1308
0.1510 0.3771 0.1308
0.1714 0.3771 0.1308
0.1917 0.3771 0.1308
0.2120 0.3771 0.1308
0.2325 0.3771 0.1308
0.2530 0.3771 0.1308
0.2734 0.3771 0.1308
0.2941 0.3771 0.1308
0.3147 0.3771 0.1308
0.3354 0.3771 0.1308
0.3562 0.3771 0.1308
0.3771 0.3771 0.1308
0.4016 0.3806 0.1341
0.4262 0.3841 0.1375
0.4510 0.3875 0.1409
0.4759 0.3911 0.1443
0.5010 0.3946 0.1477
0.5263 0.3981 0.1511
0.5518 0.4016 0.1544
0.5774 0.4050 0.1578
0.6033 0.4085 0.1612
0.6295 0.4121 0.1646
0.6558 0.4156 0.1680
0.6824 0.4192 0.1714
0.7093 0.4227 0.1747
0.7364 0.4262 0.1781
0.7637 0.4297 0.1815
0.7913 0.4332 0.1849
0.8190 0.4368 0.1883
0.8469 0.4403 0.1917
0.8749 0.4440 0.1951
0.1341 0.4016 0.1341
0.1544 0.4016 0.1341
0.1747 0.4016 0.1341
0.1951 0.4016 0.1341
0.2154 0.4016 0.1341
0.2359 0.4016 0.1341
0.2563 0.4016 0.1341
0.2770 0.4016 0.1341
0.2975 0.4016 0.1341
0.3182 0.4016 0.1341
0.3388 0.4016 0.1341
0.3597 0.4016 0.1341
0.3806 0.4016 0.1341
0.4016 0.4016 0.1341
0.4262 0.4050 0.1375
0.4510 0.4086 0.1409
0.4759 0.4121 0.1443
0.5010 0.4156 0.1477
0.5263 0.4191 0.1511
0.5518 0.4226 0.1544
0.5774 0.4262 0.1578
0.6033 0.4298 0.1612
0.6295 0.4332 0.1646
0.6558 0.4368 0.1680
0.6824 0.4404 0.1714
0.7093 0.4439 0.1747
0.7364 0.4474 0.1781
0.7637 0.4509 0.1815
0.7913 0.4546 0.1849
0.8190 0.4581 0.1883
0.8469 0.4616 0.1917
0.8749 0.4653 0.1951
0.1375 0.4262 0.1375
0.1578 0.4262 0.1375
0.1781 0.4262 0.1375
0.1985 0.4262 0.1375
0.2188 0.4262 0.1375
0.2393 0.4262 0.1375
0.2597 0.4262 0.1375
0.2803 0.4262 0.1375
0.3009 0.4262 0.1375
0.3216 0.4262 0.1375
0.3424 0.4262 0.1375
0.3631 0.4262 0.1375
0.3841 0.4262 0.1375
0.4050 0.4262 0.1375
0.4262 0.4262 0.1375
0.4510 0.4297 0.1409
0.4759 0.4333 0.1443
0.5010 0.4368 0.1477
0.5263 0.4403 0.1511
0.5518 0.4439 0.1544
0.5774 0.4474 0.1578
0.6033 0.4510 0.1612
0.6295 0.4545 0.1646
0.6558 0.4581 0.1680
0.6824 0.4616 0.1714
0.7093 0.4652 0.1747
0.7364 0.4687 0.1781
0.7637 0.4724 0.1815
0.7913 0.4759 0.1849
0.8190 0.4794 0.1883
0.8469 0.4830 0.1917
0.8749 0.4867 0.1951
0.1409 0.4510 0.1409
0.1612 0.4510 0.1409
0.1815 0.4510 0.1409
0.2019 0.4510 0.1409
0.2223 0.4510 0.1409
0.2427 0.4510 0.1409
0.2632 0.4510 0.1409
0.2837 0.4510 0.1409
0.3044 0.4510 0.1409
0.3251 0.4510 0.1409
0.3458 0.4510 0.1409
0.3666 0.4510 0.1409
0.3875 0.4510 0.1409
0.4086 0.4510 0.1409
0.4297 0.4510 0.1409
0.4510 0.4510 0.1409
0.4759 0.4545 0.1443
0.5010 0.4581 0.1477
0.5263 0.4616 0.1511
0.5518 0.4652 0.1544
0.5774 0.4688 0.1578
0.6033 0.4724 0.1612
0.6295 0.4760 0.1646
0.6558 0.4794 0.1680
0.6824 0.4831 0.1714
0.7093 0.4867 0.1747
0.7364 0.4902 0.1781
0.7637 0.4938 0.1815
0.7913 0.4974 0.1849
0.8190 0.5010 0.1883
0.8469 0.5046 0.1917
0.8749 0.5082 0.1951
0.1443 0.4759 0.1443
0.1646 0.4759 0.1443
0.1849 0.4759 0.1443
0.2053 0.4759 0.1443
0.2257 0.4759 0.1443
0.2461 0.4759 0.1443
0.2666 0.4759 0.1443
0.2872 0.4759 0.1443
0.3078 0.4759 0.1443
0.3285 0.4759 0.1443
0.3493 0.4759 0.1443
0.3702 0.4759 0.1443
0.3911 0.4759 0.1443
0.4121 0.4759 0.1443
0.4333 0.4759 0.1443
0.4545 0.4759 0.1443
0.4759 0.4759 0.1443
0.5010 0.4795 0.1477
0.5263 0.4831 0.1511
0.5518 0.4866 0.1544
0.5774 0.4903 0.1578
0.6033 0.4939 0.1612
0.6295 0.4974 0.1646
0.6558 0.5010 0.1680
0.6824 0.5047 0.1714
0.7093 0.5082 0.1747
0.7364 0.5119 0.1781
0.7637 0.5154 0.1815
0.7913 0.5191 0.1849
0.8190 0.5227 0.1883
0.8469 0.5264 0.1917
0.8749 0.5299 0.1951
0.1477 0.5010 0.1477
0.1680 0.5010 0.1477
0.1883 0.5010 0.1477
0.2087 0.5010 0.1477
0.2291 0.5010 0.1477
0.2496 0.5010 0.1477
0.2701 0.5010 0.1477
0.2906 0.5010 0.1477
0.3112 0.5010 0.1477
0.3319 0.5010 0.1477
0.3527 0.5010 0.1477
0.3736 0.5010 0.1477
0.3946 0.5010 0.1477
0.4156 0.5010 0.1477
0.4368 0.5010 0.1477
0.4581 0.5010 0.1477
0.4795 0.5010 0.1477
0.5010 0.5010 0.1477
0.5263 0.5046 0.1511
0.5518 0.5082 0.1544
0.5774 0.5119 0.1578
0.6033 0.5154 0.1612
0.6295 0.5190 0.1646
0.6558 0.5227 0.1680
0.6824 0.5262 0.1714
0.7093 0.5299 0.1747
0.7364 0.5335 0.1781
0.7637 0.5372 0.1815
0.7913 0.5408 0.1849
0.8190 0.5445 0.1883
0.8469 0.5481 0.1917
0.8749 0.5518 0.1951
0.1511 0.5263 0.1511
0.1714 0.5263 0.1511
0.1917 0.5263 0.1511
0.2121 0.5263 0.1511
0.2325 0.5263 0.1511
0.2530 0.5263 0.1511
0.2734 0.5263 0.1511
0.2941 0.5263 0.1511
0.3146 0.5263 0.1511
0.3354 0.5263 0.1511
0.3561 0.5263 0.1511
0.3771 0.5263 0.1511
0.3981 0.5263 0.1511
0.4191 0.5263 0.1511
0.4403 0.5263 0.1511
0.4616 0.5263 0.1511
0.4831 0.5263 0.1511
0.5046 0.5263 0.1511
0.5263 0.5263 0.1511
0.5518 0.5299 0.1544
0.5774 0.5335 0.1578
0.6033 0.5372 0.1612
0.6295 0.5408 0.1646
0.6558 0.5445 0.1680
0.6824 0.5481 0.1714
0.7093 0.5518 0.1747
0.7364 0.5554 0.1781
0.7637 0.5591 0.1815
0.7913 0.5627 0.1849
0.8190 0.5663 0.1883
0.8469 0.5702 0.1917
0.8749 0.5737 0.1951
0.1544 0.5518 0.1544
0.1748 0.5518 0.1544
0.1951 0.5518 0.1544
0.2155 0.5518 0.1544
0.2359 0.5518 0.1544
0.2564 0.5518 0.1544
0.2769 0.5518 0.1544
0.2975 0.5518 0.1544
0.3182 0.5518 0.1544
0.3388 0.5518 0.1544
0.3597 0.5518 0.1544
0.3805 0.5518 0.1544
0.4016 0.5518 0.1544
0.4226 0.5518 0.1544
0.4439 0.5518 0.1544
0.4652 0.5518 0.1544
0.4866 0.5518 0.1544
0.5082 0.5518 0.1544
0.5299 0.5518 0.1544
0.5518 0.5518 0.1544
0.5774 0.5554 0.1578
0.6033 0.5591 0.1612
0.6295 0.5627 0.1646
0.6558 0.5665 0.1680
0.6824 0.5702 0.1714
0.7093 0.5738 0.1747
0.7364 0.5774 0.1781
0.7637 0.5811 0.1815
0.7913 0.5847 0.1849
0.8190 0.5886 0.1883
0.8469 0.5922 0.1917
0.8749 0.5960 0.1951
0.1578 0.5774 0.1578
0.1782 0.5774 0.1578
0.1985 0.5774 0.1578
0.2188 0.5774 0.1578
0.2393 0.5774 0.1578
0.2598 0.5774 0.1578
0.2803 0.5774 0.1578
0.3010 0.5774 0.1578
0.3215 0.5774 0.1578
0.3423 0.5774 0.1578
0.3632 0.5774 0.1578
0.3841 0.5774 0.1578
0.4050 0.5774 0.1578
0.4262 0.5774 0.1578
0.4474 0.5774 0.1578
0.4688 0.5774 0.1578
0.4903 0.5774 0.1578
0.5119 0.5774 0.1578
0.5335 0.5774 0.1578
0.5554 0.5774 0.1578
0.5774 0.5774 0.1578
0.6033 0.5811 0.1612
0.6295 0.5849 0.1646
0.6558 0.5886 0.1680
0.6824 0.5922 0.1714
0.7093 0.5959 0.1747
0.7364 0.5997 0.1781
0.7637 0.6033 0.1815
0.7913 0.6071 0.1849
0.8190 0.6108 0.1883
0.8469 0.6146 0.1917
0.8749 0.6183 0.1951
0.1612 0.6033 0.1612
0.1815 0.6033 0.1612
0.2018 0.6033 0.1612
0.2223 0.6033 0.1612
0.2427 0.6033 0.1612
0.2632 0.6033 0.1612
0.2837 0.6033 0.1612
0.3043 0.6033 0.1612
0.3250 0.6033 0.1612
0.3458 0.6033 0.1612
0.3666 0.6033 0.1612
0.3875 0.6033 0.1612
0.4085 0.6033 0.1612
0.4298 0.6033 0.1612
0.4510 0.6033 0.1612
0.4724 0.6033 0.1612
0.4939 0.6033 0.1612
0.5154 0.6033 0.1612
0.5372 0.6033 0.1612
0.5591 0.6033 0.1612
0.5811 0.6033 0.1612
0.6033 0.6033 0.1612
0.6295 0.6071 0.1646
0.6558 0.6108 0.1680
0.6824 0.6145 0.1714
0.7093 0.6183 0.1747
0.7364 0.6219 0.1781
0.7637 0.6257 0.1815
0.7913 0.6295 0.1849
0.8190 0.6332 0.1883
0.8469 0.6369 0.1917
0.8749 0.6408 0.1951
0.1646 0.6295 0.1646
0.1849 0.6295 0.1646
0.2053 0.6295 0.1646
0.2257 0.6295 0.1646
0.2462 0.6295 0.1646
0.2666 0.6295 0.1646
0.2872 0.6295 0.1646
0.3078 0.6295 0.1646
0.3284 0.6295 0.1646
0.3493 0.6295 0.1646
0.3702 0.6295 0.1646
0.3911 0.6295 0.1646
0.4121 0.6295 0.1646
0.4332 0.6295 0.1646
0.4545 0.6295 0.1646
0.4760 0.6295 0.1646
0.4974 0.6295 0.1646
0.5190 0.6295 0.1646
0.5408 0.6295 0.1646
0.5627 0.6295 0.1646
0.5849 0.6295 0.1646
0.6071 0.6295 0.1646
0.6295 0.6295 0.1646
0.6558 0.6332 0.1680
0.6824 0.6370 0.1714
0.7093 0.6407 0.1747
0.7364 0.6445 0.1781
0.7637 0.6483 0.1815
0.7913 0.6520 0.1849
0.8190 0.6558 0.1883
0.8469 0.6596 0.1917
0.8749 0.6634 0.1951
0.1680 0.6558 0.1680
0.1883 0.6558 0.1680
0.2087 0.6558 0.1680
0.2291 0.6558 0.1680
0.2495 0.6558 0.1680
0.2700 0.6558 0.1680
0.2906 0.6558 0.1680
0.3113 0.6558 0.1680
0.3320 0.6558 0.1680
0.3528 0.6558 0.1680
0.3736 0.6558 0.1680
0.3946 0.6558 0.1680
0.4156 0.6558 0.1680
0.4368 0.6558 0.1680
0.4581 0.6558 0.1680
0.4794 0.6558 0.1680
0.5010 0.6558 0.1680
0.5227 0.6558 0.1680
0.5445 0.6558 0.1680
0.5665 0.6558 0.1680
0.5886 0.6558 0.1680
0.6108 0.6558 0.1680
0.6332 0.6558 0.1680
0.6558 0.6558 0.1680
0.6824 0.6596 0.1714
0.7093 0.6634 0.1747
0.7364 0.6671 0.1781
0.7637 0.6710 0.1815
0.7913 0.6748 0.1849
0.8190 0.6787 0.1883
0.8469 0.6824 0.1917
0.8749 0.6862 0.1951
0.1714 0.6824 0.1714
0.1917 0.6824 0.1714
0.2120 0.6824 0.1714
0.2325 0.6824 0.1714
0.2530 0.6824 0.1714
0.2734 0.6824 0.1714
0.2941 0.6824 0.1714
0.3147 0.6824 0.1714
0.3354 0.6824 0.1714
0.3562 0.6824 0.1714
0.3771 0.6824 0.1714
0.3980 0.6824 0.1714
0.4192 0.6824 0.1714
0.4404 0.6824 0.1714
0.4616 0.6824 0.1714
0.4831 0.6824 0.1714
0.5047 0.6824 0.1714
0.5262 0.6824 0.1714
0.5481 0.6824 0.1714
0.5702 0.6824 0.1714
0.5922 0.6824 0.1714
0.6145 0.6824 0.1714
0.6370 0.6824 0.1714
0.6596 0.6824 0.1714
0.6824 0.6824 0.1714
0.7093 0.6862 0.1747
0.7364 0.6901 0.1781
0.7637 0.6939 0.1815
0.7913 0.6977 0.1849
0.8190 0.7016 0.1883
0.8469 0.7054 0.1917
0.8749 0.7093 0.1951
0.1747 0.7093 0.1747
0.1951 0.7093 0.1747
0.2155 0.7093 0.1747
0.2360 0.7093 0.1747
0.2563 0.7093 0.1747
0.2769 0.7093 0.1747
0.2975 0.7093 0.1747
0.3182 0.7093 0.1747
0.3389 0.7093 0.1747
0.3597 0.7093 0.1747
0.3805 0.7093 0.1747
0.4016 0.7093 0.1747
0.4227 0.7093 0.1747
0.4439 0.7093 0.1747
0.4652 0.7093 0.1747
0.4867 0.7093 0.1747
0.5082 0.7093 0.1747
0.5299 0.7093 0.1747
0.5518 0.7093 0.1747
0.5738 0.7093 0.1747
0.5959 0.7093 0.1747
0.6183 0.7093 0.1747
0.6407 0.7093 0.1747
0.6634 0.7093 0.1747
0.6862 0.7093 0.1747
0.7093 0.7093 0.1747
0.7364 0.7130 0.1781
0.7637 0.7170 0.1815
0.7913 0.7208 0.1849
0.8190 0.7247 0.1883
0.8469 0.7285 0.1917
0.8749 0.7324 0.1951
0.1781 0.7364 0.1781
0.1986 0.7364 0.1781
0.2189 0.7364 0.1781
0.2394 0.7364 0.1781
0.2597 0.7364 0.1781
0.2803 0.7364 0.1781
0.3009 0.7364 0.1781
0.3216 0.7364 0.1781
0.3423 0.7364 0.1781
0.3632 0.7364 0.1781
0.3840 0.7364 0.1781
0.4051 0.7364 0.1781
0.4262 0.7364 0.1781
0.4474 0.7364 0.1781
0.4687 0.7364 0.1781
0.4902 0.7364 0.1781
0.5119 0.7364 0.1781
0.5335 0.7364 0.1781
0.5554 0.7364 0.1781
0.5774 0.7364 0.1781
0.5997 0.7364 0.1781
0.6219 0.7364 0.1781
0.6445 0.7364 0.1781
0.6671 0.7364 0.1781
0.6901 0.7364 0.1781
0.7130 0.7364 0.1781
0.7364 0.7364 0.1781
0.7637 0.7402 0.1815
0.7913 0.7441 0.1849
0.8190 0.7480 0.1883
0.8469 0.7520 0.1917
0.8749 0.7558 0.1951
0.1815 0.7637 0.1815
0.2019 0.7637 0.1815
0.2222 0.7637 0.1815
0.2427 0.7637 0.1815
0.2632 0.7637 0.1815
0.2837 0.7637 0.1815
0.3044 0.7637 0.1815
0.3250 0.7637 0.1815
0.3458 0.7637 0.1815
0.3666 0.7637 0.1815
0.3875 0.7637 0.1815
0.4086 0.7637 0.1815
0.4297 0.7637 0.1815
0.4509 0.7637 0.1815
0.4724 0.7637 0.1815
0.4938 0.7637 0.1815
0.5154 0.7637 0.1815
0.5372 0.7637 0.1815
0.5591 0.7637 0.1815
0.5811 0.7637 0.1815
0.6033 0.7637 0.1815
0.6257 0.7637 0.1815
0.6483 0.7637 0.1815
0.6710 0.7637 0.1815
0.6939 0.7637 0.1815
0.7170 0.7637 0.1815
0.7402 0.7637 0.1815
0.7637 0.7637 0.1815
0.7913 0.7677 0.1849
0.8190 0.7716 0.1883
0.8469 0.7754 0.1917
0.8749 0.7795 0.1951
0.1849 0.7913 0.1849
0.2052 0.7913 0.1849
0.2257 0.7913 0.1849
0.2461 0.7913 0.1849
