LUTs/Utility/Canon C-LOG to LOG.cube
TITLE "VisionColor Utility LUT: Canon C-LOG to LOG"
LUT_3D_SIZE 5
DOMAIN_MIN 0.000000 0.000000 0.000000
DOMAIN_MAX 0.903226 0.903226 0.903226
0.0902 0.0902 0.0902
0.2564 0.1139 0.1139
0.4262 0.1375 0.1375
0.6033 0.1612 0.1612
0.7913 0.1849 0.1849
0.1139 0.2564 0.1139
0.2564 0.2564 0.1139
0.4262 0.2803 0.1375
0.6033 0.3043 0.1612
0.7913 0.3285 0.1849
0.1375 0.4262 0.1375
0.2803 0.4262 0.1375
0.4262 0.4262 0.1375
0.6033 0.4510 0.1612
0.7913 0.4759 0.1849
0.1612 0.6033 0.1612
0.3043 0.6033 0.1612
0.4510 0.6033 0.1612
0.6033 0.6033 0.1612
0.7913 0.6295 0.1849
0.1849 0.7913 0.1849
0.3285 0.7913 0.1849
0.4759 0.7913 0.1849
0.6295 0.7913 0.1849
0.7913 0.7913 0.1849
0.1139 0.1139 0.2564
0.2564 0.1139 0.2564
0.4262 0.1375 0.2803
0.6033 0.1612 0.3043
0.7913 0.1849 0.3285
0.1139 0.2564 0.2564
0.2803 0.2803 0.2803
0.4510 0.3044 0.3044
0.6295 0.3285 0.3285
0.8190 0.3527 0.3527
0.1375 0.4262 0.2803
0.3044 0.4510 0.3044
0.4510 0.4510 0.3044
0.6295 0.4759 0.3285
0.8190 0.5009 0.3527
0.1612 0.6033 0.3043
0.3285 0.6295 0.3285
0.4759 0.6295 0.3285
0.6295 0.6295 0.3285
0.8190 0.6558 0.3527
0.1849 0.7913 0.3285
0.3527 0.8190 0.3527
0.5009 0.8190 0.3527
0.6558 0.8190 0.3527
0.8190 0.8190 0.3527
0.1375 0.1375 0.4262
0.2803 0.1375 0.4262
0.4262 0.1375 0.4262
0.6033 0.1612 0.4510
0.7913 0.1849 0.4759
0.1375 0.2803 0.4262
0.3044 0.3044 0.4510
0.4510 0.3044 0.4510
0.6295 0.3285 0.4759
0.8190 0.3527 0.5009
0.1375 0.4262 0.4262
0.3044 0.4510 0.4510
0.4759 0.4759 0.4759
0.6558 0.5010 0.5010
0.8469 0.5263 0.5263
0.1612 0.6033 0.4510
0.3285 0.6295 0.4759
0.5010 0.6558 0.5010
0.6558 0.6558 0.5010
0.8469 0.6824 0.5263
0.1849 0.7913 0.4759
0.3527 0.8190 0.5009
0.5263 0.8469 0.5263
0.6824 0.8469 0.5263
0.8469 0.8469 0.5263
0.1612 0.1612 0.6033
0.3043 0.1612 0.6033
0.4510 0.1612 0.6033
0.6033 0.1612 0.6033
0.7913 0.1849 0.6295
0.1612 0.3043 0.6033
0.3285 0.3285 0.6295
0.4759 0.3285 0.6295
0.6295 0.3285 0.6295
0.8190 0.3527 0.6558
0.1612 0.4510 0.6033
0.3285 0.4759 0.6295
0.5010 0.5010 0.6558
0.6558 0.5010 0.6558
0.8469 0.5263 0.6824
0.1612 0.6033 0.6033
0.3285 0.6295 0.6295
0.5010 0.6558 0.6558
0.6824 0.6824 0.6824
0.8749 0.7093 0.7093
0.1849 0.7913 0.6295
0.3527 0.8190 0.6558
0.5263 0.8469 0.6824
0.7093 0.8749 0.7093
0.8749 0.8749 0.7093
0.1849 0.1849 0.7913
0.3285 0.1849 0.7913
0.4759 0.1849 0.7913
0.6295 0.1849 0.7913
0.7913 0.1849 0.7913
0.1849 0.3285 0.7913
0.3527 0.3527 0.8190
0.5009 0.3527 0.8190
0.6558 0.3527 0.8190
0.8190 0.3527 0.8190
0.1849 0.4759 0.7913
0.3527 0.5009 0.8190
0.5263 0.5263 0.8469
0.6824 0.5263 0.8469
0.8469 0.5263 0.8469
0.1849 0.6295 0.7913
0.3527 0.6558 0.8190
0.5263 0.6824 0.8469
0.7093 0.7093 0.8749
0.8749 0.7093 0.8749
0.1849 0.7913 0.7913
0.3527 0.8190 0.8190
0.5263 0.8469 0.8469
0.7093 0.8749 0.8749
0.9030 0.9030 0.9030
