LUTs/Utility/Canon C-LOG to LOG.cube
TITLE "VisionColor Utility LUT: Canon C-LOG to LOG"
LUT_3D_SIZE 8
DOMAIN_MIN 0.000000 0.000000 0.000000
DOMAIN_MAX 0.903226 0.903226 0.903226
0.0902 0.0902 0.0902
0.1849 0.1037 0.1037
0.2803 0.1173 0.1173
0.3771 0.1308 0.1308
0.4759 0.1443 0.1443
0.5774 0.1578 0.1578
0.6824 0.1714 0.1714
0.7913 0.1849 0.1849
0.1037 0.1849 0.1037
0.1849 0.1849 0.1037
0.2803 0.1985 0.1173
0.3771 0.2120 0.1308
0.4759 0.2257 0.1443
0.5774 0.2393 0.1578
0.6824 0.2530 0.1714
0.7913 0.2666 0.1849
0.1173 0.2803 0.1173
0.1985 0.2803 0.1173
0.2803 0.2803 0.1173
0.3771 0.2941 0.1308
0.4759 0.3078 0.1443
0.5774 0.3215 0.1578
0.6824 0.3354 0.1714
0.7913 0.3492 0.1849
0.1308 0.3771 0.1308
0.2120 0.3771 0.1308
0.2941 0.3771 0.1308
0.3771 0.3771 0.1308
0.4759 0.3911 0.1443
0.5774 0.4050 0.1578
0.6824 0.4192 0.1714
0.7913 0.4332 0.1849
0.1443 0.4759 0.1443
0.2257 0.4759 0.1443
0.3078 0.4759 0.1443
0.3911 0.4759 0.1443
0.4759 0.4759 0.1443
0.5774 0.4903 0.1578
0.6824 0.5047 0.1714
0.7913 0.5191 0.1849
0.1578 0.5774 0.1578
0.2393 0.5774 0.1578
0.3215 0.5774 0.1578
0.4050 0.5774 0.1578
0.4903 0.5774 0.1578
0.5774 0.5774 0.1578
0.6824 0.5922 0.1714
0.7913 0.6071 0.1849
0.1714 0.6824 0.1714
0.2530 0.6824 0.1714
0.3354 0.6824 0.1714
0.4192 0.6824 0.1714
0.5047 0.6824 0.1714
0.5922 0.6824 0.1714
0.6824 0.6824 0.1714
0.7913 0.6977 0.1849
0.1849 0.7913 0.1849
0.2666 0.7913 0.1849
0.3492 0.7913 0.1849
0.4332 0.7913 0.1849
0.5191 0.7913 0.1849
0.6071 0.7913 0.1849
0.6977 0.7913 0.1849
0.7913 0.7913 0.1849
0.1037 0.1037 0.1849
0.1849 0.1037 0.1849
0.2803 0.1173 0.1985
0.3771 0.1308 0.2120
0.4759 0.1443 0.2257
0.5774 0.1578 0.2393
0.6824 0.1714 0.2530
0.7913 0.1849 0.2666
0.1037 0.1849 0.1849
0.1985 0.1985 0.1985
0.2940 0.2121 0.2121
0.3911 0.2257 0.2257
0.4902 0.2393 0.2393
0.5922 0.2530 0.2530
0.6977 0.2666 0.2666
0.8071 0.2803 0.2803
0.1173 0.2803 0.1985
0.2121 0.2940 0.2121
0.2940 0.2940 0.2121
0.3911 0.3078 0.2257
0.4902 0.3216 0.2393
0.5922 0.3354 0.2530
0.6977 0.3492 0.2666
0.8071 0.3632 0.2803
0.1308 0.3771 0.2120
0.2257 0.3911 0.2257
0.3078 0.3911 0.2257
0.3911 0.3911 0.2257
0.4902 0.4050 0.2393
0.5922 0.4192 0.2530
0.6977 0.4332 0.2666
0.8071 0.4474 0.2803
0.1443 0.4759 0.2257
0.2393 0.4902 0.2393
0.3216 0.4902 0.2393
0.4050 0.4902 0.2393
0.4902 0.4902 0.2393
0.5922 0.5046 0.2530
0.6977 0.5191 0.2666
0.8071 0.5336 0.2803
0.1578 0.5774 0.2393
0.2530 0.5922 0.2530
0.3354 0.5922 0.2530
0.4192 0.5922 0.2530
0.5046 0.5922 0.2530
0.5922 0.5922 0.2530
0.6977 0.6071 0.2666
0.8071 0.6220 0.2803
0.1714 0.6824 0.2530
0.2666 0.6977 0.2666
0.3492 0.6977 0.2666
0.4332 0.6977 0.2666
0.5191 0.6977 0.2666
0.6071 0.6977 0.2666
0.6977 0.6977 0.2666
0.8071 0.7131 0.2803
0.1849 0.7913 0.2666
0.2803 0.8071 0.2803
0.3632 0.8071 0.2803
0.4474 0.8071 0.2803
0.5336 0.8071 0.2803
0.6220 0.8071 0.2803
0.7131 0.8071 0.2803
0.8071 0.8071 0.2803
0.1173 0.1173 0.2803
0.1985 0.1173 0.2803
0.2803 0.1173 0.2803
0.3771 0.1308 0.2941
0.4759 0.1443 0.3078
0.5774 0.1578 0.3215
0.6824 0.1714 0.3354
0.7913 0.1849 0.3492
0.1173 0.1985 0.2803
0.2121 0.2121 0.2940
0.2940 0.2121 0.2940
0.3911 0.2257 0.3078
0.4902 0.2393 0.3216
0.5922 0.2530 0.3354
0.6977 0.2666 0.3492
0.8071 0.2803 0.3632
0.1173 0.2803 0.2803
0.2121 0.2940 0.2940
0.3078 0.3078 0.3078
0.4051 0.3216 0.3216
0.5046 0.3354 0.3354
0.6070 0.3492 0.3492
0.7131 0.3632 0.3632
0.8230 0.3771 0.3771
0.1308 0.3771 0.2941
0.2257 0.3911 0.3078
0.3216 0.4051 0.3216
0.4051 0.4051 0.3216
0.5046 0.4192 0.3354
0.6070 0.4333 0.3492
0.7131 0.4474 0.3632
0.8230 0.4616 0.3771
0.1443 0.4759 0.3078
0.2393 0.4902 0.3216
0.3354 0.5046 0.3354
0.4192 0.5046 0.3354
0.5046 0.5046 0.3354
0.6070 0.5190 0.3492
0.7131 0.5336 0.3632
0.8230 0.5482 0.3771
0.1578 0.5774 0.3215
0.2530 0.5922 0.3354
0.3492 0.6070 0.3492
0.4333 0.6070 0.3492
0.5190 0.6070 0.3492
0.6070 0.6070 0.3492
0.7131 0.6220 0.3632
0.8230 0.6370 0.3771
0.1714 0.6824 0.3354
0.2666 0.6977 0.3492
0.3632 0.7131 0.3632
0.4474 0.7131 0.3632
0.5336 0.7131 0.3632
0.6220 0.7131 0.3632
0.7131 0.7131 0.3632
0.8230 0.7286 0.3771
0.1849 0.7913 0.3492
0.2803 0.8071 0.3632
0.3771 0.8230 0.3771
0.4616 0.8230 0.3771
0.5482 0.8230 0.3771
0.6370 0.8230 0.3771
0.7286 0.8230 0.3771
0.8230 0.8230 0.3771
0.1308 0.1308 0.3771
0.2120 0.1308 0.3771
0.2941 0.1308 0.3771
0.3771 0.1308 0.3771
0.4759 0.1443 0.3911
0.5774 0.1578 0.4050
0.6824 0.1714 0.4192
0.7913 0.1849 0.4332
0.1308 0.2120 0.3771
0.2257 0.2257 0.3911
0.3078 0.2257 0.3911
0.3911 0.2257 0.3911
0.4902 0.2393 0.4050
0.5922 0.2530 0.4192
0.6977 0.2666 0.4332
0.8071 0.2803 0.4474
0.1308 0.2941 0.3771
0.2257 0.3078 0.3911
0.3216 0.3216 0.4051
0.4051 0.3216 0.4051
0.5046 0.3354 0.4192
0.6070 0.3492 0.4333
0.7131 0.3632 0.4474
0.8230 0.3771 0.4616
0.1308 0.3771 0.3771
0.2257 0.3911 0.3911
0.3216 0.4051 0.4051
0.4192 0.4192 0.4192
0.5190 0.4333 0.4333
0.6220 0.4474 0.4474
0.7286 0.4616 0.4616
0.8389 0.4759 0.4759
0.1443 0.4759 0.3911
0.2393 0.4902 0.4050
0.3354 0.5046 0.4192
0.4333 0.5190 0.4333
0.5190 0.5190 0.4333
0.6220 0.5336 0.4474
0.7286 0.5481 0.4616
0.8389 0.5627 0.4759
0.1578 0.5774 0.4050
0.2530 0.5922 0.4192
0.3492 0.6070 0.4333
0.4474 0.6220 0.4474
0.5336 0.6220 0.4474
0.6220 0.6220 0.4474
0.7286 0.6370 0.4616
0.8389 0.6520 0.4759
0.1714 0.6824 0.4192
0.2666 0.6977 0.4332
0.3632 0.7131 0.4474
0.4616 0.7286 0.4616
0.5481 0.7286 0.4616
0.6370 0.7286 0.4616
0.7286 0.7286 0.4616
0.8389 0.7442 0.4759
0.1849 0.7913 0.4332
0.2803 0.8071 0.4474
0.3771 0.8230 0.4616
0.4759 0.8389 0.4759
0.5627 0.8389 0.4759
0.6520 0.8389 0.4759
0.7442 0.8389 0.4759
0.8389 0.8389 0.4759
0.1443 0.1443 0.4759
0.2257 0.1443 0.4759
0.3078 0.1443 0.4759
0.3911 0.1443 0.4759
0.4759 0.1443 0.4759
0.5774 0.1578 0.4903
0.6824 0.1714 0.5047
0.7913 0.1849 0.5191
0.1443 0.2257 0.4759
0.2393 0.2393 0.4902
0.3216 0.2393 0.4902
0.4050 0.2393 0.4902
0.4902 0.2393 0.4902
0.5922 0.2530 0.5046
0.6977 0.2666 0.5191
0.8071 0.2803 0.5336
0.1443 0.3078 0.4759
0.2393 0.3216 0.4902
0.3354 0.3354 0.5046
0.4192 0.3354 0.5046
0.5046 0.3354 0.5046
0.6070 0.3492 0.5190
0.7131 0.3632 0.5336
0.8230 0.3771 0.5482
0.1443 0.3911 0.4759
0.2393 0.4050 0.4902
0.3354 0.4192 0.5046
0.4333 0.4333 0.5190
0.5190 0.4333 0.5190
0.6220 0.4474 0.5336
0.7286 0.4616 0.5481
0.8389 0.4759 0.5627
0.1443 0.4759 0.4759
0.2393 0.4902 0.4902
0.3354 0.5046 0.5046
0.4333 0.5190 0.5190
0.5336 0.5336 0.5336
0.6370 0.5481 0.5481
0.7442 0.5628 0.5628
0.8549 0.5774 0.5774
0.1578 0.5774 0.4903
0.2530 0.5922 0.5046
0.3492 0.6070 0.5190
0.4474 0.6220 0.5336
0.5481 0.6370 0.5481
0.6370 0.6370 0.5481
0.7442 0.6520 0.5628
0.8549 0.6671 0.5774
0.1714 0.6824 0.5047
0.2666 0.6977 0.5191
0.3632 0.7131 0.5336
0.4616 0.7286 0.5481
0.5628 0.7442 0.5628
0.6520 0.7442 0.5628
0.7442 0.7442 0.5628
0.8549 0.7598 0.5774
0.1849 0.7913 0.5191
0.2803 0.8071 0.5336
0.3771 0.8230 0.5482
0.4759 0.8389 0.5627
0.5774 0.8549 0.5774
0.6671 0.8549 0.5774
0.7598 0.8549 0.5774
0.8549 0.8549 0.5774
0.1578 0.1578 0.5774
0.2393 0.1578 0.5774
0.3215 0.1578 0.5774
0.4050 0.1578 0.5774
0.4903 0.1578 0.5774
0.5774 0.1578 0.5774
0.6824 0.1714 0.5922
0.7913 0.1849 0.6071
0.1578 0.2393 0.5774
0.2530 0.2530 0.5922
0.3354 0.2530 0.5922
0.4192 0.2530 0.5922
0.5046 0.2530 0.5922
0.5922 0.2530 0.5922
0.6977 0.2666 0.6071
0.8071 0.2803 0.6220
0.1578 0.3215 0.5774
0.2530 0.3354 0.5922
0.3492 0.3492 0.6070
0.4333 0.3492 0.6070
0.5190 0.3492 0.6070
0.6070 0.3492 0.6070
0.7131 0.3632 0.6220
0.8230 0.3771 0.6370
0.1578 0.4050 0.5774
0.2530 0.4192 0.5922
0.3492 0.4333 0.6070
0.4474 0.4474 0.6220
0.5336 0.4474 0.6220
0.6220 0.4474 0.6220
0.7286 0.4616 0.6370
0.8389 0.4759 0.6520
0.1578 0.4903 0.5774
0.2530 0.5046 0.5922
0.3492 0.5190 0.6070
0.4474 0.5336 0.6220
0.5481 0.5481 0.6370
0.6370 0.5481 0.6370
0.7442 0.5628 0.6520
0.8549 0.5774 0.6671
0.1578 0.5774 0.5774
0.2530 0.5922 0.5922
0.3492 0.6070 0.6070
0.4474 0.6220 0.6220
0.5481 0.6370 0.6370
0.6520 0.6520 0.6520
0.7598 0.6672 0.6672
0.8709 0.6824 0.6824
0.1714 0.6824 0.5922
0.2666 0.6977 0.6071
0.3632 0.7131 0.6220
0.4616 0.7286 0.6370
0.5628 0.7442 0.6520
0.6672 0.7598 0.6672
0.7598 0.7598 0.6672
0.8709 0.7755 0.6824
0.1849 0.7913 0.6071
0.2803 0.8071 0.6220
0.3771 0.8230 0.6370
0.4759 0.8389 0.6520
0.5774 0.8549 0.6671
0.6824 0.8709 0.6824
0.7755 0.8709 0.6824
0.8709 0.8709 0.6824
0.1714 0.1714 0.6824
0.2530 0.1714 0.6824
0.3354 0.1714 0.6824
0.4192 0.1714 0.6824
0.5047 0.1714 0.6824
0.5922 0.1714 0.6824
0.6824 0.1714 0.6824
0.7913 0.1849 0.6977
0.1714 0.2530 0.6824
0.2666 0.2666 0.6977
0.3492 0.2666 0.6977
0.4332 0.2666 0.6977
0.5191 0.2666 0.6977
0.6071 0.2666 0.6977
0.6977 0.2666 0.6977
0.8071 0.2803 0.7131
0.1714 0.3354 0.6824
0.2666 0.3492 0.6977
0.3632 0.3632 0.7131
0.4474 0.3632 0.7131
0.5336 0.3632 0.7131
0.6220 0.3632 0.7131
0.7131 0.3632 0.7131
0.8230 0.3771 0.7286
0.1714 0.4192 0.6824
0.2666 0.4332 0.6977
0.3632 0.4474 0.7131
0.4616 0.4616 0.7286
0.5481 0.4616 0.7286
0.6370 0.4616 0.7286
0.7286 0.4616 0.7286
0.8389 0.4759 0.7442
0.1714 0.5047 0.6824
0.2666 0.5191 0.6977
0.3632 0.5336 0.7131
0.4616 0.5481 0.7286
0.5628 0.5628 0.7442
0.6520 0.5628 0.7442
0.7442 0.5628 0.7442
0.8549 0.5774 0.7598
0.1714 0.5922 0.6824
0.2666 0.6071 0.6977
0.3632 0.6220 0.7131
0.4616 0.6370 0.7286
0.5628 0.6520 0.7442
0.6672 0.6672 0.7598
0.7598 0.6672 0.7598
0.8709 0.6824 0.7755
0.1714 0.6824 0.6824
0.2666 0.6977 0.6977
0.3632 0.7131 0.7131
0.4616 0.7286 0.7286
0.5628 0.7442 0.7442
0.6672 0.7598 0.7598
0.7755 0.7755 0.7755
0.8870 0.7913 0.7913
0.1849 0.7913 0.6977
0.2803 0.8071 0.7131
0.3771 0.8230 0.7286
0.4759 0.8389 0.7442
0.5774 0.8549 0.7598
0.6824 0.8709 0.7755
0.7913 0.8870 0.7913
0.8870 0.8870 0.7913
0.1849 0.1849 0.7913
0.2666 0.1849 0.7913
0.3492 0.1849 0.7913
0.4332 0.1849 0.7913
0.5191 0.1849 0.7913
0.6071 0.1849 0.7913
0.6977 0.1849 0.7913
0.7913 0.1849 0.7913
0.1849 0.2666 0.7913
0.2803 0.2803 0.8071
0.3632 0.2803 0.8071
0.4474 0.2803 0.8071
0.5336 0.2803 0.8071
0.6220 0.2803 0.8071
0.7131 0.2803 0.8071
0.8071 0.2803 0.8071
0.1849 0.3492 0.7913
0.2803 0.3632 0.8071
0.3771 0.3771 0.8230
0.4616 0.3771 0.8230
0.5482 0.3771 0.8230
0.6370 0.3771 0.8230
0.7286 0.3771 0.8230
0.8230 0.3771 0.8230
0.1849 0.4332 0.7913
0.2803 0.4474 0.8071
0.3771 0.4616 0.8230
0.4759 0.4759 0.8389
0.5627 0.4759 0.8389
0.6520 0.4759 0.8389
0.7442 0.4759 0.8389
0.8389 0.4759 0.8389
0.1849 0.5191 0.7913
0.2803 0.5336 0.8071
0.3771 0.5482 0.8230
0.4759 0.5627 0.8389
0.5774 0.5774 0.8549
0.6671 0.5774 0.8549
0.7598 0.5774 0.8549
0.8549 0.5774 0.8549
0.1849 0.6071 0.7913
0.2803 0.6220 0.8071
0.3771 0.6370 0.8230
0.4759 0.6520 0.8389
0.5774 0.6671 0.8549
0.6824 0.6824 0.8709
0.7755 0.6824 0.8709
0.8709 0.6824 0.8709
0.1849 0.6977 0.7913
0.2803 0.7131 0.8071
0.3771 0.7286 0.8230
0.4759 0.7442 0.8389
0.5774 0.7598 0.8549
0.6824 0.7755 0.8709
0.7913 0.7913 0.8870
0.8870 0.7913 0.8870
0.1849 0.7913 0.7913
0.2803 0.8071 0.8071
0.3771 0.8230 0.8230
0.4759 0.8389 0.8389
0.5774 0.8549 0.8549
0.6824 0.8709 0.8709
0.7913 0.8870 0.8870
0.9030 0.9030 0.9030
