LUTs/Utility/LOG to Rec.709.cube
TITLE "VisionColor Utility LUT: LOG to Rec.709"
LUT_3D_SIZE 8
DOMAIN_MIN 0.000000 0.000000 0.000000
DOMAIN_MAX 0.903226 0.903226 0.903226
0.0000 0.0000 0.0000
0.0250 0.0000 0.0000
0.0940 0.0000 0.0000
0.2324 0.0000 0.0000
0.4696 0.0000 0.0000
0.6927 0.0000 0.0000
0.8364 0.0000 0.0000
0.9379 0.0000 0.0000
0.0000 0.0250 0.0000
0.0250 0.0250 0.0000
0.0940 0.0250 0.0000
0.2324 0.0250 0.0000
0.4696 0.0250 0.0000
0.6927 0.0250 0.0000
0.8364 0.0249 0.0000
0.9379 0.0250 0.0000
0.0000 0.0940 0.0000
0.0250 0.0940 0.0000
0.0940 0.0940 0.0000
0.2324 0.0940 0.0000
0.4696 0.0940 0.0000
0.6927 0.0940 0.0000
0.8364 0.0939 0.0000
0.9379 0.0939 0.0000
0.0000 0.2324 0.0000
0.0250 0.2324 0.0000
0.0940 0.2324 0.0000
0.2324 0.2324 0.0000
0.4696 0.2324 0.0000
0.6927 0.2324 0.0000
0.8364 0.2324 0.0000
0.9379 0.2324 0.0000
0.0000 0.4696 0.0000
0.0250 0.4696 0.0000
0.0940 0.4696 0.0000
0.2324 0.4696 0.0000
0.4696 0.4696 0.0000
0.6927 0.4695 0.0000
0.8364 0.4695 0.0000
0.9379 0.4696 0.0000
0.0000 0.6927 0.0000
0.0250 0.6927 0.0000
0.0940 0.6927 0.0000
0.2324 0.6927 0.0000
0.4695 0.6927 0.0000
0.6927 0.6927 0.0000
0.8364 0.6926 0.0000
0.9379 0.6927 0.0000
0.0000 0.8364 0.0000
0.0249 0.8364 0.0000
0.0939 0.8364 0.0000
0.2324 0.8364 0.0000
0.4695 0.8364 0.0000
0.6926 0.8364 0.0000
0.8364 0.8364 0.0000
0.9379 0.8365 0.0000
0.0000 0.9379 0.0000
0.0250 0.9379 0.0000
0.0939 0.9379 0.0000
0.2324 0.9379 0.0000
0.4696 0.9379 0.0000
0.6927 0.9379 0.0000
0.8365 0.9379 0.0000
0.9379 0.9379 0.0000
0.0000 0.0000 0.0250
0.0250 0.0000 0.0250
0.0940 0.0000 0.0250
0.2324 0.0000 0.0250
0.4696 0.0000 0.0250
0.6927 0.0000 0.0250
0.8364 0.0000 0.0249
0.9379 0.0000 0.0250
0.0000 0.0250 0.0250
0.0250 0.0250 0.0250
0.1003 0.0186 0.0186
0.2514 0.0060 0.0060
0.4945 0.0000 0.0000
0.7177 0.0000 0.0000
0.8614 0.0000 0.0000
0.9629 0.0000 0.0000
0.0000 0.0940 0.0250
0.0166 0.1024 0.0166
0.1024 0.1024 0.0166
0.2522 0.0873 0.0051
0.4945 0.0768 0.0000
0.7177 0.0741 0.0000
0.8614 0.0732 0.0000
0.9629 0.0729 0.0000
0.0000 0.2324 0.0250
0.0000 0.2574 0.0000
0.0857 0.2574 0.0000
0.2574 0.2574 0.0000
0.4945 0.2307 0.0000
0.7177 0.2229 0.0000
0.8614 0.2202 0.0000
0.9629 0.2189 0.0000
0.0000 0.4696 0.0250
0.0000 0.4945 0.0000
0.0768 0.4945 0.0000
0.2307 0.4945 0.0000
0.4945 0.4945 0.0000
0.7177 0.4779 0.0000
0.8614 0.4719 0.0000
0.9629 0.4690 0.0000
0.0000 0.6927 0.0250
0.0000 0.7177 0.0000
0.0741 0.7177 0.0000
0.2229 0.7177 0.0000
0.4779 0.7177 0.0000
0.7177 0.7177 0.0000
0.8614 0.7089 0.0000
0.9629 0.7043 0.0000
0.0000 0.8364 0.0249
0.0000 0.8614 0.0000
0.0732 0.8614 0.0000
0.2202 0.8614 0.0000
0.4719 0.8614 0.0000
0.7089 0.8614 0.0000
0.8614 0.8614 0.0000
0.9629 0.8559 0.0000
0.0000 0.9379 0.0250
0.0000 0.9629 0.0000
0.0729 0.9629 0.0000
0.2189 0.9629 0.0000
0.4690 0.9629 0.0000
0.7043 0.9629 0.0000
0.8559 0.9629 0.0000
0.9629 0.9629 0.0000
0.0000 0.0000 0.0940
0.0250 0.0000 0.0940
0.0940 0.0000 0.0940
0.2324 0.0000 0.0940
0.4696 0.0000 0.0940
0.6927 0.0000 0.0940
0.8364 0.0000 0.0939
0.9379 0.0000 0.0939
0.0000 0.0250 0.0940
0.0166 0.0166 0.1024
0.1024 0.0166 0.1024
0.2526 0.0047 0.0872
0.4945 0.0000 0.0768
0.7177 0.0000 0.0741
0.8614 0.0000 0.0732
0.9629 0.0000 0.0729
0.0000 0.0940 0.0940
0.0166 0.1024 0.1024
0.0940 0.0940 0.0940
0.2451 0.0813 0.0813
0.5040 0.0595 0.0595
0.7477 0.0390 0.0390
0.9045 0.0258 0.0258
1.0000 0.0319 0.0319
0.0000 0.2324 0.0940
0.0000 0.2574 0.0857
0.0772 0.2491 0.0772
0.2491 0.2491 0.0772
0.5062 0.2227 0.0573
0.7477 0.2029 0.0390
0.9045 0.1898 0.0258
1.0000 0.1907 0.0319
0.0000 0.4696 0.0940
0.0000 0.4945 0.0768
0.0485 0.5150 0.0485
0.2204 0.5150 0.0485
0.5150 0.5150 0.0485
0.7605 0.4868 0.0262
0.9161 0.4705 0.0142
1.0000 0.4628 0.0319
0.0000 0.6927 0.0940
0.0000 0.7177 0.0741
0.0215 0.7652 0.0215
0.1934 0.7652 0.0215
0.4880 0.7652 0.0215
0.7652 0.7652 0.0215
0.9263 0.7477 0.0041
1.0000 0.7187 0.0319
0.0000 0.8364 0.0939
0.0000 0.8614 0.0732
0.0041 0.9263 0.0041
0.1761 0.9263 0.0041
0.4706 0.9263 0.0041
0.7477 0.9263 0.0041
0.9263 0.9263 0.0041
1.0000 0.8835 0.0319
0.0000 0.9379 0.0939
0.0000 0.9629 0.0729
0.0319 1.0000 0.0319
0.1907 1.0000 0.0319
0.4628 1.0000 0.0319
0.7187 1.0000 0.0319
0.8835 1.0000 0.0319
1.0000 1.0000 0.0319
0.0000 0.0000 0.2324
0.0250 0.0000 0.2324
0.0940 0.0000 0.2324
0.2324 0.0000 0.2324
0.4696 0.0000 0.2324
0.6927 0.0000 0.2324
0.8364 0.0000 0.2324
0.9379 0.0000 0.2324
0.0000 0.0250 0.2324
0.0000 0.0000 0.2574
0.0857 0.0000 0.2574
0.2574 0.0000 0.2574
0.4945 0.0000 0.2307
0.7177 0.0000 0.2229
0.8614 0.0000 0.2202
0.9629 0.0000 0.2189
0.0000 0.0940 0.2324
0.0000 0.0857 0.2574
0.0772 0.0772 0.2491
0.2491 0.0772 0.2491
0.5070 0.0566 0.2225
0.7477 0.0390 0.2029
0.9045 0.0258 0.1898
1.0000 0.0319 0.1907
0.0000 0.2324 0.2324
0.0000 0.2574 0.2574
0.0772 0.2491 0.2491
0.2324 0.2324 0.2324
0.4913 0.2106 0.2106
0.7350 0.1901 0.1901
0.8918 0.1769 0.1769
1.0000 0.1703 0.1703
0.0000 0.4696 0.2324
0.0000 0.4945 0.2307
0.0485 0.5150 0.2204
0.2037 0.4983 0.2037
0.4983 0.4983 0.2037
0.7422 0.4710 0.1829
0.8965 0.4566 0.1722
1.0000 0.4492 0.1703
0.0000 0.6927 0.2324
0.0000 0.7177 0.2229
0.0215 0.7652 0.1934
0.1766 0.7484 0.1766
0.4712 0.7484 0.1766
0.7484 0.7484 0.1766
0.9095 0.7311 0.1592
1.0000 0.7118 0.1703
0.0000 0.8364 0.2324
0.0000 0.8614 0.2202
0.0041 0.9263 0.1761
0.1592 0.9095 0.1592
0.4538 0.9095 0.1592
0.7311 0.9095 0.1592
0.9095 0.9095 0.1592
1.0000 0.8807 0.1703
0.0000 0.9379 0.2324
0.0000 0.9629 0.2189
0.0319 1.0000 0.1907
0.1703 1.0000 0.1703
0.4492 1.0000 0.1703
0.7118 1.0000 0.1703
0.8807 1.0000 0.1703
1.0000 1.0000 0.1703
0.0000 0.0000 0.4696
0.0250 0.0000 0.4696
0.0940 0.0000 0.4696
0.2324 0.0000 0.4696
0.4696 0.0000 0.4696
0.6927 0.0000 0.4695
0.8364 0.0000 0.4695
0.9379 0.0000 0.4696
0.0000 0.0250 0.4696
0.0000 0.0000 0.4945
0.0768 0.0000 0.4945
0.2307 0.0000 0.4945
0.4945 0.0000 0.4945
0.7177 0.0000 0.4779
0.8614 0.0000 0.4719
0.9629 0.0000 0.4690
0.0000 0.0940 0.4696
0.0000 0.0768 0.4945
0.0485 0.0485 0.5150
0.2204 0.0485 0.5150
0.5150 0.0485 0.5150
0.7617 0.0250 0.4871
0.9161 0.0142 0.4705
1.0000 0.0319 0.4628
0.0000 0.2324 0.4696
0.0000 0.2307 0.4945
0.0485 0.2204 0.5150
0.2037 0.2037 0.4983
0.4983 0.2037 0.4983
0.7422 0.1829 0.4710
0.8977 0.1711 0.4563
1.0000 0.1703 0.4492
0.0000 0.4696 0.4696
0.0000 0.4945 0.4945
0.0485 0.5150 0.5150
0.2037 0.4983 0.4983
0.4696 0.4696 0.4696
0.7132 0.4490 0.4490
0.8701 0.4359 0.4359
0.9809 0.4266 0.4266
0.0000 0.6927 0.4695
0.0000 0.7177 0.4779
0.0215 0.7652 0.4880
0.1766 0.7484 0.4712
0.4425 0.7197 0.4425
0.7197 0.7197 0.4425
0.8780 0.7017 0.4280
0.9873 0.6904 0.4201
0.0000 0.8364 0.4695
0.0000 0.8614 0.4719
0.0041 0.9263 0.4706
0.1592 0.9095 0.4538
0.4251 0.8808 0.4251
0.7024 0.8808 0.4251
0.8808 0.8808 0.4251
0.9946 0.8685 0.4128
0.0000 0.9379 0.4696
0.0000 0.9629 0.4690
0.0319 1.0000 0.4628
0.1703 1.0000 0.4492
0.4128 0.9946 0.4128
0.6901 0.9946 0.4128
0.8685 0.9946 0.4128
0.9946 0.9946 0.4128
0.0000 0.0000 0.6927
0.0250 0.0000 0.6927
0.0940 0.0000 0.6927
0.2324 0.0000 0.6927
0.4695 0.0000 0.6927
0.6927 0.0000 0.6927
0.8364 0.0000 0.6926
0.9379 0.0000 0.6927
0.0000 0.0250 0.6927
0.0000 0.0000 0.7177
0.0741 0.0000 0.7177
0.2229 0.0000 0.7177
0.4779 0.0000 0.7177
0.7177 0.0000 0.7177
0.8614 0.0000 0.7089
0.9629 0.0000 0.7043
0.0000 0.0940 0.6927
0.0000 0.0741 0.7177
0.0215 0.0215 0.7652
0.1934 0.0215 0.7652
0.4880 0.0215 0.7652
0.7652 0.0215 0.7652
0.9263 0.0041 0.7477
1.0000 0.0319 0.7187
0.0000 0.2324 0.6927
0.0000 0.2229 0.7177
0.0215 0.1934 0.7652
0.1766 0.1766 0.7484
0.4712 0.1766 0.7484
0.7484 0.1766 0.7484
0.9095 0.1592 0.7311
1.0000 0.1703 0.7118
0.0000 0.4695 0.6927
0.0000 0.4779 0.7177
0.0215 0.4880 0.7652
0.1766 0.4712 0.7484
0.4425 0.4425 0.7197
0.7197 0.4425 0.7197
0.8780 0.4280 0.7017
0.9873 0.4201 0.6904
0.0000 0.6927 0.6927
0.0000 0.7177 0.7177
0.0215 0.7652 0.7652
0.1766 0.7484 0.7484
0.4425 0.7197 0.7197
0.6927 0.6927 0.6927
0.8496 0.6795 0.6795
0.9604 0.6702 0.6702
0.0000 0.8364 0.6926
0.0000 0.8614 0.7089
0.0041 0.9263 0.7477
0.1592 0.9095 0.7311
0.4251 0.8808 0.7024
0.6753 0.8538 0.6753
0.8538 0.8538 0.6753
0.9652 0.8411 0.6654
0.0000 0.9379 0.6927
0.0000 0.9629 0.7043
0.0319 1.0000 0.7187
0.1703 1.0000 0.7118
0.4128 0.9946 0.6901
0.6630 0.9676 0.6630
0.8415 0.9676 0.6630
0.9676 0.9676 0.6630
0.0000 0.0000 0.8364
0.0249 0.0000 0.8364
0.0939 0.0000 0.8364
0.2324 0.0000 0.8364
0.4695 0.0000 0.8364
0.6926 0.0000 0.8364
0.8364 0.0000 0.8364
0.9379 0.0000 0.8365
0.0000 0.0249 0.8364
0.0000 0.0000 0.8614
0.0732 0.0000 0.8614
0.2202 0.0000 0.8614
0.4719 0.0000 0.8614
0.7089 0.0000 0.8614
0.8614 0.0000 0.8614
0.9629 0.0000 0.8559
0.0000 0.0939 0.8364
0.0000 0.0732 0.8614
0.0041 0.0041 0.9263
0.1761 0.0041 0.9263
0.4706 0.0041 0.9263
0.7477 0.0041 0.9263
0.9263 0.0041 0.9263
1.0000 0.0319 0.8835
0.0000 0.2324 0.8364
0.0000 0.2202 0.8614
0.0041 0.1761 0.9263
0.1592 0.1592 0.9095
0.4538 0.1592 0.9095
0.7311 0.1592 0.9095
0.9095 0.1592 0.9095
1.0000 0.1703 0.8807
0.0000 0.4695 0.8364
0.0000 0.4719 0.8614
0.0041 0.4706 0.9263
0.1592 0.4538 0.9095
0.4251 0.4251 0.8808
0.7024 0.4251 0.8808
0.8808 0.4251 0.8808
0.9946 0.4128 0.8685
0.0000 0.6926 0.8364
0.0000 0.7089 0.8614
0.0041 0.7477 0.9263
0.1592 0.7311 0.9095
0.4251 0.7024 0.8808
0.6753 0.6753 0.8538
0.8538 0.6753 0.8538
0.9657 0.6649 0.8412
0.0000 0.8364 0.8364
0.0000 0.8614 0.8614
0.0041 0.9263 0.9263
0.1592 0.9095 0.9095
0.4251 0.8808 0.8808
0.6753 0.8538 0.8538
0.8364 0.8364 0.8364
0.9472 0.8271 0.8271
0.0000 0.9379 0.8365
0.0000 0.9629 0.8559
0.0319 1.0000 0.8835
0.1703 1.0000 0.8807
0.4128 0.9946 0.8685
0.6630 0.9676 0.8415
0.8241 0.9502 0.8241
0.9502 0.9502 0.8241
0.0000 0.0000 0.9379
0.0250 0.0000 0.9379
0.0939 0.0000 0.9379
0.2324 0.0000 0.9379
0.4696 0.0000 0.9379
0.6927 0.0000 0.9379
0.8365 0.0000 0.9379
0.9379 0.0000 0.9379
0.0000 0.0250 0.9379
0.0000 0.0000 0.9629
0.0729 0.0000 0.9629
0.2189 0.0000 0.9629
0.4690 0.0000 0.9629
0.7043 0.0000 0.9629
0.8559 0.0000 0.9629
0.9629 0.0000 0.9629
0.0000 0.0939 0.9379
0.0000 0.0729 0.9629
0.0319 0.0319 1.0000
0.1907 0.0319 1.0000
0.4628 0.0319 1.0000
0.7187 0.0319 1.0000
0.8835 0.0319 1.0000
1.0000 0.0319 1.0000
0.0000 0.2324 0.9379
0.0000 0.2189 0.9629
0.0319 0.1907 1.0000
0.1703 0.1703 1.0000
0.4492 0.1703 1.0000
0.7118 0.1703 1.0000
0.8807 0.1703 1.0000
1.0000 0.1703 1.0000
0.0000 0.4696 0.9379
0.0000 0.4690 0.9629
0.0319 0.4628 1.0000
0.1703 0.4492 1.0000
0.4128 0.4128 0.9946
0.6901 0.4128 0.9946
0.8685 0.4128 0.9946
0.9946 0.4128 0.9946
0.0000 0.6927 0.9379
0.0000 0.7043 0.9629
0.0319 0.7187 1.0000
0.1703 0.7118 1.0000
0.4128 0.6901 0.9946
0.6630 0.6630 0.9676
0.8415 0.6630 0.9676
0.9676 0.6630 0.9676
0.0000 0.8365 0.9379
0.0000 0.8559 0.9629
0.0319 0.8835 1.0000
0.1703 0.8807 1.0000
0.4128 0.8685 0.9946
0.6630 0.8415 0.9676
0.8241 0.8241 0.9502
0.9502 0.8241 0.9502
0.0000 0.9379 0.9379
0.0000 0.9629 0.9629
0.0319 1.0000 1.0000
0.1703 1.0000 1.0000
0.4128 0.9946 0.9946
0.6630 0.9676 0.9676
0.8241 0.9502 0.9502
0.9379 0.9379 0.9379
