LUTs/Utility/LOG to Rec.709.cube
TITLE "VisionColor Utility LUT: LOG to Rec.709"
LUT_3D_SIZE 32
0.0000 0.0000 0.0000
0.0042 0.0000 0.0000
0.0091 0.0000 0.0000
0.0157 0.0000 0.0000
0.0250 0.0000 0.0000
0.0375 0.0000 0.0000
0.0532 0.0000 0.0000
0.0721 0.0000 0.0000
0.0940 0.0000 0.0000
0.1195 0.0000 0.0000
0.1500 0.0000 0.0000
0.1872 0.0000 0.0000
0.2324 0.0000 0.0000
0.2856 0.0000 0.0000
0.3444 0.0000 0.0000
0.4065 0.0000 0.0000
0.4696 0.0000 0.0000
0.5313 0.0000 0.0000
0.5902 0.0000 0.0000
0.6445 0.0000 0.0000
0.6927 0.0000 0.0000
0.7349 0.0000 0.0000
0.7722 0.0000 0.0000
0.8057 0.0000 0.0000
0.8364 0.0000 0.0000
0.8647 0.0000 0.0000
0.8909 0.0000 0.0000
0.9152 0.0000 0.0000
0.9379 0.0000 0.0000
0.9593 0.0000 0.0000
0.9799 0.0000 0.0000
1.0000 0.0000 0.0000
0.0000 0.0042 0.0000
0.0042 0.0042 0.0000
0.0091 0.0042 0.0000
0.0157 0.0042 0.0000
0.0250 0.0042 0.0000
0.0375 0.0042 0.0000
0.0532 0.0042 0.0000
0.0721 0.0042 0.0000
0.0940 0.0042 0.0000
0.1195 0.0042 0.0000
0.1500 0.0042 0.0000
0.1872 0.0042 0.0000
0.2324 0.0042 0.0000
0.2856 0.0042 0.0000
0.3444 0.0042 0.0000
0.4065 0.0042 0.0000
0.4696 0.0041 0.0000
0.5313 0.0042 0.0000
0.5902 0.0042 0.0000
0.6445 0.0042 0.0000
0.6927 0.0042 0.0000
0.7349 0.0041 0.0000
0.7722 0.0042 0.0000
0.8057 0.0041 0.0000
0.8364 0.0041 0.0000
0.8647 0.0042 0.0000
0.8909 0.0041 0.0000
0.9152 0.0042 0.0000
0.9379 0.0041 0.0000
0.9593 0.0042 0.0000
0.9799 0.0041 0.0000
1.0000 0.0042 0.0000
0.0000 0.0091 0.0000
0.0042 0.0091 0.0000
0.0091 0.0091 0.0000
0.0157 0.0091 0.0000
0.0250 0.0091 0.0000
0.0375 0.0091 0.0000
0.0532 0.0091 0.0000
0.0721 0.0091 0.0000
0.0940 0.0091 0.0000
0.1195 0.0091 0.0000
0.1500 0.0091 0.0000
0.1872 0.0091 0.0000
0.2324 0.0091 0.0000
0.2856 0.0091 0.0000
0.3444 0.0091 0.0000
0.4065 0.0091 0.0000
0.4696 0.0091 0.0000
0.5313 0.0091 0.0000
0.5902 0.0091 0.0000
0.6445 0.0091 0.0000
0.6927 0.0091 0.0000
0.7349 0.0092 0.0000
0.7722 0.0091 0.0000
0.8057 0.0091 0.0000
0.8364 0.0092 0.0000
0.8647 0.0091 0.0000
0.8909 0.0091 0.0000
0.9152 0.0092 0.0000
0.9379 0.0092 0.0000
0.9593 0.0091 0.0000
0.9799 0.0091 0.0000
1.0000 0.0090 0.0000
0.0000 0.0157 0.0000
0.0042 0.0157 0.0000
0.0091 0.0157 0.0000
0.0157 0.0157 0.0000
0.0250 0.0157 0.0000
0.0375 0.0157 0.0000
0.0532 0.0157 0.0000
0.0721 0.0157 0.0000
0.0940 0.0157 0.0000
0.1195 0.0157 0.0000
0.1500 0.0157 0.0000
0.1872 0.0157 0.0000
0.2324 0.0157 0.0000
0.2856 0.0157 0.0000
0.3444 0.0157 0.0000
0.4065 0.0157 0.0000
0.4696 0.0157 0.0000
0.5313 0.0157 0.0000
0.5902 0.0157 0.0000
0.6445 0.0157 0.0000
0.6927 0.0157 0.0000
0.7349 0.0156 0.0000
0.7722 0.0157 0.0000
0.8057 0.0157 0.0000
0.8364 0.0157 0.0000
0.8647 0.0156 0.0000
0.8909 0.0157 0.0000
0.9152 0.0157 0.0000
0.9379 0.0158 0.0000
0.9593 0.0157 0.0000
0.9799 0.0158 0.0000
1.0000 0.0156 0.0000
0.0000 0.0250 0.0000
0.0042 0.0250 0.0000
0.0091 0.0250 0.0000
0.0157 0.0250 0.0000
0.0250 0.0250 0.0000
0.0375 0.0250 0.0000
0.0532 0.0250 0.0000
0.0721 0.0250 0.0000
0.0940 0.0250 0.0000
0.1195 0.0250 0.0000
0.1500 0.0250 0.0000
0.1872 0.0250 0.0000
0.2324 0.0250 0.0000
0.2856 0.0250 0.0000
0.3444 0.0250 0.0000
0.4065 0.0250 0.0000
0.4696 0.0250 0.0000
0.5313 0.0250 0.0000
0.5902 0.0249 0.0000
0.6445 0.0250 0.0000
0.6927 0.0250 0.0000
0.7349 0.0249 0.0000
0.7722 0.0251 0.0000
0.8057 0.0250 0.0000
0.8364 0.0249 0.0000
0.8647 0.0249 0.0000
0.8909 0.0250 0.0000
0.9152 0.0250 0.0000
0.9379 0.0250 0.0000
0.9593 0.0251 0.0000
0.9799 0.0249 0.0000
1.0000 0.0249 0.0000
0.0000 0.0375 0.0000
0.0042 0.0375 0.0000
0.0091 0.0375 0.0000
0.0157 0.0375 0.0000
0.0250 0.0375 0.0000
0.0375 0.0375 0.0000
0.0532 0.0375 0.0000
0.0721 0.0375 0.0000
0.0940 0.0375 0.0000
0.1195 0.0375 0.0000
0.1500 0.0375 0.0000
0.1872 0.0375 0.0000
0.2324 0.0375 0.0000
0.2856 0.0375 0.0000
0.3444 0.0375 0.0000
0.4065 0.0375 0.0000
0.4696 0.0375 0.0000
0.5313 0.0375 0.0000
0.5902 0.0375 0.0000
0.6445 0.0374 0.0000
0.6927 0.0375 0.0000
0.7349 0.0375 0.0000
0.7722 0.0375 0.0000
0.8057 0.0376 0.0000
0.8364 0.0376 0.0000
0.8647 0.0376 0.0000
0.8909 0.0374 0.0000
0.9152 0.0375 0.0000
0.9379 0.0376 0.0000
0.9593 0.0375 0.0000
0.9799 0.0376 0.0000
1.0000 0.0376 0.0000
0.0000 0.0532 0.0000
0.0042 0.0532 0.0000
0.0091 0.0532 0.0000
0.0157 0.0532 0.0000
0.0250 0.0532 0.0000
0.0375 0.0532 0.0000
0.0532 0.0532 0.0000
0.0721 0.0532 0.0000
0.0940 0.0532 0.0000
0.1195 0.0532 0.0000
0.1500 0.0532 0.0000
0.1872 0.0532 0.0000
0.2324 0.0532 0.0000
0.2856 0.0532 0.0000
0.3444 0.0532 0.0000
0.4065 0.0532 0.0000
0.4696 0.0532 0.0000
0.5313 0.0532 0.0000
0.5902 0.0532 0.0000
0.6445 0.0532 0.0000
0.6927 0.0533 0.0000
0.7349 0.0531 0.0000
0.7722 0.0532 0.0000
0.8057 0.0531 0.0000
0.8364 0.0531 0.0000
0.8647 0.0532 0.0000
0.8909 0.0533 0.0000
0.9152 0.0532 0.0000
0.9379 0.0531 0.0000
0.9593 0.0532 0.0000
0.9799 0.0531 0.0000
1.0000 0.0532 0.0000
0.0000 0.0721 0.0000
0.0042 0.0721 0.0000
0.0091 0.0721 0.0000
0.0157 0.0721 0.0000
0.0250 0.0721 0.0000
0.0375 0.0721 0.0000
0.0532 0.0721 0.0000
0.0721 0.0721 0.0000
0.0940 0.0721 0.0000
0.1195 0.0721 0.0000
0.1500 0.0721 0.0000
0.1872 0.0721 0.0000
0.2324 0.0721 0.0000
0.2856 0.0721 0.0000
0.3444 0.0721 0.0000
0.4065 0.0721 0.0000
0.4696 0.0721 0.0000
0.5313 0.0721 0.0000
0.5902 0.0721 0.0000
0.6445 0.0721 0.0000
0.6927 0.0721 0.0000
0.7349 0.0721 0.0000
0.7722 0.0720 0.0000
0.8057 0.0720 0.0000
0.8364 0.0721 0.0000
0.8647 0.0720 0.0000
0.8909 0.0720 0.0000
0.9152 0.0722 0.0000
0.9379 0.0721 0.0000
0.9593 0.0721 0.0000
0.9799 0.0720 0.0000
1.0000 0.0720 0.0000
0.0000 0.0940 0.0000
0.0042 0.0940 0.0000
0.0091 0.0940 0.0000
0.0157 0.0940 0.0000
0.0250 0.0940 0.0000
0.0375 0.0940 0.0000
0.0532 0.0940 0.0000
0.0721 0.0940 0.0000
0.0940 0.0940 0.0000
0.1195 0.0940 0.0000
0.1500 0.0940 0.0000
0.1872 0.0940 0.0000
0.2324 0.0940 0.0000
0.2856 0.0940 0.0000
0.3444 0.0940 0.0000
0.4065 0.0940 0.0000
0.4696 0.0940 0.0000
0.5313 0.0941 0.0000
0.5902 0.0940 0.0000
0.6445 0.0939 0.0000
0.6927 0.0940 0.0000
0.7349 0.0940 0.0000
0.7722 0.0941 0.0000
0.8057 0.0940 0.0000
0.8364 0.0939 0.0000
0.8647 0.0939 0.0000
0.8909 0.0940 0.0000
0.9152 0.0941 0.0000
0.9379 0.0939 0.0000
0.9593 0.0939 0.0000
0.9799 0.0940 0.0000
1.0000 0.0940 0.0000
0.0000 0.1195 0.0000
0.0042 0.1195 0.0000
0.0091 0.1195 0.0000
0.0157 0.1195 0.0000
0.0250 0.1195 0.0000
0.0375 0.1195 0.0000
0.0532 0.1195 0.0000
0.0721 0.1195 0.0000
0.0940 0.1195 0.0000
0.1195 0.1195 0.0000
0.1500 0.1195 0.0000
0.1872 0.1195 0.0000
0.2324 0.1195 0.0000
0.2856 0.1195 0.0000
0.3444 0.1195 0.0000
0.4065 0.1195 0.0000
0.4696 0.1194 0.0000
0.5313 0.1195 0.0000
0.5902 0.1194 0.0000
0.6445 0.1194 0.0000
0.6927 0.1194 0.0000
0.7349 0.1195 0.0000
0.7722 0.1195 0.0000
0.8057 0.1194 0.0000
0.8364 0.1194 0.0000
0.8647 0.1195 0.0000
0.8909 0.1194 0.0000
0.9152 0.1195 0.0000
0.9379 0.1195 0.0000
0.9593 0.1194 0.0000
0.9799 0.1194 0.0000
1.0000 0.1194 0.0000
0.0000 0.1500 0.0000
0.0042 0.1500 0.0000
0.0091 0.1500 0.0000
0.0157 0.1500 0.0000
0.0250 0.1500 0.0000
0.0375 0.1500 0.0000
0.0532 0.1500 0.0000
0.0721 0.1500 0.0000
0.0940 0.1500 0.0000
0.1195 0.1500 0.0000
0.1500 0.1500 0.0000
0.1872 0.1500 0.0000
0.2324 0.1500 0.0000
0.2856 0.1500 0.0000
0.3444 0.1500 0.0000
0.4065 0.1501 0.0000
0.4696 0.1499 0.0000
0.5313 0.1500 0.0000
0.5902 0.1500 0.0000
0.6445 0.1500 0.0000
0.6927 0.1500 0.0000
0.7349 0.1500 0.0000
0.7722 0.1501 0.0000
0.8057 0.1501 0.0000
0.8364 0.1501 0.0000
0.8647 0.1499 0.0000
0.8909 0.1501 0.0000
0.9152 0.1499 0.0000
0.9379 0.1500 0.0000
0.9593 0.1499 0.0000
0.9799 0.1500 0.0000
1.0000 0.1499 0.0000
0.0000 0.1872 0.0000
0.0042 0.1872 0.0000
0.0091 0.1872 0.0000
0.0157 0.1872 0.0000
0.0250 0.1872 0.0000
0.0375 0.1872 0.0000
0.0532 0.1872 0.0000
0.0721 0.1872 0.0000
0.0940 0.1872 0.0000
0.1195 0.1872 0.0000
0.1500 0.1872 0.0000
0.1872 0.1872 0.0000
0.2324 0.1872 0.0000
0.2856 0.1872 0.0000
0.3444 0.1872 0.0000
0.4065 0.1872 0.0000
0.4696 0.1872 0.0000
0.5313 0.1872 0.0000
0.5902 0.1872 0.0000
0.6445 0.1873 0.0000
0.6927 0.1872 0.0000
0.7349 0.1871 0.0000
0.7722 0.1872 0.0000
0.8057 0.1873 0.0000
0.8364 0.1873 0.0000
0.8647 0.1873 0.0000
0.8909 0.1873 0.0000
0.9152 0.1873 0.0000
0.9379 0.1873 0.0000
0.9593 0.1871 0.0000
0.9799 0.1871 0.0000
1.0000 0.1873 0.0000
0.0000 0.2324 0.0000
0.0042 0.2324 0.0000
0.0091 0.2324 0.0000
0.0157 0.2324 0.0000
0.0250 0.2324 0.0000
0.0375 0.2324 0.0000
0.0532 0.2324 0.0000
0.0721 0.2324 0.0000
0.0940 0.2324 0.0000
0.1195 0.2324 0.0000
0.1500 0.2324 0.0000
0.1872 0.2324 0.0000
0.2324 0.2324 0.0000
0.2856 0.2324 0.0000
0.3444 0.2324 0.0000
0.4065 0.2324 0.0000
0.4696 0.2324 0.0000
0.5313 0.2323 0.0000
0.5902 0.2324 0.0000
0.6445 0.2324 0.0000
0.6927 0.2324 0.0000
0.7349 0.2324 0.0000
0.7722 0.2325 0.0000
0.8057 0.2323 0.0000
0.8364 0.2324 0.0000
0.8647 0.2324 0.0000
0.8909 0.2323 0.0000
0.9152 0.2324 0.0000
0.9379 0.2324 0.0000
0.9593 0.2323 0.0000
0.9799 0.2323 0.0000
1.0000 0.2324 0.0000
0.0000 0.2856 0.0000
0.0042 0.2856 0.0000
0.0091 0.2856 0.0000
0.0157 0.2856 0.0000
0.0250 0.2856 0.0000
0.0375 0.2856 0.0000
0.0532 0.2856 0.0000
0.0721 0.2856 0.0000
0.0940 0.2856 0.0000
0.1195 0.2856 0.0000
0.1500 0.2856 0.0000
0.1872 0.2856 0.0000
0.2324 0.2856 0.0000
0.2856 0.2856 0.0000
0.3444 0.2856 0.0000
0.4065 0.2856 0.0000
0.4696 0.2856 0.0000
0.5313 0.2856 0.0000
0.5902 0.2856 0.0000
0.6445 0.2856 0.0000
0.6927 0.2856 0.0000
0.7349 0.2856 0.0000
0.7722 0.2856 0.0000
0.8057 0.2856 0.0000
0.8364 0.2857 0.0000
0.8647 0.2856 0.0000
0.8909 0.2856 0.0000
0.9152 0.2856 0.0000
0.9379 0.2855 0.0000
0.9593 0.2855 0.0000
0.9799 0.2856 0.0000
1.0000 0.2856 0.0000
0.0000 0.3444 0.0000
0.0042 0.3444 0.0000
0.0091 0.3444 0.0000
0.0157 0.3444 0.0000
0.0250 0.3444 0.0000
0.0375 0.3444 0.0000
0.0532 0.3444 0.0000
0.0721 0.3444 0.0000
0.0940 0.3444 0.0000
0.1195 0.3444 0.0000
0.1500 0.3444 0.0000
0.1872 0.3444 0.0000
0.2324 0.3444 0.0000
0.2856 0.3444 0.0000
0.3444 0.3444 0.0000
0.4065 0.3443 0.0000
0.4696 0.3444 0.0000
0.5313 0.3444 0.0000
0.5902 0.3444 0.0000
0.6445 0.3444 0.0000
0.6927 0.3443 0.0000
0.7349 0.3443 0.0000
0.7722 0.3445 0.0000
0.8057 0.3445 0.0000
0.8364 0.3443 0.0000
0.8647 0.3443 0.0000
0.8909 0.3443 0.0000
0.9152 0.3443 0.0000
0.9379 0.3444 0.0000
0.9593 0.3443 0.0000
0.9799 0.3443 0.0000
1.0000 0.3445 0.0000
0.0000 0.4065 0.0000
0.0042 0.4065 0.0000
0.0091 0.4065 0.0000
0.0157 0.4065 0.0000
0.0250 0.4065 0.0000
0.0375 0.4065 0.0000
0.0532 0.4065 0.0000
0.0721 0.4065 0.0000
0.0940 0.4065 0.0000
0.1195 0.4065 0.0000
0.1501 0.4065 0.0000
0.1872 0.4065 0.0000
0.2324 0.4065 0.0000
0.2856 0.4065 0.0000
0.3443 0.4065 0.0000
0.4065 0.4065 0.0000
0.4696 0.4065 0.0000
0.5313 0.4064 0.0000
0.5902 0.4065 0.0000
0.6445 0.4064 0.0000
0.6927 0.4064 0.0000
0.7349 0.4064 0.0000
0.7722 0.4065 0.0000
0.8057 0.4064 0.0000
0.8364 0.4066 0.0000
0.8647 0.4064 0.0000
0.8909 0.4065 0.0000
0.9152 0.4064 0.0000
0.9379 0.4064 0.0000
0.9593 0.4063 0.0000
0.9799 0.4065 0.0000
1.0000 0.4065 0.0000
0.0000 0.4696 0.0000
0.0041 0.4696 0.0000
0.0091 0.4696 0.0000
0.0157 0.4696 0.0000
0.0250 0.4696 0.0000
0.0375 0.4696 0.0000
0.0532 0.4696 0.0000
0.0721 0.4696 0.0000
0.0940 0.4696 0.0000
0.1194 0.4696 0.0000
0.1499 0.4696 0.0000
0.1872 0.4696 0.0000
0.2324 0.4696 0.0000
0.2856 0.4696 0.0000
0.3444 0.4696 0.0000
0.4065 0.4696 0.0000
0.4696 0.4696 0.0000
0.5313 0.4696 0.0000
0.5902 0.4696 0.0000
0.6445 0.4696 0.0000
0.6927 0.4695 0.0000
0.7349 0.4696 0.0000
0.7722 0.4696 0.0000
0.8057 0.4696 0.0000
0.8364 0.4695 0.0000
0.8647 0.4695 0.0000
0.8909 0.4696 0.0000
0.9152 0.4695 0.0000
0.9379 0.4696 0.0000
0.9593 0.4696 0.0000
0.9799 0.4696 0.0000
1.0000 0.4695 0.0000
0.0000 0.5313 0.0000
0.0042 0.5313 0.0000
0.0091 0.5313 0.0000
0.0157 0.5313 0.0000
0.0250 0.5313 0.0000
0.0375 0.5313 0.0000
0.0532 0.5313 0.0000
0.0721 0.5313 0.0000
0.0941 0.5313 0.0000
0.1195 0.5313 0.0000
0.1500 0.5313 0.0000
0.1872 0.5313 0.0000
0.2323 0.5313 0.0000
0.2856 0.5313 0.0000
0.3444 0.5313 0.0000
0.4064 0.5313 0.0000
0.4696 0.5313 0.0000
0.5313 0.5313 0.0000
0.5902 0.5313 0.0000
0.6445 0.5314 0.0000
0.6927 0.5314 0.0000
0.7349 0.5313 0.0000
0.7722 0.5313 0.0000
0.8057 0.5313 0.0000
0.8364 0.5313 0.0000
0.8647 0.5314 0.0000
0.8909 0.5314 0.0000
0.9152 0.5313 0.0000
0.9379 0.5312 0.0000
0.9593 0.5314 0.0000
0.9799 0.5313 0.0000
1.0000 0.5312 0.0000
0.0000 0.5902 0.0000
0.0042 0.5902 0.0000
0.0091 0.5902 0.0000
0.0157 0.5902 0.0000
0.0249 0.5902 0.0000
0.0375 0.5902 0.0000
0.0532 0.5902 0.0000
0.0721 0.5902 0.0000
0.0940 0.5902 0.0000
0.1194 0.5902 0.0000
0.1500 0.5902 0.0000
0.1872 0.5902 0.0000
0.2324 0.5902 0.0000
0.2856 0.5902 0.0000
0.3444 0.5902 0.0000
0.4065 0.5902 0.0000
0.4696 0.5902 0.0000
0.5313 0.5902 0.0000
0.5902 0.5902 0.0000
0.6445 0.5902 0.0000
0.6927 0.5902 0.0000
0.7349 0.5903 0.0000
0.7722 0.5903 0.0000
0.8057 0.5903 0.0000
0.8364 0.5903 0.0000
0.8647 0.5903 0.0000
0.8909 0.5903 0.0000
0.9152 0.5903 0.0000
0.9379 0.5903 0.0000
0.9593 0.5902 0.0000
0.9799 0.5902 0.0000
1.0000 0.5903 0.0000
0.0000 0.6445 0.0000
0.0042 0.6445 0.0000
0.0091 0.6445 0.0000
0.0157 0.6445 0.0000
0.0250 0.6445 0.0000
0.0374 0.6445 0.0000
0.0532 0.6445 0.0000
0.0721 0.6445 0.0000
0.0939 0.6445 0.0000
0.1194 0.6445 0.0000
0.1500 0.6445 0.0000
0.1873 0.6445 0.0000
0.2324 0.6445 0.0000
0.2856 0.6445 0.0000
0.3444 0.6445 0.0000
0.4064 0.6445 0.0000
0.4696 0.6445 0.0000
0.5314 0.6445 0.0000
0.5902 0.6445 0.0000
0.6445 0.6445 0.0000
0.6927 0.6445 0.0000
0.7349 0.6445 0.0000
0.7722 0.6446 0.0000
0.8057 0.6444 0.0000
0.8364 0.6444 0.0000
0.8647 0.6445 0.0000
0.8909 0.6445 0.0000
0.9152 0.6444 0.0000
0.9379 0.6446 0.0000
0.9593 0.6445 0.0000
0.9799 0.6445 0.0000
1.0000 0.6445 0.0000
0.0000 0.6927 0.0000
0.0042 0.6927 0.0000
0.0091 0.6927 0.0000
0.0157 0.6927 0.0000
0.0250 0.6927 0.0000
0.0375 0.6927 0.0000
0.0533 0.6927 0.0000
0.0721 0.6927 0.0000
0.0940 0.6927 0.0000
0.1194 0.6927 0.0000
0.1500 0.6927 0.0000
0.1872 0.6927 0.0000
0.2324 0.6927 0.0000
0.2856 0.6927 0.0000
0.3443 0.6927 0.0000
0.4064 0.6927 0.0000
0.4695 0.6927 0.0000
0.5314 0.6927 0.0000
0.5902 0.6927 0.0000
0.6445 0.6927 0.0000
0.6927 0.6927 0.0000
0.7349 0.6927 0.0000
0.7722 0.6927 0.0000
0.8057 0.6928 0.0000
0.8364 0.6926 0.0000
0.8647 0.6927 0.0000
0.8909 0.6927 0.0000
0.9152 0.6927 0.0000
0.9379 0.6927 0.0000
0.9593 0.6928 0.0000
0.9799 0.6928 0.0000
1.0000 0.6926 0.0000
0.0000 0.7349 0.0000
0.0041 0.7349 0.0000
0.0092 0.7349 0.0000
0.0156 0.7349 0.0000
0.0249 0.7349 0.0000
0.0375 0.7349 0.0000
0.0531 0.7349 0.0000
0.0721 0.7349 0.0000
0.0940 0.7349 0.0000
0.1195 0.7349 0.0000
0.1500 0.7349 0.0000
0.1871 0.7349 0.0000
0.2324 0.7349 0.0000
0.2856 0.7349 0.0000
0.3443 0.7349 0.0000
0.4064 0.7349 0.0000
0.4696 0.7349 0.0000
0.5313 0.7349 0.0000
0.5903 0.7349 0.0000
0.6445 0.7349 0.0000
0.6927 0.7349 0.0000
0.7349 0.7349 0.0000
0.7722 0.7349 0.0000
0.8057 0.7349 0.0000
0.8364 0.7349 0.0000
0.8647 0.7349 0.0000
0.8909 0.7350 0.0000
0.9152 0.7349 0.0000
0.9379 0.7350 0.0000
0.9593 0.7350 0.0000
0.9799 0.7350 0.0000
1.0000 0.7348 0.0000
0.0000 0.7722 0.0000
0.0042 0.7722 0.0000
0.0091 0.7722 0.0000
0.0157 0.7722 0.0000
0.0251 0.7722 0.0000
0.0375 0.7722 0.0000
0.0532 0.7722 0.0000
0.0720 0.7722 0.0000
0.0941 0.7722 0.0000
0.1195 0.7722 0.0000
0.1501 0.7722 0.0000
0.1872 0.7722 0.0000
0.2325 0.7722 0.0000
0.2856 0.7722 0.0000
0.3445 0.7722 0.0000
0.4065 0.7722 0.0000
0.4696 0.7722 0.0000
0.5313 0.7722 0.0000
0.5903 0.7722 0.0000
0.6446 0.7722 0.0000
0.6927 0.7722 0.0000
0.7349 0.7722 0.0000
0.7722 0.7722 0.0000
0.8057 0.7723 0.0000
0.8364 0.7723 0.0000
0.8647 0.7722 0.0000
0.8909 0.7722 0.0000
0.9152 0.7722 0.0000
0.9379 0.7721 0.0000
0.9593 0.7722 0.0000
0.9799 0.7722 0.0000
1.0000 0.7722 0.0000
0.0000 0.8057 0.0000
0.0041 0.8057 0.0000
0.0091 0.8057 0.0000
0.0157 0.8057 0.0000
0.0250 0.8057 0.0000
0.0376 0.8057 0.0000
0.0531 0.8057 0.0000
0.0720 0.8057 0.0000
0.0940 0.8057 0.0000
0.1194 0.8057 0.0000
0.1501 0.8057 0.0000
0.1873 0.8057 0.0000
0.2323 0.8057 0.0000
0.2856 0.8057 0.0000
0.3445 0.8057 0.0000
0.4064 0.8057 0.0000
0.4696 0.8057 0.0000
0.5313 0.8057 0.0000
0.5903 0.8057 0.0000
0.6444 0.8057 0.0000
0.6928 0.8057 0.0000
0.7349 0.8057 0.0000
0.7723 0.8057 0.0000
0.8057 0.8057 0.0000
0.8364 0.8058 0.0000
0.8647 0.8058 0.0000
0.8909 0.8056 0.0000
0.9152 0.8057 0.0000
0.9379 0.8058 0.0000
0.9593 0.8057 0.0000
0.9799 0.8058 0.0000
1.0000 0.8056 0.0000
0.0000 0.8364 0.0000
0.0041 0.8364 0.0000
0.0092 0.8364 0.0000
0.0157 0.8364 0.0000
0.0249 0.8364 0.0000
0.0376 0.8364 0.0000
0.0531 0.8364 0.0000
0.0721 0.8364 0.0000
0.0939 0.8364 0.0000
0.1194 0.8364 0.0000
0.1501 0.8364 0.0000
0.1873 0.8364 0.0000
0.2324 0.8364 0.0000
0.2857 0.8364 0.0000
0.3443 0.8364 0.0000
0.4066 0.8364 0.0000
0.4695 0.8364 0.0000
0.5313 0.8364 0.0000
0.5903 0.8364 0.0000
0.6444 0.8364 0.0000
0.6926 0.8364 0.0000
0.7349 0.8364 0.0000
0.7723 0.8364 0.0000
0.8058 0.8364 0.0000
0.8364 0.8364 0.0000
0.8647 0.8364 0.0000
0.8909 0.8363 0.0000
0.9152 0.8363 0.0000
0.9379 0.8365 0.0000
0.9593 0.8364 0.0000
0.9799 0.8364 0.0000
1.0000 0.8364 0.0000
0.0000 0.8647 0.0000
0.0042 0.8647 0.0000
0.0091 0.8647 0.0000
0.0156 0.8647 0.0000
0.0249 0.8647 0.0000
0.0376 0.8647 0.0000
0.0532 0.8647 0.0000
0.0720 0.8647 0.0000
0.0939 0.8647 0.0000
0.1195 0.8647 0.0000
0.1499 0.8647 0.0000
0.1873 0.8647 0.0000
0.2324 0.8647 0.0000
0.2856 0.8647 0.0000
0.3443 0.8647 0.0000
0.4064 0.8647 0.0000
0.4695 0.8647 0.0000
0.5314 0.8647 0.0000
0.5903 0.8647 0.0000
0.6445 0.8647 0.0000
0.6927 0.8647 0.0000
0.7349 0.8647 0.0000
0.7722 0.8647 0.0000
0.8058 0.8647 0.0000
0.8364 0.8647 0.0000
0.8647 0.8647 0.0000
0.8909 0.8648 0.0000
0.9152 0.8647 0.0000
0.9379 0.8646 0.0000
0.9593 0.8647 0.0000
0.9799 0.8646 0.0000
1.0000 0.8647 0.0000
0.0000 0.8909 0.0000
0.0041 0.8909 0.0000
0.0091 0.8909 0.0000
0.0157 0.8909 0.0000
0.0250 0.8909 0.0000
0.0374 0.8909 0.0000
0.0533 0.8909 0.0000
0.0720 0.8909 0.0000
0.0940 0.8909 0.0000
0.1194 0.8909 0.0000
0.1501 0.8909 0.0000
0.1873 0.8909 0.0000
0.2323 0.8909 0.0000
0.2856 0.8909 0.0000
0.3443 0.8909 0.0000
0.4065 0.8909 0.0000
0.4696 0.8909 0.0000
0.5314 0.8909 0.0000
0.5903 0.8909 0.0000
0.6445 0.8909 0.0000
0.6927 0.8909 0.0000
0.7350 0.8909 0.0000
0.7722 0.8909 0.0000
0.8056 0.8909 0.0000
0.8363 0.8909 0.0000
0.8648 0.8909 0.0000
0.8909 0.8909 0.0000
0.9152 0.8909 0.0000
0.9379 0.8910 0.0000
0.9593 0.8909 0.0000
0.9799 0.8909 0.0000
1.0000 0.8908 0.0000
0.0000 0.9152 0.0000
0.0042 0.9152 0.0000
0.0092 0.9152 0.0000
0.0157 0.9152 0.0000
0.0250 0.9152 0.0000
0.0375 0.9152 0.0000
0.0532 0.9152 0.0000
0.0722 0.9152 0.0000
0.0941 0.9152 0.0000
0.1195 0.9152 0.0000
0.1499 0.9152 0.0000
0.1873 0.9152 0.0000
0.2324 0.9152 0.0000
0.2856 0.9152 0.0000
0.3443 0.9152 0.0000
0.4064 0.9152 0.0000
0.4695 0.9152 0.0000
0.5313 0.9152 0.0000
0.5903 0.9152 0.0000
0.6444 0.9152 0.0000
0.6927 0.9152 0.0000
0.7349 0.9152 0.0000
0.7722 0.9152 0.0000
0.8057 0.9152 0.0000
0.8363 0.9152 0.0000
0.8647 0.9152 0.0000
0.8909 0.9152 0.0000
0.9152 0.9152 0.0000
0.9379 0.9152 0.0000
0.9593 0.9153 0.0000
0.9799 0.9153 0.0000
1.0000 0.9153 0.0000
0.0000 0.9379 0.0000
0.0041 0.9379 0.0000
0.0092 0.9379 0.0000
0.0158 0.9379 0.0000
