LUTs/Utility/LOG to Rec.709.cube
TITLE "VisionColor Utility LUT: LOG to Rec.709"
LUT_3D_SIZE 5
DOMAIN_MIN 0.000000 0.000000 0.000000
DOMAIN_MAX 0.903226 0.903226 0.903226
0.0000 0.0000 0.0000
0.0721 0.0000 0.0000
0.3444 0.0000 0.0000
0.7349 0.0000 0.0000
0.9379 0.0000 0.0000
0.0000 0.0721 0.0000
0.0721 0.0721 0.0000
0.3444 0.0721 0.0000
0.7349 0.0721 0.0000
0.9379 0.0721 0.0000
0.0000 0.3444 0.0000
0.0721 0.3444 0.0000
0.3444 0.3444 0.0000
0.7349 0.3443 0.0000
0.9379 0.3444 0.0000
0.0000 0.7349 0.0000
0.0721 0.7349 0.0000
0.3443 0.7349 0.0000
0.7349 0.7349 0.0000
0.9379 0.7350 0.0000
0.0000 0.9379 0.0000
0.0721 0.9379 0.0000
0.3444 0.9379 0.0000
0.7350 0.9379 0.0000
0.9379 0.9379 0.0000
0.0000 0.0000 0.0721
0.0721 0.0000 0.0721
0.3444 0.0000 0.0721
0.7349 0.0000 0.0721
0.9379 0.0000 0.0721
0.0000 0.0721 0.0721
0.0721 0.0721 0.0721
0.3694 0.0471 0.0471
0.7958 0.0112 0.0112
1.0000 0.0100 0.0100
0.0000 0.3444 0.0721
0.0391 0.3773 0.0391
0.3773 0.3773 0.0391
0.8022 0.3324 0.0048
1.0000 0.3213 0.0100
0.0000 0.7349 0.0721
0.0000 0.8070 0.0000
0.3316 0.8070 0.0000
0.8070 0.8070 0.0000
1.0000 0.7680 0.0100
0.0000 0.9379 0.0721
0.0100 1.0000 0.0100
0.3213 1.0000 0.0100
0.7680 1.0000 0.0100
1.0000 1.0000 0.0100
0.0000 0.0000 0.3444
0.0721 0.0000 0.3444
0.3444 0.0000 0.3444
0.7349 0.0000 0.3443
0.9379 0.0000 0.3444
0.0000 0.0721 0.3444
0.0391 0.0391 0.3773
0.3773 0.0391 0.3773
0.8022 0.0048 0.3324
1.0000 0.0100 0.3213
0.0000 0.3444 0.3444
0.0391 0.3773 0.3773
0.3444 0.3444 0.3444
0.7708 0.3085 0.3085
0.9924 0.2899 0.2899
0.0000 0.7349 0.3443
0.0000 0.8070 0.3316
0.2971 0.7822 0.2971
0.7822 0.7822 0.2971
1.0000 0.7545 0.2823
0.0000 0.9379 0.3444
0.0100 1.0000 0.3213
0.2823 1.0000 0.2823
0.7545 1.0000 0.2823
1.0000 1.0000 0.2823
0.0000 0.0000 0.7349
0.0721 0.0000 0.7349
0.3443 0.0000 0.7349
0.7349 0.0000 0.7349
0.9379 0.0000 0.7350
0.0000 0.0721 0.7349
0.0000 0.0000 0.8070
0.3316 0.0000 0.8070
0.8070 0.0000 0.8070
1.0000 0.0100 0.7680
0.0000 0.3443 0.7349
0.0000 0.3316 0.8070
0.2971 0.2971 0.7822
0.7822 0.2971 0.7822
1.0000 0.2823 0.7545
0.0000 0.7349 0.7349
0.0000 0.8070 0.8070
0.2971 0.7822 0.7822
0.7349 0.7349 0.7349
0.9565 0.7163 0.7163
0.0000 0.9379 0.7350
0.0100 1.0000 0.7680
0.2823 1.0000 0.7545
0.7103 0.9625 0.7103
0.9625 0.9625 0.7103
0.0000 0.0000 0.9379
0.0721 0.0000 0.9379
0.3444 0.0000 0.9379
0.7350 0.0000 0.9379
0.9379 0.0000 0.9379
0.0000 0.0721 0.9379
0.0100 0.0100 1.0000
0.3213 0.0100 1.0000
0.7680 0.0100 1.0000
1.0000 0.0100 1.0000
0.0000 0.3444 0.9379
0.0100 0.3213 1.0000
0.2823 0.2823 1.0000
0.7545 0.2823 1.0000
1.0000 0.2823 1.0000
0.0000 0.7350 0.9379
0.0100 0.7680 1.0000
0.2823 0.7545 1.0000
0.7103 0.7103 0.9625
0.9625 0.7103 0.9625
0.0000 0.9379 0.9379
0.0100 1.0000 1.0000
0.2823 1.0000 1.0000
0.7103 0.9625 0.9625
0.9379 0.9379 0.9379
