LUTs/Utility/Rec.709 to LOG.cube
TITLE "VisionColor Utility LUT: Rec.709 to LOG"
LUT_3D_SIZE 32
0.1255 0.1255 0.1255
0.1585 0.1302 0.1302
0.1909 0.1350 0.1350
0.2217 0.1397 0.1397
0.2506 0.1444 0.1444
0.2771 0.1491 0.1491
0.3015 0.1538 0.1538
0.3238 0.1585 0.1585
0.3439 0.1632 0.1632
0.3622 0.1679 0.1679
0.3787 0.1725 0.1725
0.3940 0.1771 0.1771
0.4084 0.1817 0.1817
0.4223 0.1863 0.1863
0.4361 0.1908 0.1908
0.4503 0.1954 0.1954
0.4650 0.1999 0.1999
0.4809 0.2043 0.2043
0.4981 0.2087 0.2087
0.5167 0.2131 0.2131
0.5366 0.2174 0.2174
0.5576 0.2217 0.2217
0.5799 0.2260 0.2260
0.6031 0.2302 0.2302
0.6272 0.2344 0.2344
0.6522 0.2385 0.2385
0.6779 0.2426 0.2426
0.7042 0.2466 0.2466
0.7311 0.2506 0.2506
0.7585 0.2545 0.2545
0.7863 0.2584 0.2584
0.8143 0.2622 0.2622
0.1302 0.1585 0.1302
0.1585 0.1585 0.1302
0.1909 0.1632 0.1350
0.2217 0.1678 0.1397
0.2506 0.1725 0.1444
0.2771 0.1771 0.1491
0.3015 0.1817 0.1538
0.3238 0.1863 0.1585
0.3439 0.1909 0.1632
0.3622 0.1954 0.1679
0.3787 0.1999 0.1725
0.3940 0.2043 0.1771
0.4084 0.2087 0.1817
0.4223 0.2131 0.1863
0.4361 0.2175 0.1908
0.4503 0.2218 0.1954
0.4650 0.2260 0.1999
0.4809 0.2302 0.2043
0.4981 0.2344 0.2087
0.5167 0.2385 0.2131
0.5366 0.2426 0.2174
0.5576 0.2466 0.2217
0.5799 0.2506 0.2260
0.6031 0.2545 0.2302
0.6272 0.2584 0.2344
0.6522 0.2622 0.2385
0.6779 0.2661 0.2426
0.7042 0.2698 0.2466
0.7311 0.2734 0.2506
0.7585 0.2770 0.2545
0.7863 0.2808 0.2584
0.8143 0.2843 0.2622
0.1350 0.1909 0.1350
0.1632 0.1909 0.1350
0.1909 0.1909 0.1350
0.2217 0.1954 0.1397
0.2506 0.1999 0.1444
0.2771 0.2043 0.1491
0.3015 0.2087 0.1538
0.3238 0.2131 0.1585
0.3439 0.2175 0.1632
0.3622 0.2217 0.1679
0.3787 0.2260 0.1725
0.3940 0.2302 0.1771
0.4084 0.2344 0.1817
0.4223 0.2385 0.1863
0.4361 0.2425 0.1908
0.4503 0.2466 0.1954
0.4650 0.2506 0.1999
0.4809 0.2545 0.2043
0.4981 0.2584 0.2087
0.5167 0.2622 0.2131
0.5366 0.2660 0.2174
0.5576 0.2697 0.2217
0.5799 0.2734 0.2260
0.6031 0.2771 0.2302
0.6272 0.2807 0.2344
0.6522 0.2843 0.2385
0.6779 0.2878 0.2426
0.7042 0.2912 0.2466
0.7311 0.2948 0.2506
0.7585 0.2981 0.2545
0.7863 0.3015 0.2584
0.8143 0.3048 0.2622
0.1397 0.2217 0.1397
0.1678 0.2217 0.1397
0.1954 0.2217 0.1397
0.2217 0.2217 0.1397
0.2506 0.2260 0.1444
0.2771 0.2302 0.1491
0.3015 0.2344 0.1538
0.3238 0.2385 0.1585
0.3439 0.2426 0.1632
0.3622 0.2466 0.1679
0.3787 0.2506 0.1725
0.3940 0.2545 0.1771
0.4084 0.2584 0.1817
0.4223 0.2622 0.1863
0.4361 0.2660 0.1908
0.4503 0.2697 0.1954
0.4650 0.2735 0.1999
0.4809 0.2771 0.2043
0.4981 0.2807 0.2087
0.5167 0.2843 0.2131
0.5366 0.2878 0.2174
0.5576 0.2913 0.2217
0.5799 0.2948 0.2260
0.6031 0.2981 0.2302
0.6272 0.3015 0.2344
0.6522 0.3049 0.2385
0.6779 0.3081 0.2426
0.7042 0.3113 0.2466
0.7311 0.3145 0.2506
0.7585 0.3176 0.2545
0.7863 0.3208 0.2584
0.8143 0.3237 0.2622
0.1444 0.2506 0.1444
0.1725 0.2506 0.1444
0.1999 0.2506 0.1444
0.2260 0.2506 0.1444
0.2506 0.2506 0.1444
0.2771 0.2545 0.1491
0.3015 0.2584 0.1538
0.3238 0.2622 0.1585
0.3439 0.2660 0.1632
0.3622 0.2697 0.1679
0.3787 0.2734 0.1725
0.3940 0.2771 0.1771
0.4084 0.2807 0.1817
0.4223 0.2842 0.1863
0.4361 0.2878 0.1908
0.4503 0.2913 0.1954
0.4650 0.2947 0.1999
0.4809 0.2982 0.2043
0.4981 0.3015 0.2087
0.5167 0.3048 0.2131
0.5366 0.3080 0.2174
0.5576 0.3113 0.2217
0.5799 0.3145 0.2260
0.6031 0.3176 0.2302
0.6272 0.3207 0.2344
0.6522 0.3237 0.2385
0.6779 0.3267 0.2426
0.7042 0.3297 0.2466
0.7311 0.3326 0.2506
0.7585 0.3355 0.2545
0.7863 0.3384 0.2584
0.8143 0.3413 0.2622
0.1491 0.2771 0.1491
0.1771 0.2771 0.1491
0.2043 0.2771 0.1491
0.2302 0.2771 0.1491
0.2545 0.2771 0.1491
0.2771 0.2771 0.1491
0.3015 0.2807 0.1538
0.3238 0.2843 0.1585
0.3439 0.2878 0.1632
0.3622 0.2914 0.1679
0.3787 0.2947 0.1725
0.3940 0.2982 0.1771
0.4084 0.3015 0.1817
0.4223 0.3048 0.1863
0.4361 0.3080 0.1908
0.4503 0.3113 0.1954
0.4650 0.3145 0.1999
0.4809 0.3176 0.2043
0.4981 0.3207 0.2087
0.5167 0.3238 0.2131
0.5366 0.3268 0.2174
0.5576 0.3297 0.2217
0.5799 0.3326 0.2260
0.6031 0.3355 0.2302
0.6272 0.3383 0.2344
0.6522 0.3412 0.2385
0.6779 0.3439 0.2426
0.7042 0.3466 0.2466
0.7311 0.3493 0.2506
0.7585 0.3519 0.2545
0.7863 0.3546 0.2584
0.8143 0.3572 0.2622
0.1538 0.3015 0.1538
0.1817 0.3015 0.1538
0.2087 0.3015 0.1538
0.2344 0.3015 0.1538
0.2584 0.3015 0.1538
0.2807 0.3015 0.1538
0.3015 0.3015 0.1538
0.3238 0.3048 0.1585
0.3439 0.3081 0.1632
0.3622 0.3113 0.1679
0.3787 0.3145 0.1725
0.3940 0.3176 0.1771
0.4084 0.3207 0.1817
0.4223 0.3237 0.1863
0.4361 0.3267 0.1908
0.4503 0.3297 0.1954
0.4650 0.3326 0.1999
0.4809 0.3355 0.2043
0.4981 0.3384 0.2087
0.5167 0.3411 0.2131
0.5366 0.3439 0.2174
0.5576 0.3466 0.2217
0.5799 0.3493 0.2260
0.6031 0.3519 0.2302
0.6272 0.3546 0.2344
0.6522 0.3571 0.2385
0.6779 0.3596 0.2426
0.7042 0.3621 0.2466
0.7311 0.3646 0.2506
0.7585 0.3669 0.2545
0.7863 0.3694 0.2584
0.8143 0.3718 0.2622
0.1585 0.3238 0.1585
0.1863 0.3238 0.1585
0.2131 0.3238 0.1585
0.2385 0.3238 0.1585
0.2622 0.3238 0.1585
0.2843 0.3238 0.1585
0.3048 0.3238 0.1585
0.3238 0.3238 0.1585
0.3439 0.3268 0.1632
0.3622 0.3297 0.1679
0.3787 0.3326 0.1725
0.3940 0.3355 0.1771
0.4084 0.3383 0.1817
0.4223 0.3412 0.1863
0.4361 0.3439 0.1908
0.4503 0.3466 0.1954
0.4650 0.3493 0.1999
0.4809 0.3519 0.2043
0.4981 0.3546 0.2087
0.5167 0.3571 0.2131
0.5366 0.3597 0.2174
0.5576 0.3621 0.2217
0.5799 0.3646 0.2260
0.6031 0.3670 0.2302
0.6272 0.3694 0.2344
0.6522 0.3718 0.2385
0.6779 0.3741 0.2426
0.7042 0.3764 0.2466
0.7311 0.3787 0.2506
0.7585 0.3810 0.2545
0.7863 0.3832 0.2584
0.8143 0.3854 0.2622
0.1632 0.3439 0.1632
0.1909 0.3439 0.1632
0.2175 0.3439 0.1632
0.2426 0.3439 0.1632
0.2660 0.3439 0.1632
0.2878 0.3439 0.1632
0.3081 0.3439 0.1632
0.3268 0.3439 0.1632
0.3439 0.3439 0.1632
0.3622 0.3466 0.1679
0.3787 0.3493 0.1725
0.3940 0.3519 0.1771
0.4084 0.3546 0.1817
0.4223 0.3571 0.1863
0.4361 0.3597 0.1908
0.4503 0.3622 0.1954
0.4650 0.3646 0.1999
0.4809 0.3670 0.2043
0.4981 0.3694 0.2087
0.5167 0.3718 0.2131
0.5366 0.3741 0.2174
0.5576 0.3764 0.2217
0.5799 0.3787 0.2260
0.6031 0.3810 0.2302
0.6272 0.3832 0.2344
0.6522 0.3854 0.2385
0.6779 0.3875 0.2426
0.7042 0.3897 0.2466
0.7311 0.3918 0.2506
0.7585 0.3940 0.2545
0.7863 0.3961 0.2584
0.8143 0.3982 0.2622
0.1679 0.3622 0.1679
0.1954 0.3622 0.1679
0.2217 0.3622 0.1679
0.2466 0.3622 0.1679
0.2697 0.3622 0.1679
0.2914 0.3622 0.1679
0.3113 0.3622 0.1679
0.3297 0.3622 0.1679
0.3466 0.3622 0.1679
0.3622 0.3622 0.1679
0.3787 0.3646 0.1725
0.3940 0.3670 0.1771
0.4084 0.3694 0.1817
0.4223 0.3718 0.1863
0.4361 0.3741 0.1908
0.4503 0.3764 0.1954
0.4650 0.3787 0.1999
0.4809 0.3809 0.2043
0.4981 0.3832 0.2087
0.5167 0.3854 0.2131
0.5366 0.3875 0.2174
0.5576 0.3897 0.2217
0.5799 0.3919 0.2260
0.6031 0.3940 0.2302
0.6272 0.3961 0.2344
0.6522 0.3982 0.2385
0.6779 0.4003 0.2426
0.7042 0.4023 0.2466
0.7311 0.4044 0.2506
0.7585 0.4064 0.2545
0.7863 0.4084 0.2584
0.8143 0.4104 0.2622
0.1725 0.3787 0.1725
0.1999 0.3787 0.1725
0.2260 0.3787 0.1725
0.2506 0.3787 0.1725
0.2734 0.3787 0.1725
0.2947 0.3787 0.1725
0.3145 0.3787 0.1725
0.3326 0.3787 0.1725
0.3493 0.3787 0.1725
0.3646 0.3787 0.1725
0.3787 0.3787 0.1725
0.3940 0.3810 0.1771
0.4084 0.3832 0.1817
0.4223 0.3854 0.1863
0.4361 0.3875 0.1908
0.4503 0.3897 0.1954
0.4650 0.3919 0.1999
0.4809 0.3940 0.2043
0.4981 0.3961 0.2087
0.5167 0.3982 0.2131
0.5366 0.4002 0.2174
0.5576 0.4023 0.2217
0.5799 0.4044 0.2260
0.6031 0.4064 0.2302
0.6272 0.4084 0.2344
0.6522 0.4104 0.2385
0.6779 0.4124 0.2426
0.7042 0.4144 0.2466
0.7311 0.4164 0.2506
0.7585 0.4183 0.2545
0.7863 0.4203 0.2584
0.8143 0.4223 0.2622
0.1771 0.3940 0.1771
0.2043 0.3940 0.1771
0.2302 0.3940 0.1771
0.2545 0.3940 0.1771
0.2771 0.3940 0.1771
0.2982 0.3940 0.1771
0.3176 0.3940 0.1771
0.3355 0.3940 0.1771
0.3519 0.3940 0.1771
0.3670 0.3940 0.1771
0.3810 0.3940 0.1771
0.3940 0.3940 0.1771
0.4084 0.3961 0.1817
0.4223 0.3982 0.1863
0.4361 0.4002 0.1908
0.4503 0.4023 0.1954
0.4650 0.4044 0.1999
0.4809 0.4064 0.2043
0.4981 0.4084 0.2087
0.5167 0.4104 0.2131
0.5366 0.4124 0.2174
0.5576 0.4144 0.2217
0.5799 0.4164 0.2260
0.6031 0.4184 0.2302
0.6272 0.4203 0.2344
0.6522 0.4223 0.2385
0.6779 0.4243 0.2426
0.7042 0.4263 0.2466
0.7311 0.4282 0.2506
0.7585 0.4302 0.2545
0.7863 0.4322 0.2584
0.8143 0.4341 0.2622
0.1817 0.4084 0.1817
0.2087 0.4084 0.1817
0.2344 0.4084 0.1817
0.2584 0.4084 0.1817
0.2807 0.4084 0.1817
0.3015 0.4084 0.1817
0.3207 0.4084 0.1817
0.3383 0.4084 0.1817
0.3546 0.4084 0.1817
0.3694 0.4084 0.1817
0.3832 0.4084 0.1817
0.3961 0.4084 0.1817
0.4084 0.4084 0.1817
0.4223 0.4104 0.1863
0.4361 0.4124 0.1908
0.4503 0.4144 0.1954
0.4650 0.4164 0.1999
0.4809 0.4184 0.2043
0.4981 0.4204 0.2087
0.5167 0.4223 0.2131
0.5366 0.4243 0.2174
0.5576 0.4262 0.2217
0.5799 0.4282 0.2260
0.6031 0.4302 0.2302
0.6272 0.4322 0.2344
0.6522 0.4341 0.2385
0.6779 0.4361 0.2426
0.7042 0.4381 0.2466
0.7311 0.4401 0.2506
0.7585 0.4421 0.2545
0.7863 0.4441 0.2584
0.8143 0.4462 0.2622
0.1863 0.4223 0.1863
0.2131 0.4223 0.1863
0.2385 0.4223 0.1863
0.2622 0.4223 0.1863
0.2842 0.4223 0.1863
0.3048 0.4223 0.1863
0.3237 0.4223 0.1863
0.3412 0.4223 0.1863
0.3571 0.4223 0.1863
0.3718 0.4223 0.1863
0.3854 0.4223 0.1863
0.3982 0.4223 0.1863
0.4104 0.4223 0.1863
0.4223 0.4223 0.1863
0.4361 0.4243 0.1908
0.4503 0.4263 0.1954
0.4650 0.4283 0.1999
0.4809 0.4302 0.2043
0.4981 0.4322 0.2087
0.5167 0.4341 0.2131
0.5366 0.4361 0.2174
0.5576 0.4381 0.2217
0.5799 0.4401 0.2260
0.6031 0.4421 0.2302
0.6272 0.4442 0.2344
0.6522 0.4462 0.2385
0.6779 0.4482 0.2426
0.7042 0.4502 0.2466
0.7311 0.4523 0.2506
0.7585 0.4544 0.2545
0.7863 0.4565 0.2584
0.8143 0.4586 0.2622
0.1908 0.4361 0.1908
0.2175 0.4361 0.1908
0.2425 0.4361 0.1908
0.2660 0.4361 0.1908
0.2878 0.4361 0.1908
0.3080 0.4361 0.1908
0.3267 0.4361 0.1908
0.3439 0.4361 0.1908
0.3597 0.4361 0.1908
0.3741 0.4361 0.1908
0.3875 0.4361 0.1908
0.4002 0.4361 0.1908
0.4124 0.4361 0.1908
0.4243 0.4361 0.1908
0.4361 0.4361 0.1908
0.4503 0.4381 0.1954
0.4650 0.4402 0.1999
0.4809 0.4421 0.2043
0.4981 0.4442 0.2087
0.5167 0.4462 0.2131
0.5366 0.4482 0.2174
0.5576 0.4503 0.2217
0.5799 0.4523 0.2260
0.6031 0.4544 0.2302
0.6272 0.4565 0.2344
0.6522 0.4586 0.2385
0.6779 0.4607 0.2426
0.7042 0.4629 0.2466
0.7311 0.4650 0.2506
0.7585 0.4672 0.2545
0.7863 0.4694 0.2584
0.8143 0.4717 0.2622
0.1954 0.4503 0.1954
0.2218 0.4503 0.1954
0.2466 0.4503 0.1954
0.2697 0.4503 0.1954
0.2913 0.4503 0.1954
0.3113 0.4503 0.1954
0.3297 0.4503 0.1954
0.3466 0.4503 0.1954
0.3622 0.4503 0.1954
0.3764 0.4503 0.1954
0.3897 0.4503 0.1954
0.4023 0.4503 0.1954
0.4144 0.4503 0.1954
0.4263 0.4503 0.1954
0.4381 0.4503 0.1954
0.4503 0.4503 0.1954
0.4650 0.4523 0.1999
0.4809 0.4544 0.2043
0.4981 0.4565 0.2087
0.5167 0.4586 0.2131
0.5366 0.4607 0.2174
0.5576 0.4629 0.2217
0.5799 0.4651 0.2260
0.6031 0.4672 0.2302
0.6272 0.4694 0.2344
0.6522 0.4717 0.2385
0.6779 0.4739 0.2426
0.7042 0.4761 0.2466
0.7311 0.4785 0.2506
0.7585 0.4809 0.2545
0.7863 0.4832 0.2584
0.8143 0.4856 0.2622
0.1999 0.4650 0.1999
0.2260 0.4650 0.1999
0.2506 0.4650 0.1999
0.2735 0.4650 0.1999
0.2947 0.4650 0.1999
0.3145 0.4650 0.1999
0.3326 0.4650 0.1999
0.3493 0.4650 0.1999
0.3646 0.4650 0.1999
0.3787 0.4650 0.1999
0.3919 0.4650 0.1999
0.4044 0.4650 0.1999
0.4164 0.4650 0.1999
0.4283 0.4650 0.1999
0.4402 0.4650 0.1999
0.4523 0.4650 0.1999
0.4650 0.4650 0.1999
0.4809 0.4672 0.2043
0.4981 0.4694 0.2087
0.5167 0.4716 0.2131
0.5366 0.4739 0.2174
0.5576 0.4762 0.2217
0.5799 0.4785 0.2260
0.6031 0.4808 0.2302
0.6272 0.4833 0.2344
0.6522 0.4856 0.2385
0.6779 0.4881 0.2426
0.7042 0.4905 0.2466
0.7311 0.4930 0.2506
0.7585 0.4955 0.2545
0.7863 0.4981 0.2584
0.8143 0.5006 0.2622
0.2043 0.4809 0.2043
0.2302 0.4809 0.2043
0.2545 0.4809 0.2043
0.2771 0.4809 0.2043
0.2982 0.4809 0.2043
0.3176 0.4809 0.2043
0.3355 0.4809 0.2043
0.3519 0.4809 0.2043
0.3670 0.4809 0.2043
0.3809 0.4809 0.2043
0.3940 0.4809 0.2043
0.4064 0.4809 0.2043
0.4184 0.4809 0.2043
0.4302 0.4809 0.2043
0.4421 0.4809 0.2043
0.4544 0.4809 0.2043
0.4672 0.4809 0.2043
0.4809 0.4809 0.2043
0.4981 0.4832 0.2087
0.5167 0.4856 0.2131
0.5366 0.4881 0.2174
0.5576 0.4905 0.2217
0.5799 0.4930 0.2260
0.6031 0.4956 0.2302
0.6272 0.4980 0.2344
0.6522 0.5006 0.2385
0.6779 0.5032 0.2426
0.7042 0.5059 0.2466
0.7311 0.5085 0.2506
0.7585 0.5112 0.2545
0.7863 0.5139 0.2584
0.8143 0.5166 0.2622
0.2087 0.4981 0.2087
0.2344 0.4981 0.2087
0.2584 0.4981 0.2087
0.2807 0.4981 0.2087
0.3015 0.4981 0.2087
0.3207 0.4981 0.2087
0.3384 0.4981 0.2087
0.3546 0.4981 0.2087
0.3694 0.4981 0.2087
0.3832 0.4981 0.2087
0.3961 0.4981 0.2087
0.4084 0.4981 0.2087
0.4204 0.4981 0.2087
0.4322 0.4981 0.2087
0.4442 0.4981 0.2087
0.4565 0.4981 0.2087
0.4694 0.4981 0.2087
0.4832 0.4981 0.2087
0.4981 0.4981 0.2087
0.5167 0.5006 0.2131
0.5366 0.5032 0.2174
0.5576 0.5059 0.2217
0.5799 0.5085 0.2260
0.6031 0.5112 0.2302
0.6272 0.5139 0.2344
0.6522 0.5167 0.2385
0.6779 0.5194 0.2426
0.7042 0.5222 0.2466
0.7311 0.5250 0.2506
0.7585 0.5278 0.2545
0.7863 0.5308 0.2584
0.8143 0.5336 0.2622
0.2131 0.5167 0.2131
0.2385 0.5167 0.2131
0.2622 0.5167 0.2131
0.2843 0.5167 0.2131
0.3048 0.5167 0.2131
0.3238 0.5167 0.2131
0.3411 0.5167 0.2131
0.3571 0.5167 0.2131
0.3718 0.5167 0.2131
0.3854 0.5167 0.2131
0.3982 0.5167 0.2131
0.4104 0.5167 0.2131
0.4223 0.5167 0.2131
0.4341 0.5167 0.2131
0.4462 0.5167 0.2131
0.4586 0.5167 0.2131
0.4716 0.5167 0.2131
0.4856 0.5167 0.2131
0.5006 0.5167 0.2131
0.5167 0.5167 0.2131
0.5366 0.5194 0.2174
0.5576 0.5222 0.2217
0.5799 0.5250 0.2260
0.6031 0.5279 0.2302
0.6272 0.5308 0.2344
0.6522 0.5337 0.2385
0.6779 0.5365 0.2426
0.7042 0.5395 0.2466
0.7311 0.5424 0.2506
0.7585 0.5455 0.2545
0.7863 0.5485 0.2584
0.8143 0.5516 0.2622
0.2174 0.5366 0.2174
0.2426 0.5366 0.2174
0.2660 0.5366 0.2174
0.2878 0.5366 0.2174
0.3080 0.5366 0.2174
0.3268 0.5366 0.2174
0.3439 0.5366 0.2174
0.3597 0.5366 0.2174
0.3741 0.5366 0.2174
0.3875 0.5366 0.2174
0.4002 0.5366 0.2174
0.4124 0.5366 0.2174
0.4243 0.5366 0.2174
0.4361 0.5366 0.2174
0.4482 0.5366 0.2174
0.4607 0.5366 0.2174
0.4739 0.5366 0.2174
0.4881 0.5366 0.2174
0.5032 0.5366 0.2174
0.5194 0.5366 0.2174
0.5366 0.5366 0.2174
0.5576 0.5395 0.2217
0.5799 0.5425 0.2260
0.6031 0.5455 0.2302
0.6272 0.5484 0.2344
0.6522 0.5515 0.2385
0.6779 0.5546 0.2426
0.7042 0.5576 0.2466
0.7311 0.5608 0.2506
0.7585 0.5639 0.2545
0.7863 0.5671 0.2584
0.8143 0.5703 0.2622
0.2217 0.5576 0.2217
0.2466 0.5576 0.2217
0.2697 0.5576 0.2217
0.2913 0.5576 0.2217
0.3113 0.5576 0.2217
0.3297 0.5576 0.2217
0.3466 0.5576 0.2217
0.3621 0.5576 0.2217
0.3764 0.5576 0.2217
0.3897 0.5576 0.2217
0.4023 0.5576 0.2217
0.4144 0.5576 0.2217
0.4262 0.5576 0.2217
0.4381 0.5576 0.2217
0.4503 0.5576 0.2217
0.4629 0.5576 0.2217
0.4762 0.5576 0.2217
0.4905 0.5576 0.2217
0.5059 0.5576 0.2217
0.5222 0.5576 0.2217
0.5395 0.5576 0.2217
0.5576 0.5576 0.2217
0.5799 0.5608 0.2260
0.6031 0.5639 0.2302
0.6272 0.5670 0.2344
0.6522 0.5703 0.2385
0.6779 0.5734 0.2426
0.7042 0.5766 0.2466
0.7311 0.5799 0.2506
0.7585 0.5831 0.2545
0.7863 0.5864 0.2584
0.8143 0.5897 0.2622
0.2260 0.5799 0.2260
0.2506 0.5799 0.2260
0.2734 0.5799 0.2260
0.2948 0.5799 0.2260
0.3145 0.5799 0.2260
0.3326 0.5799 0.2260
0.3493 0.5799 0.2260
0.3646 0.5799 0.2260
0.3787 0.5799 0.2260
0.3919 0.5799 0.2260
0.4044 0.5799 0.2260
0.4164 0.5799 0.2260
0.4282 0.5799 0.2260
0.4401 0.5799 0.2260
0.4523 0.5799 0.2260
0.4651 0.5799 0.2260
0.4785 0.5799 0.2260
0.4930 0.5799 0.2260
0.5085 0.5799 0.2260
0.5250 0.5799 0.2260
0.5425 0.5799 0.2260
0.5608 0.5799 0.2260
0.5799 0.5799 0.2260
0.6031 0.5832 0.2302
0.6272 0.5864 0.2344
0.6522 0.5896 0.2385
0.6779 0.5930 0.2426
0.7042 0.5964 0.2466
0.7311 0.5997 0.2506
0.7585 0.6030 0.2545
0.7863 0.6065 0.2584
0.8143 0.6099 0.2622
0.2302 0.6031 0.2302
0.2545 0.6031 0.2302
0.2771 0.6031 0.2302
0.2981 0.6031 0.2302
0.3176 0.6031 0.2302
0.3355 0.6031 0.2302
0.3519 0.6031 0.2302
0.3670 0.6031 0.2302
0.3810 0.6031 0.2302
0.3940 0.6031 0.2302
0.4064 0.6031 0.2302
0.4184 0.6031 0.2302
0.4302 0.6031 0.2302
0.4421 0.6031 0.2302
0.4544 0.6031 0.2302
0.4672 0.6031 0.2302
0.4808 0.6031 0.2302
0.4956 0.6031 0.2302
0.5112 0.6031 0.2302
0.5279 0.6031 0.2302
0.5455 0.6031 0.2302
0.5639 0.6031 0.2302
0.5832 0.6031 0.2302
0.6031 0.6031 0.2302
0.6272 0.6065 0.2344
0.6522 0.6099 0.2385
0.6779 0.6133 0.2426
0.7042 0.6167 0.2466
0.7311 0.6203 0.2506
0.7585 0.6238 0.2545
0.7863 0.6272 0.2584
0.8143 0.6308 0.2622
0.2344 0.6272 0.2344
0.2584 0.6272 0.2344
0.2807 0.6272 0.2344
0.3015 0.6272 0.2344
0.3207 0.6272 0.2344
0.3383 0.6272 0.2344
0.3546 0.6272 0.2344
0.3694 0.6272 0.2344
0.3832 0.6272 0.2344
0.3961 0.6272 0.2344
0.4084 0.6272 0.2344
0.4203 0.6272 0.2344
0.4322 0.6272 0.2344
0.4442 0.6272 0.2344
0.4565 0.6272 0.2344
0.4694 0.6272 0.2344
0.4833 0.6272 0.2344
0.4980 0.6272 0.2344
0.5139 0.6272 0.2344
0.5308 0.6272 0.2344
0.5484 0.6272 0.2344
0.5670 0.6272 0.2344
0.5864 0.6272 0.2344
0.6065 0.6272 0.2344
0.6272 0.6272 0.2344
0.6522 0.6307 0.2385
0.6779 0.6343 0.2426
0.7042 0.6378 0.2466
0.7311 0.6414 0.2506
0.7585 0.6450 0.2545
0.7863 0.6486 0.2584
0.8143 0.6522 0.2622
0.2385 0.6522 0.2385
0.2622 0.6522 0.2385
0.2843 0.6522 0.2385
0.3049 0.6522 0.2385
0.3237 0.6522 0.2385
0.3412 0.6522 0.2385
0.3571 0.6522 0.2385
0.3718 0.6522 0.2385
0.3854 0.6522 0.2385
0.3982 0.6522 0.2385
0.4104 0.6522 0.2385
0.4223 0.6522 0.2385
0.4341 0.6522 0.2385
0.4462 0.6522 0.2385
0.4586 0.6522 0.2385
0.4717 0.6522 0.2385
0.4856 0.6522 0.2385
0.5006 0.6522 0.2385
0.5167 0.6522 0.2385
0.5337 0.6522 0.2385
0.5515 0.6522 0.2385
0.5703 0.6522 0.2385
0.5896 0.6522 0.2385
0.6099 0.6522 0.2385
0.6307 0.6522 0.2385
0.6522 0.6522 0.2385
0.6779 0.6558 0.2426
0.7042 0.6595 0.2466
0.7311 0.6631 0.2506
0.7585 0.6668 0.2545
0.7863 0.6704 0.2584
0.8143 0.6742 0.2622
0.2426 0.6779 0.2426
0.2661 0.6779 0.2426
0.2878 0.6779 0.2426
0.3081 0.6779 0.2426
0.3267 0.6779 0.2426
0.3439 0.6779 0.2426
0.3596 0.6779 0.2426
0.3741 0.6779 0.2426
0.3875 0.6779 0.2426
0.4003 0.6779 0.2426
0.4124 0.6779 0.2426
0.4243 0.6779 0.2426
0.4361 0.6779 0.2426
0.4482 0.6779 0.2426
0.4607 0.6779 0.2426
0.4739 0.6779 0.2426
0.4881 0.6779 0.2426
0.5032 0.6779 0.2426
0.5194 0.6779 0.2426
0.5365 0.6779 0.2426
0.5546 0.6779 0.2426
0.5734 0.6779 0.2426
0.5930 0.6779 0.2426
0.6133 0.6779 0.2426
0.6343 0.6779 0.2426
0.6558 0.6779 0.2426
0.6779 0.6779 0.2426
0.7042 0.6816 0.2466
0.7311 0.6853 0.2506
0.7585 0.6891 0.2545
0.7863 0.6929 0.2584
0.8143 0.6966 0.2622
0.2466 0.7042 0.2466
0.2698 0.7042 0.2466
0.2912 0.7042 0.2466
0.3113 0.7042 0.2466
0.3297 0.7042 0.2466
0.3466 0.7042 0.2466
0.3621 0.7042 0.2466
0.3764 0.7042 0.2466
0.3897 0.7042 0.2466
0.4023 0.7042 0.2466
0.4144 0.7042 0.2466
0.4263 0.7042 0.2466
0.4381 0.7042 0.2466
0.4502 0.7042 0.2466
0.4629 0.7042 0.2466
0.4761 0.7042 0.2466
0.4905 0.7042 0.2466
0.5059 0.7042 0.2466
0.5222 0.7042 0.2466
0.5395 0.7042 0.2466
0.5576 0.7042 0.2466
0.5766 0.7042 0.2466
0.5964 0.7042 0.2466
0.6167 0.7042 0.2466
0.6378 0.7042 0.2466
0.6595 0.7042 0.2466
0.6816 0.7042 0.2466
0.7042 0.7042 0.2466
0.7311 0.7081 0.2506
0.7585 0.7120 0.2545
0.7863 0.7156 0.2584
0.8143 0.7197 0.2622
0.2506 0.7311 0.2506
0.2734 0.7311 0.2506
0.2948 0.7311 0.2506
0.3145 0.7311 0.2506
