LUTs/Utility/Rec.709 to LOG.cube
TITLE "VisionColor Utility LUT: Rec.709 to LOG"
LUT_3D_SIZE 8
DOMAIN_MIN 0.000000 0.000000 0.000000
DOMAIN_MAX 0.903226 0.903226 0.903226
0.1255 0.1255 0.1255
0.2506 0.1444 0.1444
0.3439 0.1632 0.1632
0.4084 0.1817 0.1817
0.4650 0.1999 0.1999
0.5366 0.2174 0.2174
0.6272 0.2344 0.2344
0.7311 0.2506 0.2506
0.1444 0.2506 0.1444
0.2506 0.2506 0.1444
0.3439 0.2660 0.1632
0.4084 0.2807 0.1817
0.4650 0.2947 0.1999
0.5366 0.3080 0.2174
0.6272 0.3207 0.2344
0.7311 0.3326 0.2506
0.1632 0.3439 0.1632
0.2660 0.3439 0.1632
0.3439 0.3439 0.1632
0.4084 0.3546 0.1817
0.4650 0.3646 0.1999
0.5366 0.3741 0.2174
0.6272 0.3832 0.2344
0.7311 0.3918 0.2506
0.1817 0.4084 0.1817
0.2807 0.4084 0.1817
0.3546 0.4084 0.1817
0.4084 0.4084 0.1817
0.4650 0.4164 0.1999
0.5366 0.4243 0.2174
0.6272 0.4322 0.2344
0.7311 0.4401 0.2506
0.1999 0.4650 0.1999
0.2947 0.4650 0.1999
0.3646 0.4650 0.1999
0.4164 0.4650 0.1999
0.4650 0.4650 0.1999
0.5366 0.4739 0.2174
0.6272 0.4833 0.2344
0.7311 0.4930 0.2506
0.2174 0.5366 0.2174
0.3080 0.5366 0.2174
0.3741 0.5366 0.2174
0.4243 0.5366 0.2174
0.4739 0.5366 0.2174
0.5366 0.5366 0.2174
0.6272 0.5484 0.2344
0.7311 0.5608 0.2506
0.2344 0.6272 0.2344
0.3207 0.6272 0.2344
0.3832 0.6272 0.2344
0.4322 0.6272 0.2344
0.4833 0.6272 0.2344
0.5484 0.6272 0.2344
0.6272 0.6272 0.2344
0.7311 0.6414 0.2506
0.2506 0.7311 0.2506
0.3326 0.7311 0.2506
0.3918 0.7311 0.2506
0.4401 0.7311 0.2506
0.4930 0.7311 0.2506
0.5608 0.7311 0.2506
0.6414 0.7311 0.2506
0.7311 0.7311 0.2506
0.1444 0.1444 0.2506
0.2506 0.1444 0.2506
0.3439 0.1632 0.2660
0.4084 0.1817 0.2807
0.4650 0.1999 0.2947
0.5366 0.2174 0.3080
0.6272 0.2344 0.3207
0.7311 0.2506 0.3326
0.1444 0.2506 0.2506
0.2660 0.2660 0.2660
0.3545 0.2807 0.2807
0.4164 0.2947 0.2947
0.4739 0.3080 0.3080
0.5485 0.3207 0.3207
0.6414 0.3326 0.3326
0.7467 0.3439 0.3439
0.1632 0.3439 0.2660
0.2807 0.3545 0.2807
0.3545 0.3545 0.2807
0.4164 0.3646 0.2947
0.4739 0.3741 0.3080
0.5485 0.3832 0.3207
0.6414 0.3918 0.3326
0.7467 0.4003 0.3439
0.1817 0.4084 0.2807
0.2947 0.4164 0.2947
0.3646 0.4164 0.2947
0.4164 0.4164 0.2947
0.4739 0.4243 0.3080
0.5485 0.4322 0.3207
0.6414 0.4401 0.3326
0.7467 0.4482 0.3439
0.1999 0.4650 0.2947
0.3080 0.4739 0.3080
0.3741 0.4739 0.3080
0.4243 0.4739 0.3080
0.4739 0.4739 0.3080
0.5485 0.4832 0.3207
0.6414 0.4930 0.3326
0.7467 0.5033 0.3439
0.2174 0.5366 0.3080
0.3207 0.5485 0.3207
0.3832 0.5485 0.3207
0.4322 0.5485 0.3207
0.4832 0.5485 0.3207
0.5485 0.5485 0.3207
0.6414 0.5608 0.3326
0.7467 0.5734 0.3439
0.2344 0.6272 0.3207
0.3326 0.6414 0.3326
0.3918 0.6414 0.3326
0.4401 0.6414 0.3326
0.4930 0.6414 0.3326
0.5608 0.6414 0.3326
0.6414 0.6414 0.3326
0.7467 0.6558 0.3439
0.2506 0.7311 0.3326
0.3439 0.7467 0.3439
0.4003 0.7467 0.3439
0.4482 0.7467 0.3439
0.5033 0.7467 0.3439
0.5734 0.7467 0.3439
0.6558 0.7467 0.3439
0.7467 0.7467 0.3439
0.1632 0.1632 0.3439
0.2660 0.1632 0.3439
0.3439 0.1632 0.3439
0.4084 0.1817 0.3546
0.4650 0.1999 0.3646
0.5366 0.2174 0.3741
0.6272 0.2344 0.3832
0.7311 0.2506 0.3918
0.1632 0.2660 0.3439
0.2807 0.2807 0.3545
0.3545 0.2807 0.3545
0.4164 0.2947 0.3646
0.4739 0.3080 0.3741
0.5485 0.3207 0.3832
0.6414 0.3326 0.3918
0.7467 0.3439 0.4003
0.1632 0.3439 0.3439
0.2807 0.3545 0.3545
0.3646 0.3646 0.3646
0.4243 0.3741 0.3741
0.4832 0.3832 0.3832
0.5608 0.3919 0.3919
0.6558 0.4002 0.4002
0.7624 0.4084 0.4084
0.1817 0.4084 0.3546
0.2947 0.4164 0.3646
0.3741 0.4243 0.3741
0.4243 0.4243 0.3741
0.4832 0.4322 0.3832
0.5608 0.4401 0.3919
0.6558 0.4482 0.4002
0.7624 0.4565 0.4084
0.1999 0.4650 0.3646
0.3080 0.4739 0.3741
0.3832 0.4832 0.3832
0.4322 0.4832 0.3832
0.4832 0.4832 0.3832
0.5608 0.4930 0.3919
0.6558 0.5033 0.4002
0.7624 0.5139 0.4084
0.2174 0.5366 0.3741
0.3207 0.5485 0.3832
0.3919 0.5608 0.3919
0.4401 0.5608 0.3919
0.4930 0.5608 0.3919
0.5608 0.5608 0.3919
0.6558 0.5734 0.4002
0.7624 0.5864 0.4084
0.2344 0.6272 0.3832
0.3326 0.6414 0.3918
0.4002 0.6558 0.4002
0.4482 0.6558 0.4002
0.5033 0.6558 0.4002
0.5734 0.6558 0.4002
0.6558 0.6558 0.4002
0.7624 0.6705 0.4084
0.2506 0.7311 0.3918
0.3439 0.7467 0.4003
0.4084 0.7624 0.4084
0.4565 0.7624 0.4084
0.5139 0.7624 0.4084
0.5864 0.7624 0.4084
0.6705 0.7624 0.4084
0.7624 0.7624 0.4084
0.1817 0.1817 0.4084
0.2807 0.1817 0.4084
0.3546 0.1817 0.4084
0.4084 0.1817 0.4084
0.4650 0.1999 0.4164
0.5366 0.2174 0.4243
0.6272 0.2344 0.4322
0.7311 0.2506 0.4401
0.1817 0.2807 0.4084
0.2947 0.2947 0.4164
0.3646 0.2947 0.4164
0.4164 0.2947 0.4164
0.4739 0.3080 0.4243
0.5485 0.3207 0.4322
0.6414 0.3326 0.4401
0.7467 0.3439 0.4482
0.1817 0.3546 0.4084
0.2947 0.3646 0.4164
0.3741 0.3741 0.4243
0.4243 0.3741 0.4243
0.4832 0.3832 0.4322
0.5608 0.3919 0.4401
0.6558 0.4002 0.4482
0.7624 0.4084 0.4565
0.1817 0.4084 0.4084
0.2947 0.4164 0.4164
0.3741 0.4243 0.4243
0.4322 0.4322 0.4322
0.4930 0.4401 0.4401
0.5734 0.4482 0.4482
0.6705 0.4565 0.4565
0.7783 0.4650 0.4650
0.1999 0.4650 0.4164
0.3080 0.4739 0.4243
0.3832 0.4832 0.4322
0.4401 0.4930 0.4401
0.4930 0.4930 0.4401
0.5734 0.5033 0.4482
0.6705 0.5139 0.4565
0.7783 0.5250 0.4650
0.2174 0.5366 0.4243
0.3207 0.5485 0.4322
0.3919 0.5608 0.4401
0.4482 0.5734 0.4482
0.5033 0.5734 0.4482
0.5734 0.5734 0.4482
0.6705 0.5864 0.4565
0.7783 0.5997 0.4650
0.2344 0.6272 0.4322
0.3326 0.6414 0.4401
0.4002 0.6558 0.4482
0.4565 0.6705 0.4565
0.5139 0.6705 0.4565
0.5864 0.6705 0.4565
0.6705 0.6705 0.4565
0.7783 0.6854 0.4650
0.2506 0.7311 0.4401
0.3439 0.7467 0.4482
0.4084 0.7624 0.4565
0.4650 0.7783 0.4650
0.5250 0.7783 0.4650
0.5997 0.7783 0.4650
0.6854 0.7783 0.4650
0.7783 0.7783 0.4650
0.1999 0.1999 0.4650
0.2947 0.1999 0.4650
0.3646 0.1999 0.4650
0.4164 0.1999 0.4650
0.4650 0.1999 0.4650
0.5366 0.2174 0.4739
0.6272 0.2344 0.4833
0.7311 0.2506 0.4930
0.1999 0.2947 0.4650
0.3080 0.3080 0.4739
0.3741 0.3080 0.4739
0.4243 0.3080 0.4739
0.4739 0.3080 0.4739
0.5485 0.3207 0.4832
0.6414 0.3326 0.4930
0.7467 0.3439 0.5033
0.1999 0.3646 0.4650
0.3080 0.3741 0.4739
0.3832 0.3832 0.4832
0.4322 0.3832 0.4832
0.4832 0.3832 0.4832
0.5608 0.3919 0.4930
0.6558 0.4002 0.5033
0.7624 0.4084 0.5139
0.1999 0.4164 0.4650
0.3080 0.4243 0.4739
0.3832 0.4322 0.4832
0.4401 0.4401 0.4930
0.4930 0.4401 0.4930
0.5734 0.4482 0.5033
0.6705 0.4565 0.5139
0.7783 0.4650 0.5250
0.1999 0.4650 0.4650
0.3080 0.4739 0.4739
0.3832 0.4832 0.4832
0.4401 0.4930 0.4930
0.5033 0.5033 0.5033
0.5864 0.5139 0.5139
0.6854 0.5250 0.5250
0.7942 0.5366 0.5366
0.2174 0.5366 0.4739
0.3207 0.5485 0.4832
0.3919 0.5608 0.4930
0.4482 0.5734 0.5033
0.5139 0.5864 0.5139
0.5864 0.5864 0.5139
0.6854 0.5997 0.5250
0.7942 0.6133 0.5366
0.2344 0.6272 0.4833
0.3326 0.6414 0.4930
0.4002 0.6558 0.5033
0.4565 0.6705 0.5139
0.5250 0.6854 0.5250
0.5997 0.6854 0.5250
0.6854 0.6854 0.5250
0.7942 0.7005 0.5366
0.2506 0.7311 0.4930
0.3439 0.7467 0.5033
0.4084 0.7624 0.5139
0.4650 0.7783 0.5250
0.5366 0.7942 0.5366
0.6133 0.7942 0.5366
0.7005 0.7942 0.5366
0.7942 0.7942 0.5366
0.2174 0.2174 0.5366
0.3080 0.2174 0.5366
0.3741 0.2174 0.5366
0.4243 0.2174 0.5366
0.4739 0.2174 0.5366
0.5366 0.2174 0.5366
0.6272 0.2344 0.5484
0.7311 0.2506 0.5608
0.2174 0.3080 0.5366
0.3207 0.3207 0.5485
0.3832 0.3207 0.5485
0.4322 0.3207 0.5485
0.4832 0.3207 0.5485
0.5485 0.3207 0.5485
0.6414 0.3326 0.5608
0.7467 0.3439 0.5734
0.2174 0.3741 0.5366
0.3207 0.3832 0.5485
0.3919 0.3919 0.5608
0.4401 0.3919 0.5608
0.4930 0.3919 0.5608
0.5608 0.3919 0.5608
0.6558 0.4002 0.5734
0.7624 0.4084 0.5864
0.2174 0.4243 0.5366
0.3207 0.4322 0.5485
0.3919 0.4401 0.5608
0.4482 0.4482 0.5734
0.5033 0.4482 0.5734
0.5734 0.4482 0.5734
0.6705 0.4565 0.5864
0.7783 0.4650 0.5997
0.2174 0.4739 0.5366
0.3207 0.4832 0.5485
0.3919 0.4930 0.5608
0.4482 0.5033 0.5734
0.5139 0.5139 0.5864
0.5864 0.5139 0.5864
0.6854 0.5250 0.5997
0.7942 0.5366 0.6133
0.2174 0.5366 0.5366
0.3207 0.5485 0.5485
0.3919 0.5608 0.5608
0.4482 0.5734 0.5734
0.5139 0.5864 0.5864
0.5997 0.5997 0.5997
0.7005 0.6133 0.6133
0.8103 0.6272 0.6272
0.2344 0.6272 0.5484
0.3326 0.6414 0.5608
0.4002 0.6558 0.5734
0.4565 0.6705 0.5864
0.5250 0.6854 0.5997
0.6133 0.7005 0.6133
0.7005 0.7005 0.6133
0.8103 0.7157 0.6272
0.2506 0.7311 0.5608
0.3439 0.7467 0.5734
0.4084 0.7624 0.5864
0.4650 0.7783 0.5997
0.5366 0.7942 0.6133
0.6272 0.8103 0.6272
0.7157 0.8103 0.6272
0.8103 0.8103 0.6272
0.2344 0.2344 0.6272
0.3207 0.2344 0.6272
0.3832 0.2344 0.6272
0.4322 0.2344 0.6272
0.4833 0.2344 0.6272
0.5484 0.2344 0.6272
0.6272 0.2344 0.6272
0.7311 0.2506 0.6414
0.2344 0.3207 0.6272
0.3326 0.3326 0.6414
0.3918 0.3326 0.6414
0.4401 0.3326 0.6414
0.4930 0.3326 0.6414
0.5608 0.3326 0.6414
0.6414 0.3326 0.6414
0.7467 0.3439 0.6558
0.2344 0.3832 0.6272
0.3326 0.3918 0.6414
0.4002 0.4002 0.6558
0.4482 0.4002 0.6558
0.5033 0.4002 0.6558
0.5734 0.4002 0.6558
0.6558 0.4002 0.6558
0.7624 0.4084 0.6705
0.2344 0.4322 0.6272
0.3326 0.4401 0.6414
0.4002 0.4482 0.6558
0.4565 0.4565 0.6705
0.5139 0.4565 0.6705
0.5864 0.4565 0.6705
0.6705 0.4565 0.6705
0.7783 0.4650 0.6854
0.2344 0.4833 0.6272
0.3326 0.4930 0.6414
0.4002 0.5033 0.6558
0.4565 0.5139 0.6705
0.5250 0.5250 0.6854
0.5997 0.5250 0.6854
0.6854 0.5250 0.6854
0.7942 0.5366 0.7005
0.2344 0.5484 0.6272
0.3326 0.5608 0.6414
0.4002 0.5734 0.6558
0.4565 0.5864 0.6705
0.5250 0.5997 0.6854
0.6133 0.6133 0.7005
0.7005 0.6133 0.7005
0.8103 0.6272 0.7157
0.2344 0.6272 0.6272
0.3326 0.6414 0.6414
0.4002 0.6558 0.6558
0.4565 0.6705 0.6705
0.5250 0.6854 0.6854
0.6133 0.7005 0.7005
0.7157 0.7157 0.7157
0.8264 0.7311 0.7311
0.2506 0.7311 0.6414
0.3439 0.7467 0.6558
0.4084 0.7624 0.6705
0.4650 0.7783 0.6854
0.5366 0.7942 0.7005
0.6272 0.8103 0.7157
0.7311 0.8264 0.7311
0.8264 0.8264 0.7311
0.2506 0.2506 0.7311
0.3326 0.2506 0.7311
0.3918 0.2506 0.7311
0.4401 0.2506 0.7311
0.4930 0.2506 0.7311
0.5608 0.2506 0.7311
0.6414 0.2506 0.7311
0.7311 0.2506 0.7311
0.2506 0.3326 0.7311
0.3439 0.3439 0.7467
0.4003 0.3439 0.7467
0.4482 0.3439 0.7467
0.5033 0.3439 0.7467
0.5734 0.3439 0.7467
0.6558 0.3439 0.7467
0.7467 0.3439 0.7467
0.2506 0.3918 0.7311
0.3439 0.4003 0.7467
0.4084 0.4084 0.7624
0.4565 0.4084 0.7624
0.5139 0.4084 0.7624
0.5864 0.4084 0.7624
0.6705 0.4084 0.7624
0.7624 0.4084 0.7624
0.2506 0.4401 0.7311
0.3439 0.4482 0.7467
0.4084 0.4565 0.7624
0.4650 0.4650 0.7783
0.5250 0.4650 0.7783
0.5997 0.4650 0.7783
0.6854 0.4650 0.7783
0.7783 0.4650 0.7783
0.2506 0.4930 0.7311
0.3439 0.5033 0.7467
0.4084 0.5139 0.7624
0.4650 0.5250 0.7783
0.5366 0.5366 0.7942
0.6133 0.5366 0.7942
0.7005 0.5366 0.7942
0.7942 0.5366 0.7942
0.2506 0.5608 0.7311
0.3439 0.5734 0.7467
0.4084 0.5864 0.7624
0.4650 0.5997 0.7783
0.5366 0.6133 0.7942
0.6272 0.6272 0.8103
0.7157 0.6272 0.8103
0.8103 0.6272 0.8103
0.2506 0.6414 0.7311
0.3439 0.6558 0.7467
0.4084 0.6705 0.7624
0.4650 0.6854 0.7783
0.5366 0.7005 0.7942
0.6272 0.7157 0.8103
0.7311 0.7311 0.8264
0.8264 0.7311 0.8264
0.2506 0.7311 0.7311
0.3439 0.7467 0.7467
0.4084 0.7624 0.7624
0.4650 0.7783 0.7783
0.5366 0.7942 0.7942
0.6272 0.8103 0.8103
0.7311 0.8264 0.8264
0.8427 0.8427 0.8427
