LUTs/Utility/Rec.709 to LOG.cube
TITLE "VisionColor Utility LUT: Rec.709 to LOG"
LUT_3D_SIZE 5
DOMAIN_MIN 0.000000 0.000000 0.000000
DOMAIN_MAX 0.903226 0.903226 0.903226
0.1255 0.1255 0.1255
0.3238 0.1585 0.1585
0.4361 0.1908 0.1908
0.5576 0.2217 0.2217
0.7311 0.2506 0.2506
0.1585 0.3238 0.1585
0.3238 0.3238 0.1585
0.4361 0.3439 0.1908
0.5576 0.3621 0.2217
0.7311 0.3787 0.2506
0.1908 0.4361 0.1908
0.3439 0.4361 0.1908
0.4361 0.4361 0.1908
0.5576 0.4503 0.2217
0.7311 0.4650 0.2506
0.2217 0.5576 0.2217
0.3621 0.5576 0.2217
0.4503 0.5576 0.2217
0.5576 0.5576 0.2217
0.7311 0.5799 0.2506
0.2506 0.7311 0.2506
0.3787 0.7311 0.2506
0.4650 0.7311 0.2506
0.5799 0.7311 0.2506
0.7311 0.7311 0.2506
0.1585 0.1585 0.3238
0.3238 0.1585 0.3238
0.4361 0.1908 0.3439
0.5576 0.2217 0.3621
0.7311 0.2506 0.3787
0.1585 0.3238 0.3238
0.3439 0.3439 0.3439
0.4503 0.3622 0.3622
0.5799 0.3787 0.3787
0.7585 0.3940 0.3940
0.1908 0.4361 0.3439
0.3622 0.4503 0.3622
0.4503 0.4503 0.3622
0.5799 0.4650 0.3787
0.7585 0.4808 0.3940
0.2217 0.5576 0.3621
0.3787 0.5799 0.3787
0.4650 0.5799 0.3787
0.5799 0.5799 0.3787
0.7585 0.6031 0.3940
0.2506 0.7311 0.3787
0.3940 0.7585 0.3940
0.4808 0.7585 0.3940
0.6031 0.7585 0.3940
0.7585 0.7585 0.3940
0.1908 0.1908 0.4361
0.3439 0.1908 0.4361
0.4361 0.1908 0.4361
0.5576 0.2217 0.4503
0.7311 0.2506 0.4650
0.1908 0.3439 0.4361
0.3622 0.3622 0.4503
0.4503 0.3622 0.4503
0.5799 0.3787 0.4650
0.7585 0.3940 0.4808
0.1908 0.4361 0.4361
0.3622 0.4503 0.4503
0.4650 0.4650 0.4650
0.6031 0.4808 0.4808
0.7863 0.4981 0.4981
0.2217 0.5576 0.4503
0.3787 0.5799 0.4650
0.4808 0.6031 0.4808
0.6031 0.6031 0.4808
0.7863 0.6272 0.4981
0.2506 0.7311 0.4650
0.3940 0.7585 0.4808
0.4981 0.7863 0.4981
0.6272 0.7863 0.4981
0.7863 0.7863 0.4981
0.2217 0.2217 0.5576
0.3621 0.2217 0.5576
0.4503 0.2217 0.5576
0.5576 0.2217 0.5576
0.7311 0.2506 0.5799
0.2217 0.3621 0.5576
0.3787 0.3787 0.5799
0.4650 0.3787 0.5799
0.5799 0.3787 0.5799
0.7585 0.3940 0.6031
0.2217 0.4503 0.5576
0.3787 0.4650 0.5799
0.4808 0.4808 0.6031
0.6031 0.4808 0.6031
0.7863 0.4981 0.6272
0.2217 0.5576 0.5576
0.3787 0.5799 0.5799
0.4808 0.6031 0.6031
0.6272 0.6272 0.6272
0.8143 0.6522 0.6522
0.2506 0.7311 0.5799
0.3940 0.7585 0.6031
0.4981 0.7863 0.6272
0.6522 0.8143 0.6522
0.8143 0.8143 0.6522
0.2506 0.2506 0.7311
0.3787 0.2506 0.7311
0.4650 0.2506 0.7311
0.5799 0.2506 0.7311
0.7311 0.2506 0.7311
0.2506 0.3787 0.7311
0.3940 0.3940 0.7585
0.4808 0.3940 0.7585
0.6031 0.3940 0.7585
0.7585 0.3940 0.7585
0.2506 0.4650 0.7311
0.3940 0.4808 0.7585
0.4981 0.4981 0.7863
0.6272 0.4981 0.7863
0.7863 0.4981 0.7863
0.2506 0.5799 0.7311
0.3940 0.6031 0.7585
0.4981 0.6272 0.7863
0.6522 0.6522 0.8143
0.8143 0.6522 0.8143
0.2506 0.7311 0.7311
0.3940 0.7585 0.7585
0.4981 0.7863 0.7863
0.6522 0.8143 0.8143
0.8427 0.8427 0.8427
