LUTs/Hook_BMCC_BMDFilm2Vid.cube
TITLE "Generate by Resolve"
LUT_3D_SIZE 5
0 0.0162661 0.00408942
0.475196 0 0
0.599435 0.0170291 0
0.56817 0 0
0.573037 0 0
0 0.286091 0.0863661
0.319265 0.251026 0
0.7075 0.272023 0
0.729046 0.267155 0
0.715892 0.234592 0
0 0.537453 0.203479
0 0.523842 0.0874495
0.744778 0.650172 0
0.863371 0.619318 0
0.846296 0.572946 0
0 0.596475 0.254704
0 0.572427 0.200458
0.56025 0.725704 0
0.909728 0.78613 0.0319982
0.926116 0.778515 0.0288701
0 0.596475 0.254704
0 0.596475 0.254704
0.308949 0.683986 0
0.891279 0.818173 0.0264439
0.978973 0.824582 0.052079
0 0.200229 0.469368
0.54757 0 0.455985
0.691432 0 0.474144
0.68983 0 0.490745
0.689769 0 0.488701
0 0.434821 0.510857
0.281254 0.266285 0.291249
0.781964 0.208759 0.186419
0.807782 0.181506 0.1196
0.785657 0.131884 0.0556191
0 0.62359 0.441505
0 0.55436 0.245731
0.729854 0.61561 0
0.859236 0.564416 0
0.828443 0.510384 0
0 0.640467 0.403311
0 0.565408 0.22504
0.456718 0.688365 0
0.890486 0.771634 0.026627
0.917769 0.763928 0.0241703
0 0.596475 0.254704
0 0.596475 0.254704
0.162371 0.662837 0
0.858091 0.813733 0
0.967758 0.817121 0.0507668
0 0.307591 0.627329
0.584024 0 0.701442
0.751492 0 0.712993
0.752941 0 0.715877
0.751431 0 0.713024
0 0.490105 0.726146
0.161959 0.290211 0.75491
0.788586 0.212833 0.759503
0.824811 0.189654 0.735378
0.808682 0.109804 0.693523
0 0.716594 0.804852
0 0.682551 0.75761
0.687236 0.691752 0.690822
0.940902 0.614878 0.600015
0.928679 0.543313 0.520775
0 0.744579 0.797574
0 0.707713 0.685191
0.154223 0.767956 0.470054
0.978439 0.84918 0.266041
1 0.81857 0.162951
0 0.733822 0.721141
0 0.705562 0.618906
0 0.721004 0.428031
0.817136 0.838285 0.118257
0.996399 0.8392 0
0 0.304265 0.621851
0.584009 0 0.695705
0.752941 0 0.715877
0.752941 0 0.715877
0.752941 0 0.715877
0 0.495308 0.732143
0.0802319 0.330083 0.78381
0.78819 0.266682 0.837079
0.843 0.250004 0.838819
0.832456 0.204074 0.824826
0 0.713954 0.823438
0 0.675685 0.817716
0.605982 0.688701 0.926009
0.919341 0.609201 0.918761
0.913741 0.548455 0.899809
0 0.746532 0.844785
0 0.732235 0.82855
0 0.833082 0.899535
0.926345 0.934401 0.920516
0.997726 0.913787 0.883787
0 0.757061 0.850019
0 0.756283 0.842634
0 0.81236 0.859876
0.714275 0.930861 0.834867
1 0.954879 0.747555
0 0.299519 0.613779
0.593423 0 0.683757
0.752941 0 0.715877
0.752941 0 0.715877
0.752941 0 0.715877
0 0.485878 0.727687
0.0373083 0.325048 0.767391
0.774426 0.249226 0.829389
0.838163 0.228794 0.832456
0.828122 0.183734 0.818372
0 0.709361 0.82153
0 0.657984 0.807706
0.56524 0.664622 0.924559
0.91136 0.584802 0.925643
0.914412 0.541695 0.918532
0 0.746288 0.841031
0 0.733257 0.83209
0.00810254 0.822522 0.911116
0.892836 0.927123 0.984009
0.987671 0.907637 0.985611
0 0.757061 0.855879
0 0.757061 0.855879
0 0.80502 0.889937
0.624063 0.944808 0.975448
0.992493 0.992615 0.99176
