LUTs/Hook_BMCC_BMDFilm2Vid.cube
TITLE "Generate by Resolve"
LUT_3D_SIZE 33
0 0.0162661 0.00408942
0.012726 0.016434 0.00102235
0.0549172 0.0216373 0
0.121279 0.0300908 0
0.199649 0.0347448 0
0.279362 0.0313268 0
0.354238 0.0206912 0
0.421012 0.00489815 0
0.475196 0 0
0.518715 0 0
0.547356 0 0
0.567605 0 0
0.578897 0 0
0.586709 0 0
0.595102 0 0
0.601373 0.016434 0
0.599435 0.0170291 0
0.59559 0.00788891 0
0.591684 0 0
0.58761 0 0
0.58291 0 0
0.57879 0 0
0.575051 0 0
0.571405 0 0
0.56817 0 0
0.569757 0 0
0.571542 0 0
0.572839 0 0
0.57377 0 0
0.573587 0 0
0.57351 0 0
0.573053 0 0
0.573037 0 0
0 0.0162661 0.00408942
0.0122377 0.0164187 0.00109865
0.0532082 0.0213779 0
0.116838 0.0297246 0
0.1944 0.0347753 0
0.273182 0.0319982 0
0.347829 0.0218509 0
0.414969 0.00660716 0
0.47013 0 0
0.514366 0 0
0.544427 0 0
0.565362 0 0
0.577615 0 0
0.585748 0 0
0.59411 0 0
0.600778 0.0161746 0
0.601251 0.0255283 0
0.598657 0.0215305 0
0.595956 0.0178836 0
0.593317 0.0149386 0
0.590494 0.0120241 0
0.58819 0.0107881 0
0.586542 0.00907912 0
0.58529 0.00653086 0
0.584253 0.00355535 0
0.583474 0.000244144 0
0.582116 0 0
0.581186 0 0
0.580346 0 0
0.579309 0 0
0.578332 0 0
0.577401 0 0
0.577188 0 0
0 0.0244755 0.00137331
0.00450141 0.0241245 0
0.0421912 0.0284886 0
0.102846 0.0375067 0
0.176806 0.0445716 0
0.252705 0.0463722 0
0.325185 0.0435187 0
0.392477 0.0390326 0
0.452247 0.0350042 0
0.498131 0.0366979 0
0.533791 0.0345006 0
0.559274 0.0309148 0
0.577554 0.0237278 0
0.589395 0.0208438 0
0.598672 0.0336004 0
0.605722 0.0600595 0
0.613443 0.0682841 0
0.614618 0.0672923 0
0.613825 0.0657359 0
0.61294 0.0643015 0
0.612207 0.0630198 0
0.611551 0.0618296 0
0.611048 0.0607462 0
0.610376 0.0595865 0
0.608988 0.0576333 0
0.607645 0.0557259 0
0.606332 0.0537881 0
0.605066 0.0519112 0
0.604028 0.050248 0
0.602945 0.0479896 0
0.602228 0.0453956 0
0.601404 0.0428321 0
0.600961 0.041825 0
0 0.0475319 0.00129702
0 0.0458839 0
0.0254215 0.0469825 0
0.0756847 0.0543374 0
0.141787 0.0628519 0
0.216983 0.068925 0
0.291554 0.0709697 0
0.362737 0.0713512 0
0.426947 0.0705882 0
0.481651 0.0687724 0
0.52549 0.0701152 0
0.559686 0.0744793 0
0.583764 0.0760204 0
0.600443 0.0747997 0
0.613825 0.0778363 0
0.624033 0.0859693 0
0.631357 0.0969558 0
0.637629 0.103334 0
0.637751 0.102556 0
0.636591 0.10074 0
0.635279 0.0988022 0
0.633951 0.0968185 0
0.632776 0.0950332 0
0.631647 0.0933394 0
0.630442 0.0915389 0
0.629358 0.0898299 0
0.628367 0.0882277 0
0.627192 0.0863661 0
0.626047 0.084596 0
0.624689 0.0825513 0
0.623301 0.0805066 0
0.621866 0.0784619 0
0.621195 0.0775464 0
0 0.0768139 0.0055848
0 0.0711681 0.00315862
0 0.0705272 0.00137331
0.0483253 0.0761273 0
0.112108 0.0843977 0
0.184588 0.0923629 0
0.261265 0.0986191 0
0.337346 0.10161 0
0.408621 0.103166 0
0.471397 0.105333 0
0.523156 0.105821 0
0.565225 0.107027 0
0.595987 0.108934 0
0.615747 0.113146 0
0.629496 0.116823 0
0.641138 0.120821 0
0.648539 0.126329 0
0.656229 0.132097 0
0.660685 0.137682 0
0.660227 0.136629 0
0.659037 0.134554 0
0.657755 0.132509 0
0.656413 0.130495 0
0.6551 0.128527 0
0.653803 0.126574 0
0.652308 0.124331 0
0.65095 0.122301 0
0.649561 0.120211 0
0.648188 0.118151 0
0.646738 0.115984 0
0.645243 0.113741 0
0.64387 0.111681 0
0.643336 0.110872 0
0 0.114305 0.0172732
0 0.10454 0.0115358
0 0.098909 0.00654612
0.00846876 0.101656 0.00231937
0.0806287 0.109102 0
0.154376 0.118181 0
0.235355 0.126574 0
0.316197 0.132723 0
0.392691 0.138125 0
0.460105 0.141039 0
0.520073 0.145068 0
0.566293 0.146105 0
0.601846 0.146593 0
0.628275 0.14696 0
0.642496 0.149004 0
0.656458 0.151202 0
0.664317 0.157031 0
0.672297 0.16582 0
0.67863 0.170672 0
0.680659 0.170779 0
0.679469 0.168673 0
0.677821 0.166491 0
0.676509 0.164294 0
0.675303 0.162066 0
0.67422 0.159884 0
0.673121 0.157565 0
0.672129 0.155261 0
0.671061 0.152819 0
0.669444 0.150408 0
0.667765 0.148119 0
0.666133 0.145785 0
0.664561 0.14342 0
0.663905 0.142443 0
0 0.162554 0.0329442
0 0.147356 0.0249638
0 0.137041 0.0156252
0 0.133944 0.00753796
0.0375982 0.139055 0
0.124132 0.148562 0
0.207782 0.158282 0
0.291157 0.167193 0
0.371679 0.173602 0
0.446052 0.177676 0
0.508965 0.183474 0
0.564233 0.186481 0
0.606348 0.189395 0
0.636072 0.18883 0
0.654017 0.185901 0
0.66862 0.18526 0
0.679057 0.18732 0
0.687907 0.19762 0
0.693874 0.204501 0
0.69926 0.204471 0
0.699443 0.202213 0
0.697887 0.199298 0
0.696361 0.196506 0
0.694682 0.193942 0
0.692897 0.191363 0
0.691173 0.188907 0
0.689479 0.186435 0
0.68777 0.183856 0
0.686244 0.181247 0
0.684901 0.178607 0
0.683604 0.176028 0
0.682322 0.173587 0
0.681651 0.172335 0
0 0.220783 0.0548409
0 0.200015 0.0459754
0 0.184482 0.0346838
0 0.174578 0.0175631
0 0.172686 0.000259403
0.0756847 0.179736 0
0.170459 0.191424 0
0.260838 0.202167 0
0.347539 0.211032 0
0.427848 0.218067 0
0.49926 0.222797 0
0.558968 0.227375 0
0.605966 0.229282 0
0.642023 0.231144 0
0.665156 0.231052 0
0.681544 0.228519 0
0.693599 0.227527 0
0.703014 0.23093 0
0.708934 0.236728 0
0.71429 0.240696 0
0.718883 0.240558 0
0.717861 0.236362 0
0.716533 0.232013 0
0.714549 0.228748 0
0.712657 0.225834 0
0.710796 0.22269 0
0.709056 0.219562 0
0.707225 0.215976 0
0.705486 0.212406 0
0.703807 0.209293 0
0.701915 0.20621 0
0.699947 0.203082 0
0.699077 0.201694 0
0 0.286091 0.0863661
0 0.258808 0.073228
0 0.240024 0.0621347
0 0.225605 0.0439155
0 0.215854 0.0133364
0.019028 0.217639 0
0.127047 0.228092 0
0.226642 0.240314 0
0.319265 0.251026 0
0.406485 0.259831 0
0.484688 0.265751 0
0.549599 0.270405 0
0.604532 0.273518 0
0.644358 0.274434 0
0.673808 0.274952 0
0.692866 0.274617 0
0.7075 0.272023 0
0.717128 0.271946 0
0.723461 0.273304 0
0.730846 0.2766 0
0.734264 0.282231 0
0.734157 0.280568 0
0.732235 0.276143 0
0.730571 0.271641 0
0.729046 0.267155 0
0.727428 0.262501 0
0.725811 0.257954 0
0.724178 0.253513 0
0.722454 0.248981 0
0.720577 0.244617 0
0.718624 0.240436 0
0.716838 0.236637 0
0.715892 0.234592 0
0 0.350866 0.120302
0 0.325963 0.106508
0 0.301137 0.0923171
0 0.284123 0.0743114
0 0.270115 0.0420996
0 0.260533 0
0.0660563 0.264714 0
0.185702 0.278935 0
0.287999 0.294514 0
0.380896 0.305882 0
0.465583 0.312749 0
0.539513 0.317571 0
0.596674 0.319234 0
0.643732 0.321721 0
0.679622 0.322194 0
0.703792 0.323201 0
0.718715 0.321645 0
0.730968 0.319509 0
0.739467 0.318013 0
0.743679 0.319142 0
0.749584 0.32137 0
0.752499 0.324926 0
0.750896 0.320226 0
0.748852 0.314702 0
0.746715 0.309712 0
0.744625 0.30486 0
0.742321 0.299519 0
0.740185 0.294545 0
0.738109 0.289647 0
0.735943 0.284367 0
0.733867 0.279072 0
0.732082 0.274327 0
0.731014 0.271489 0
0 0.404776 0.150225
0 0.384527 0.139223
0 0.361639 0.126238
0 0.342443 0.109194
0 0.329564 0.0839246
0 0.313664 0.0295415
0 0.30927 0
0.121828 0.3187 0
0.247349 0.335973 0
0.350271 0.352529 0
0.442725 0.361944 0
0.523888 0.369787 0
0.588769 0.370794 0
0.642573 0.371527 0
0.681117 0.371969 0
0.710628 0.37142 0
0.73019 0.369238 0
0.743175 0.366766 0
0.752438 0.363073 0
0.758038 0.362753 0
0.762036 0.364157 0
0.766766 0.368215 0
0.767315 0.366781 0
0.765377 0.36054 0
0.76321 0.354681 0
0.761059 0.348699 0
0.758892 0.342611 0
0.756802 0.336614 0
0.754681 0.33048 0
0.752667 0.324651 0
0.750576 0.319112 0
0.748409 0.313924 0
0.747082 0.31078 0
0 0.449256 0.172854
0 0.432395 0.164431
0 0.413565 0.154467
0 0.397345 0.142016
0 0.385382 0.12105
0 0.373678 0.0846265
0 0.356588 0.00924697
0.00628672 0.359503 0
0.197314 0.37789 0
0.316793 0.397742 0
0.415167 0.410513 0
0.502815 0.417899 0
0.577569 0.422827 0
0.634485 0.422919 0
0.682383 0.422965 0
0.715953 0.421317 0
0.737713 0.41709 0
0.75288 0.41445 0
0.76376 0.412314 0
0.770138 0.408042 0
0.775769 0.407736 0
0.779385 0.409689 0
0.781582 0.411337 0
0.779828 0.406287 0
0.777646 0.39968 0
0.775631 0.393256 0
0.773663 0.386923 0
0.771649 0.380575 0
0.769589 0.374151 0
0.767636 0.36817 0
0.765637 0.362264 0
0.763607 0.356405 0
0.762325 0.352743 0
0 0.482231 0.18555
0 0.470588 0.181064
0 0.455314 0.175296
0 0.442756 0.167941
0 0.429129 0.152529
0 0.421363 0.134478
0 0.408576 0.0630198
0 0.401923 0
0.078645 0.414572 0
0.268025 0.436561 0
0.383215 0.454673 0
0.478172 0.466819 0
0.559121 0.473136 0
0.626581 0.476829 0
0.680598 0.476707 0
0.718944 0.473121 0
0.745571 0.467842 0
0.76321 0.462303 0
0.773754 0.458457 0
0.78204 0.454932 0
0.788281 0.451606 0
0.793317 0.452003 0
0.796445 0.451194 0
0.796353 0.448035 0
0.793927 0.441596 0
0.791424 0.435325 0
0.788922 0.429068 0
0.786633 0.423331 0
0.784192 0.417227 0
0.781918 0.411505 0
0.77966 0.405371 0
0.777752 0.399542 0
0.776532 0.395697 0
0 0.504936 0.198001
0 0.497276 0.19411
0 0.487465 0.188373
0 0.475441 0.181384
0 0.467826 0.17583
0 0.462119 0.159518
0 0.452323 0.117479
0 0.442359 0.0290684
0 0.446403 0
0.195972 0.469535 0
0.34052 0.490929 0
0.447715 0.507225 0
0.537179 0.519387 0
0.612543 0.525322 0
0.672541 0.525551 0
0.717937 0.523125 0
0.751354 0.518685 0
0.774166 0.51284 0
0.787717 0.505928 0
0.796231 0.502388 0
0.803372 0.496773 0
0.807401 0.496574 0
0.811963 0.494392 0
0.813474 0.492073 0
0.81146 0.486046 0
0.808911 0.479545 0
0.806088 0.472389 0
0.803479 0.465751 0
0.80087 0.459129 0
0.798276 0.452552 0
0.795789 0.44625 0
0.793469 0.440421 0
0.791897 0.4365 0
0.00241093 0.519356 0.202762
0 0.514153 0.201175
0 0.50869 0.199374
0 0.498939 0.194736
0 0.490745 0.184176
0 0.488029 0.176181
0 0.482368 0.15349
0 0.47744 0.0833143
0 0.478996 0
0.107408 0.494133 0
0.290883 0.519005 0
0.411566 0.540642 0
0.511162 0.557137 0
0.593668 0.566522 0
0.66099 0.569924 0
0.714336 0.569711 0
0.752224 0.566476 0
0.780041 0.561105 0
0.799008 0.55378 0
0.810636 0.548409 0
0.818204 0.543755 0
0.823011 0.541176 0
0.828702 0.539712 0
0.831571 0.539254 0
0.831098 0.536095 0
0.82829 0.52874 0
0.825101 0.520638 0
0.821973 0.512703 0
0.818952 0.505028 0
0.815976 0.49749 0
0.813245 0.490608 0
0.81062 0.483925 0
0.808881 0.4795 0
0 0.530831 0.204913
0.00224308 0.527016 0.204715
0.00256352 0.522393 0.203555
0.000671397 0.515831 0.201724
0 0.50959 0.195102
0 0.5084 0.185321
0 0.505089 0.168948
0 0.501595 0.124102
0 0.502998 0.0364843
0.0315251 0.512184 0
0.227497 0.538079 0
0.370413 0.564828 0
0.479835 0.586435 0
0.57113 0.603174 0
0.647776 0.610971 0
0.70486 0.613306 0
0.749935 0.611032 0
0.783322 0.605844 0
0.807965 0.601038 0
0.822217 0.59263 0
0.831342 0.588327 0
0.837812 0.582406 0
0.842542 0.58175 0
0.847288 0.58056 0
0.84918 0.580941 0
0.847227 0.575311 0
0.844282 0.568078 0
0.841291 0.560845 0
0.838483 0.554009 0
0.835492 0.546746 0
0.832639 0.539712 0
0.82977 0.532433 0
0.827726 0.527245 0
0 0.537453 0.203479
0 0.535271 0.203998
0 0.532555 0.204562
0.00108339 0.529152 0.205081
0 0.522728 0.202228
0 0.519249 0.191485
0 0.518227 0.180514
0 0.518471 0.153506
0 0.523842 0.0874495
0 0.530739 0
0.146212 0.55227 0
0.323629 0.581079 0
0.444999 0.606821 0
0.544045 0.627604 0
0.627558 0.642023 0
0.693629 0.648936 0
0.744778 0.650172 0
0.783093 0.646372 0
0.81059 0.64268 0
0.830655 0.635737 0
0.843626 0.629969 0
0.850019 0.624033 0
0.853941 0.620066 0
0.859953 0.618921 0
0.863371 0.619318 0
0.863157 0.615351 0
0.861128 0.609583 0
0.858595 0.603265 0
0.856153 0.597147 0
0.853635 0.59086 0
0.851072 0.584527 0
0.848341 0.57792 0
0.846296 0.572946 0
0 0.542306 0.203601
0 0.540078 0.202976
0 0.538338 0.20325
0 0.536522 0.203967
0 0.532738 0.204211
0 0.532113 0.198779
0 0.526375 0.185016
0 0.529854 0.16936
0 0.536339 0.123049
0 0.543267 0.031632
0.0681773 0.560388 0
0.269123 0.590341 0
0.402625 0.619532 0
0.51133 0.645136 0
0.602762 0.665248 0
0.677836 0.677897 0
0.735683 0.681697 0
0.77818 0.678599 0
0.810498 0.67483 0
0.835065 0.671977 0
0.849744 0.66598 0
0.861006 0.66128 0
0.866468 0.657404 0
0.871427 0.655573 0
0.87541 0.65449 0
0.877348 0.652369 0
0.876081 0.647303 0
0.873732 0.641276 0
0.871351 0.635233 0
0.869032 0.629389 0
0.866621 0.623331 0
0.86421 0.617304 0
0.86247 0.612909 0
0 0.548913 0.206912
0 0.545632 0.205203
0 0.543297 0.204105
0 0.5411 0.202899
0 0.53872 0.203052
0 0.53846 0.202853
0 0.537636 0.193713
0 0.535607 0.177707
0 0.544106 0.151797
0 0.553735 0.0790723
0.00572213 0.566232 0
0.190616 0.593637 0
0.357702 0.625254 0
0.475471 0.652735 0
0.5738 0.677531 0
0.654749 0.69572 0
0.721355 0.706188 0
0.773098 0.709041 0
0.811292 0.705318 0
0.836805 0.702129 0
0.854231 0.697215 0.000656138
0.867109 0.693156 0
0.876097 0.689036 0
0.881483 0.684993 0
0.884947 0.683894 0
0.888273 0.683665 0
0.888579 0.680339 0
0.88716 0.675776 0
0.885298 0.670817 0
0.883299 0.665537 0
0.881148 0.659983 0
0.878843 0.654139 0
0.877104 0.649744 0
0 0.557046 0.213581
0 0.553613 0.209567
0 0.550393 0.207523
0 0.547112 0.20618
0 0.543755 0.204608
0 0.542031 0.203128
0 0.545159 0.201099
0 0.543099 0.186938
0 0.548989 0.162844
0 0.557748 0.101488
0 0.571038 0.014786
0.10811 0.59353 0
0.308568 0.627482 0
0.435828 0.658213 0
0.539193 0.684123 0
0.62739 0.705715 0
0.702663 0.721263 0
0.762051 0.728222 0
0.802335 0.728344 0
0.83415 0.724636 0
0.858351 0.723064 0.00634775
0.87097 0.720058 0.00798047
0.881407 0.718059 0.00679026
0.88954 0.715434 0.00585946
0.893507 0.713985 0.00523384
0.896803 0.711406 0.00198367
0.898772 0.709255 0
0.898177 0.705486 0
0.896452 0.70071 0
0.894621 0.695705 0
0.89279 0.690745 0
0.890944 0.685847 0
0.889586 0.682216 0
0 0.566079 0.223819
0 0.56173 0.219715
0 0.55848 0.215595
0 0.555337 0.211292
0 0.551629 0.207385
0 0.547982 0.206058
0 0.550317 0.203464
0 0.550698 0.19469
0 0.553307 0.175372
0 0.561135 0.128923
0 0.572152 0.0390631
0.0266117 0.591333 0
0.238193 0.623819 0
0.392737 0.657069 0
0.503365 0.685252 0
0.597971 0.710903 0
0.679286 0.731106 0
0.74583 0.744961 0
0.795865 0.749462 0
0.831342 0.746349 0.00213626
0.855116 0.742672 0.00735485
0.874037 0.739956 0.0141604
0.884596 0.73814 0.0171359
0.893538 0.736507 0.0159152
0.899001 0.733928 0.0126345
0.903075 0.733211 0.0137789
0.906004 0.732937 0.0148318
0.906676 0.731136 0.0144656
0.906126 0.728206 0.0133211
0.905058 0.724483 0.0108339
0.903426 0.719753 0.0065919
0.901625 0.714855 0.00183108
0.900343 0.711376 0
0 0.577859 0.234287
0 0.571862 0.229023
0 0.567681 0.225345
0 0.563851 0.221851
0 0.560067 0.21796
0 0.555718 0.211887
0 0.553429 0.206516
0 0.556542 0.202564
0 0.556741 0.185534
0 0.564233 0.141054
0 0.573129 0.0573587
0.0146029 0.590829 0
0.157626 0.619364 0
0.347967 0.653758 0
0.467155 0.68394 0
0.564828 0.710613 0
0.651514 0.732937 0
0.72343 0.750164 0
0.783078 0.759899 0
0.82356 0.761044 0.00262455
0.850675 0.758694 0.0110781
0.872847 0.756771 0.0161288
0.888548 0.757061 0.0228122
0.899092 0.755703 0.0236515
0.904112 0.754574 0.0230411
0.908034 0.752209 0.0194095
0.911315 0.749752 0.0182345
0.911513 0.748638 0.0197299
0.910246 0.746715 0.0203708
0.909285 0.743526 0.0194095
0.908644 0.740383 0.0181888
0.907973 0.737118 0.0168917
0.90753 0.73489 0.0159915
0 0.590387 0.246601
0 0.586084 0.241352
0 0.580819 0.236576
0 0.575036 0.231739
0 0.569238 0.226978
0 0.564446 0.222507
0 0.559289 0.214832
0 0.558267 0.203098
0 0.562646 0.191791
0 0.567102 0.15375
0 0.57554 0.0742657
0.00299077 0.587945 0
0.112016 0.612848 0
0.292058 0.646754 0
0.426612 0.679652 0
0.531609 0.70808 0
0.621561 0.733532 0
0.698665 0.753216 0
0.761654 0.764843 0
0.811597 0.771771 0.00378424
0.846891 0.771588 0.01178
0.868833 0.767971 0.0199741
0.885069 0.769238 0.0242313
0.898512 0.7673 0.0270848
0.907713 0.767865 0.0294652
0.91284 0.766735 0.0275578
0.916289 0.764874 0.0233005
0.917937 0.765072 0.0231327
0.917586 0.764553 0.0239414
0.916289 0.761868 0.0234226
0.915007 0.758618 0.0227512
0.913787 0.75555 0.0221408
0.91281 0.753109 0.0216373
0 0.596475 0.254704
0 0.595728 0.253712
0 0.592691 0.249653
0 0.588907 0.244617
0 0.584314 0.239063
0 0.577249 0.233219
0 0.568566 0.225132
0 0.564157 0.211917
0 0.566018 0.193271
0 0.572549 0.169879
0 0.578729 0.0993515
0 0.587762 0
0.0982834 0.610452 0
0.246281 0.641123 0
0.387518 0.673259 0
0.497337 0.703151 0
0.591196 0.730037 0
0.671763 0.751034 0
0.741115 0.766323 0
0.798627 0.778561 0.00195315
0.836973 0.781186 0.0115358
0.8654 0.780911 0.0200656
0.884581 0.778439 0.0273442
0.899474 0.778103 0.0301366
0.909483 0.778515 0.0308995
0.916487 0.777844 0.0322728
0.921386 0.776623 0.0311284
0.922911 0.775189 0.0276493
0.923613 0.774838 0.0266423
0.923568 0.774075 0.0270848
0.92221 0.771893 0.0263981
0.920958 0.76994 0.0257725
0.920027 0.76846 0.0252995
0 0.596475 0.254704
0 0.596475 0.254704
0 0.596475 0.254704
0 0.596475 0.254704
0 0.595712 0.253697
0 0.591226 0.247837
0 0.584375 0.239765
0 0.575631 0.224491
0 0.572427 0.200458
0 0.578225 0.175738
0 0.585046 0.114321
0 0.593042 0.020737
0.0718395 0.609339 0
0.209064 0.635523 0
0.350744 0.667704 0
0.46244 0.697856 0
0.56025 0.725704 0
0.646571 0.749264 0
0.720592 0.766155 0
0.779614 0.77969 0
0.824567 0.786175 0.0084535
0.859693 0.786267 0.0184329
0.880522 0.784497 0.026276
0.896834 0.786252 0.0308537
0.909728 0.78613 0.0319982
0.91812 0.785962 0.033341
0.924926 0.786389 0.0357214
0.928237 0.785779 0.0361486
0.928695 0.784039 0.0332341
0.928191 0.782406 0.0307012
0.927413 0.780957 0.0300145
0.92668 0.779568 0.0293584
0.926116 0.778515 0.0288701
0 0.596475 0.254704
0 0.596475 0.254704
0 0.596475 0.254704
0 0.596475 0.254704
0 0.596429 0.254658
0 0.596078 0.254185
0 0.59443 0.252094
0 0.590112 0.241443
0 0.586145 0.213672
0 0.587701 0.171283
0 0.593957 0.116533
0 0.598077 0.0328527
0.024918 0.608103 0
0.175555 0.632929 0
0.31075 0.662699 0
0.42948 0.692653 0
0.530663 0.720867 0
0.620188 0.746517 0
0.696712 0.764675 0
0.759991 0.779492 0
0.811902 0.78909 0.00488289
0.851072 0.791867 0.0170138
0.874968 0.791379 0.024445
0.895094 0.791257 0.0300908
0.909972 0.792187 0.0332799
0.919646 0.791592 0.0342107
0.92668 0.791989 0.0361944
0.931426 0.792264 0.0388647
0.933852 0.791226 0.0393988
0.93402 0.789639 0.0374304
0.932815 0.788296 0.035172
0.931685 0.78703 0.0340276
0.930785 0.786038 0.0331426
0 0.596475 0.254704
0 0.596475 0.254704
0 0.596475 0.254704
0 0.596475 0.254704
0 0.596475 0.254704
0 0.596475 0.254704
0 0.596307 0.254475
0 0.595636 0.252628
0 0.596002 0.234257
0 0.599741 0.192889
0 0.604303 0.119127
0 0.608179 0.0303655
0.0027924 0.617517 0
0.142123 0.635935 0
0.282856 0.661509 0
0.401328 0.689601 0
0.502449 0.715831 0
0.592203 0.741787 0
0.673167 0.762387 0
0.74139 0.779126 0
0.796902 0.790951 0.00114443
0.839033 0.79678 0.013962
0.870802 0.796201 0.0235294
0.893935 0.795438 0.0297856
0.909911 0.79675 0.0342718
0.921584 0.797131 0.0361944
0.928389 0.797086 0.0367895
0.933074 0.79733 0.0390478
0.937011 0.797452 0.0417487
0.939422 0.79675 0.0420539
0.939544 0.795422 0.0406348
0.938201 0.794079 0.039765
0.937209 0.793088 0.0391241
0 0.596475 0.254704
0 0.596475 0.254704
0 0.596475 0.254704
0 0.596475 0.254704
0 0.596475 0.254704
0 0.596475 0.254704
0 0.596475 0.254704
0 0.596475 0.254704
0 0.598123 0.243977
