LUTs/Hook_BMCC_BMDFilm2Vid.cube
TITLE "Generate by Resolve"
LUT_3D_SIZE 9
0 0.0162661 0.00408942
0.199649 0.0347448 0
0.475196 0 0
0.578897 0 0
0.599435 0.0170291 0
0.58291 0 0
0.56817 0 0
0.57377 0 0
0.573037 0 0
0 0.0768139 0.0055848
0.112108 0.0843977 0
0.408621 0.103166 0
0.595987 0.108934 0
0.648539 0.126329 0
0.659037 0.134554 0
0.653803 0.126574 0
0.648188 0.118151 0
0.643336 0.110872 0
0 0.286091 0.0863661
0 0.215854 0.0133364
0.319265 0.251026 0
0.604532 0.273518 0
0.7075 0.272023 0
0.734264 0.282231 0
0.729046 0.267155 0
0.722454 0.248981 0
0.715892 0.234592 0
0 0.482231 0.18555
0 0.429129 0.152529
0.078645 0.414572 0
0.559121 0.473136 0
0.745571 0.467842 0
0.788281 0.451606 0
0.793927 0.441596 0
0.784192 0.417227 0
0.776532 0.395697 0
0 0.537453 0.203479
0 0.522728 0.202228
0 0.523842 0.0874495
0.444999 0.606821 0
0.744778 0.650172 0
0.843626 0.629969 0
0.863371 0.619318 0
0.856153 0.597147 0
0.846296 0.572946 0
0 0.566079 0.223819
0 0.551629 0.207385
0 0.553307 0.175372
0.238193 0.623819 0
0.679286 0.731106 0
0.855116 0.742672 0.00735485
0.899001 0.733928 0.0126345
0.906126 0.728206 0.0133211
0.900343 0.711376 0
0 0.596475 0.254704
0 0.595712 0.253697
0 0.572427 0.200458
0.0718395 0.609339 0
0.56025 0.725704 0
0.824567 0.786175 0.0084535
0.909728 0.78613 0.0319982
0.928695 0.784039 0.0332341
0.926116 0.778515 0.0288701
0 0.596475 0.254704
0 0.596475 0.254704
0 0.597208 0.250889
0 0.625925 0
0.454917 0.713863 0
0.766125 0.791043 0
0.908736 0.806134 0.035996
0.944671 0.807065 0.0445106
0.951186 0.804715 0.0447089
0 0.596475 0.254704
0 0.596475 0.254704
0 0.596475 0.254704
0 0.61387 0.111421
0.308949 0.683986 0
0.673472 0.774563 0
0.891279 0.818173 0.0264439
0.96492 0.824552 0.0529488
0.978973 0.824582 0.052079
0 0.030457 0.173587
0.212558 0.0333104 0.159213
0.522316 0 0.140734
0.641688 0 0.142809
0.665705 0 0.156191
0.656458 0 0.174731
0.657496 0 0.182422
0.658457 0 0.187533
0.657664 0 0.184237
0 0.113588 0.155154
0.109316 0.0961013 0.105653
0.441657 0.0909895 0.0506905
0.651423 0.01355 0
0.706783 0.0136263 0
0.712566 0.021622 0
0.700725 0.0276951 0
0.689326 0.0387427 0
0.677882 0.0400397 0
0 0.329961 0.19855
0 0.219333 0.0709392
0.302342 0.236728 0
0.601846 0.248966 0
0.71368 0.248966 0
0.734997 0.258717 0
0.727092 0.241382 0
0.714382 0.223819 0
0.705684 0.209751 0
0 0.502174 0.229328
0 0.422629 0.159091
0.0175326 0.373678 0
0.506661 0.426795 0
0.71751 0.427146 0
0.771374 0.412604 0
0.782223 0.412406 0
0.77406 0.388464 0
0.76704 0.366018 0
0 0.541665 0.216449
0 0.514122 0.20116
0 0.503487 0.114748
0.386542 0.572137 0
0.712871 0.621241 0
0.827039 0.600168 0
0.850446 0.589181 0
0.84506 0.569863 0
0.834165 0.543557 0
0 0.559762 0.217487
0 0.546929 0.205859
0 0.543938 0.184405
0.144823 0.600473 0
0.640192 0.712261 0
0.838437 0.727703 0
0.891188 0.719738 0.00761425
0.900679 0.711803 0
0.893492 0.692638 0
0 0.596475 0.254704
0 0.58941 0.245609
0 0.565454 0.207202
0.00230411 0.592477 0
0.515633 0.709239 0
0.804532 0.780682 0.0037232
0.901701 0.779889 0.0306401
0.924559 0.777676 0.0297856
0.92253 0.772351 0.0265507
0 0.596475 0.254704
0 0.596475 0.254704
0 0.596674 0.253681
0 0.618143 0.0027924
0.40087 0.695918 0
0.73434 0.781491 0
0.895018 0.801709 0.0309148
0.938186 0.803769 0.041474
0.9467 0.801587 0.0438239
0 0.596475 0.254704
0 0.596475 0.254704
0 0.596475 0.254704
0 0.611322 0.155734
0.244465 0.673152 0
0.639643 0.765118 0
0.87509 0.816281 0.0068513
0.959609 0.822904 0.0522469
0.97351 0.820905 0.0521706
0 0.200229 0.469368
0.220325 0 0.454185
0.54757 0 0.455985
0.668437 0 0.453727
0.691432 0 0.474144
0.689189 0 0.48542
0.68983 0 0.490745
0.690379 0 0.494057
0.689769 0 0.488701
0 0.258244 0.473396
0.0543221 0.109483 0.403098
0.4495 0.0914321 0.38584
0.674769 0 0.348669
0.734691 0 0.325658
0.745144 0 0.31487
0.737072 0 0.291066
0.728054 0 0.268162
0.720363 0 0.25037
0 0.434821 0.510857
0 0.327382 0.390707
0.281254 0.266285 0.291249
0.634989 0.252338 0.238285
0.781964 0.208759 0.186419
0.811551 0.199619 0.158968
0.807782 0.181506 0.1196
0.796216 0.153964 0.0831464
0.785657 0.131884 0.0556191
0 0.594842 0.500832
0 0.509499 0.385382
0 0.427314 0.209751
0.527459 0.441871 0.0843824
0.792752 0.416098 0
0.85124 0.386267 0
0.855756 0.38233 0
0.833692 0.35816 0
0.814832 0.33724 0
0 0.62359 0.441505
0 0.574731 0.342031
0 0.55436 0.245731
0.350698 0.579034 0
0.729854 0.61561 0
0.848844 0.590494 0
0.859236 0.564416 0
0.847776 0.542489 0
0.828443 0.510384 0
0 0.621851 0.401923
0 0.589044 0.317586
0 0.568963 0.233738
0.0349737 0.588479 0
0.60267 0.693614 0
0.819745 0.711696 0
0.880369 0.696468 0
0.891737 0.687892 0
0.88481 0.66952 0
0 0.640467 0.403311
0 0.603586 0.313466
0 0.565408 0.22504
0 0.579812 0.0449378
0.456718 0.688365 0
0.777951 0.770169 0
0.890486 0.771634 0.026627
0.918837 0.768795 0.0251621
0.917769 0.763928 0.0241703
0 0.61236 0.309651
0 0.601251 0.270222
0 0.596353 0.254551
0 0.609354 0.0681468
0.335805 0.675639 0
0.70013 0.771084 0
0.879789 0.798108 0.0262303
0.932189 0.799207 0.0386816
0.942351 0.798138 0.0425574
0 0.596475 0.254704
0 0.596475 0.254704
0 0.596475 0.254704
0 0.60676 0.188922
0.162371 0.662837 0
0.6065 0.757778 0
0.858091 0.813733 0
0.949203 0.819287 0.0492409
0.967758 0.817121 0.0507668
0 0.263233 0.56936
0.222751 0 0.608316
0.558038 0 0.622904
0.686915 0 0.618952
0.710719 0 0.628183
0.711879 0 0.632197
0.712459 0 0.633951
0.711849 0 0.63328
0.711055 0 0.630945
0 0.320562 0.613153
0.0158846 0.175647 0.610605
0.443214 0.0543069 0.637705
0.684886 0 0.622812
0.74931 0 0.606668
0.761013 0 0.603586
0.753902 0 0.583719
0.747112 0 0.563546
0.740948 0 0.54815
0 0.477394 0.681224
0 0.398688 0.621744
0.220417 0.28629 0.611246
0.625803 0.270527 0.588922
0.788235 0.220569 0.548028
0.819577 0.208331 0.522957
0.819318 0.198611 0.498283
0.8094 0.169314 0.46566
0.800565 0.136172 0.437049
0 0.644022 0.721202
0 0.576013 0.646708
0 0.528298 0.588968
0.488167 0.485008 0.50341
0.789548 0.445121 0.441978
0.872267 0.399405 0.393942
0.884169 0.39057 0.364218
0.872755 0.355169 0.324315
0.861067 0.322377 0.289052
0 0.700893 0.704265
0 0.66482 0.623621
0 0.639902 0.547143
0.1841 0.62829 0.376547
0.732799 0.650202 0.296849
0.918135 0.606561 0.205554
0.94992 0.576974 0.155093
0.944595 0.549844 0.0958114
0.930327 0.509514 0.0422217
0 0.700236 0.662226
0 0.672419 0.581613
0 0.646189 0.482063
0 0.656703 0.320562
0.582849 0.732509 0.0711528
0.894972 0.754345 0
0.962341 0.729091 0
0.961669 0.714244 0
0.946105 0.68806 0
0 0.709819 0.640696
0 0.676448 0.555352
0 0.637797 0.442725
0 0.64651 0.330236
0.376776 0.709667 0
0.794766 0.787091 0
0.9281 0.787961 0.0271153
0.948852 0.7776 0.0334173
0.942275 0.764996 0.0243687
0 0.690929 0.567697
0 0.677455 0.517327
0 0.659495 0.456611
0 0.648142 0.326085
0.169451 0.673213 0
0.664454 0.766934 0
0.872969 0.799756 0.0229953
0.928389 0.796109 0.0365454
0.938521 0.793072 0.0384375
0 0.673609 0.502541
0 0.654505 0.44303
0 0.633631 0.384939
0 0.629587 0.288762
0.0512856 0.655222 0
0.560265 0.747509 0
0.8271 0.807294 0
0.933806 0.813565 0.0447089
0.957244 0.811856 0.0484474
0 0.307591 0.627329
0.22385 0 0.683909
0.584024 0 0.701442
0.72314 0 0.697643
0.751492 0 0.712993
0.752941 0 0.715877
0.752941 0 0.715877
0.752407 0 0.714809
0.751431 0 0.713024
0 0.356771 0.65153
0 0.225391 0.668055
0.431266 0.0818647 0.729564
0.691325 0 0.732021
0.762936 0 0.728054
0.775891 0 0.728985
0.769039 0 0.717205
0.762509 0 0.704799
0.756756 0 0.69276
0 0.490105 0.726146
0 0.424399 0.694255
0.161959 0.290211 0.75491
0.606516 0.268498 0.772717
0.788586 0.212833 0.759503
0.823102 0.197696 0.746563
0.824811 0.189654 0.735378
0.815686 0.153323 0.713558
0.808682 0.109804 0.693523
0 0.647425 0.783352
0 0.591943 0.754101
0 0.555306 0.754101
0.431662 0.498161 0.776852
0.77467 0.462257 0.754498
0.867948 0.414862 0.718715
0.882689 0.408255 0.697551
0.871885 0.372595 0.66537
0.862913 0.339986 0.634791
0 0.716594 0.804852
0 0.6972 0.777874
0 0.682551 0.75761
0.0139773 0.678584 0.725475
0.687236 0.691752 0.690822
0.904402 0.651148 0.643107
0.940902 0.614878 0.600015
0.938949 0.585367 0.562081
0.928679 0.543313 0.520775
0 0.728588 0.796994
0 0.722377 0.771176
0 0.713512 0.723751
0 0.741711 0.680583
0.494499 0.792157 0.574823
0.875593 0.809094 0.509712
0.982879 0.782925 0.446906
0.99826 0.765774 0.398444
0.991333 0.728527 0.351675
0 0.744579 0.797574
0 0.729244 0.756771
0 0.707713 0.685191
0 0.723384 0.627573
0.154223 0.767956 0.470054
0.764965 0.83978 0.382071
0.978439 0.84918 0.266041
1 0.833768 0.218631
1 0.81857 0.162951
0 0.743542 0.767285
0 0.736339 0.732219
0 0.721508 0.678599
0 0.713634 0.59086
0 0.730861 0.439765
0.603876 0.811109 0.293584
0.919249 0.850462 0.102281
0.997833 0.848554 0.0149538
0.99971 0.838041 0.0563516
0 0.733822 0.721141
0 0.721172 0.670878
0 0.705562 0.618906
0 0.698741 0.549889
0 0.721004 0.428031
0.469032 0.788052 0.310811
0.817136 0.838285 0.118257
0.978607 0.848463 0
0.996399 0.8392 0
0 0.305333 0.623972
0.22153 0 0.68307
0.584756 0 0.702464
0.725704 0 0.698314
0.752941 0 0.715877
0.752941 0 0.715877
0.752941 0 0.715877
0.752941 0 0.715877
0.752941 0 0.715877
0 0.368658 0.659022
0 0.273442 0.685939
0.425925 0.15613 0.763775
0.703166 0.054078 0.776638
0.788006 0.00407416 0.782208
0.804059 0.0602579 0.791348
0.80061 0.0417334 0.786694
0.79649 0.0115663 0.778134
0.789548 0 0.767987
0 0.500191 0.734401
0 0.442786 0.710414
0.111025 0.323735 0.789548
0.592828 0.297337 0.825071
0.787976 0.240116 0.822828
0.829252 0.219181 0.819852
0.832166 0.202426 0.813062
0.824231 0.156054 0.801007
0.816526 0.109392 0.789441
0 0.643992 0.791287
0 0.586496 0.765698
0 0.553079 0.785122
0.384527 0.491402 0.859586
0.752483 0.455268 0.864805
0.860838 0.407935 0.852506
0.87776 0.400671 0.845533
0.869825 0.369314 0.829755
0.862242 0.336065 0.814221
0 0.714839 0.82211
0 0.697307 0.812985
0 0.681178 0.811444
0 0.689097 0.854139
0.64126 0.697017 0.881514
0.882277 0.654475 0.86685
0.928008 0.619257 0.846906
0.930694 0.601221 0.828656
0.922469 0.561471 0.805722
0 0.732235 0.827787
0 0.729 0.821988
0 0.724392 0.813916
0 0.764096 0.83595
0.369863 0.824521 0.852049
0.836851 0.848997 0.832715
0.962936 0.82179 0.79913
0.98172 0.802686 0.771145
0.978637 0.769635 0.73669
0 0.748592 0.83827
0 0.738811 0.823621
0 0.729046 0.802335
0 0.760952 0.80911
0.0336156 0.822614 0.794598
0.705043 0.894484 0.757458
0.954772 0.908248 0.706783
1 0.894774 0.658442
1 0.879362 0.619684
0 0.754162 0.836881
0 0.752972 0.826352
0 0.74815 0.809476
0 0.758007 0.785611
0 0.798276 0.753292
0.510201 0.866499 0.678752
0.887495 0.911604 0.611978
0.999207 0.913405 0.54081
1 0.898604 0.50074
0 0.752941 0.823133
0 0.750118 0.810086
0 0.74818 0.791745
0 0.751186 0.756527
0 0.787732 0.716823
0.330434 0.833799 0.630533
0.774365 0.888808 0.54992
0.977066 0.906386 0.463844
1 0.894499 0.407263
0 0.304265 0.621851
0.22179 0 0.676097
0.584009 0 0.695705
0.726345 0 0.698466
0.752941 0 0.715877
0.752941 0 0.715877
0.752941 0 0.715877
0.752941 0 0.715877
0.752941 0 0.715877
0 0.367849 0.658656
0 0.281636 0.681163
0.413321 0.150958 0.759808
0.694835 0.0475013 0.774441
0.784649 0 0.779751
0.802548 0.0522774 0.78938
0.79855 0.0274815 0.78262
0.794415 0.000732433 0.774762
0.789425 0 0.768048
0 0.495308 0.732143
0 0.439139 0.707103
0.0802319 0.330083 0.78381
0.577371 0.305379 0.829053
0.78819 0.266682 0.837079
0.835782 0.248295 0.835874
0.843 0.250004 0.838819
0.837308 0.225132 0.831373
0.832456 0.204074 0.824826
0 0.638041 0.787869
0 0.585351 0.768017
0 0.559304 0.792309
0.351598 0.500954 0.874113
0.74168 0.471427 0.888365
0.86125 0.424857 0.884459
0.883497 0.419532 0.884138
0.876875 0.389227 0.874678
0.868086 0.355245 0.863386
0 0.713954 0.823438
0 0.693889 0.816541
0 0.675685 0.817716
0 0.681453 0.870161
0.605982 0.688701 0.926009
0.865919 0.647547 0.927947
0.919341 0.609201 0.918761
0.923384 0.588632 0.912383
0.913741 0.548455 0.899809
0 0.733166 0.831998
0 0.729839 0.828946
0 0.723445 0.828473
0 0.760525 0.864607
0.233616 0.820951 0.932372
0.803952 0.848066 0.9467
0.948241 0.825635 0.938445
0.969284 0.804608 0.929061
0.966049 0.774838 0.913741
0 0.746532 0.844785
0 0.737606 0.836393
0 0.732235 0.82855
0 0.762036 0.851362
0 0.833082 0.899535
0.647669 0.913863 0.927962
0.926345 0.934401 0.920516
0.990265 0.924117 0.901122
0.997726 0.913787 0.883787
0 0.757061 0.851789
0 0.757061 0.851423
0 0.752132 0.842939
0 0.761227 0.84419
0 0.811795 0.870497
0.395117 0.896315 0.893477
0.843412 0.95137 0.881743
0.985733 0.960418 0.850507
1 0.953445 0.819364
0 0.757061 0.850019
0 0.757046 0.847547
0 0.756283 0.842634
0 0.758297 0.834806
0 0.81236 0.859876
0.158755 0.865538 0.855024
0.714275 0.930861 0.834867
0.9505 0.957122 0.792508
1 0.954879 0.747555
0 0.302434 0.618585
0.224155 0 0.669139
0.589624 0 0.688426
0.726772 0 0.69868
0.752941 0 0.715877
0.752941 0 0.715877
0.752941 0 0.715877
0.752941 0 0.715877
0.752941 0 0.715877
0 0.366888 0.658335
0 0.291249 0.674617
0.401633 0.145464 0.756268
0.687419 0.0406958 0.772366
0.781064 0 0.77644
0.800732 0.042237 0.786801
0.796765 0.0136721 0.778759
0.791302 0 0.770596
0.786343 0 0.763485
0 0.490303 0.730282
0 0.433906 0.702617
0.0544289 0.327474 0.77496
0.562234 0.296681 0.825467
0.780728 0.258076 0.833265
0.832624 0.236072 0.833082
0.840391 0.23856 0.835386
0.834562 0.213489 0.827848
0.830121 0.193103 0.821347
0 0.632319 0.784604
0 0.579492 0.766476
0 0.550225 0.788128
0.327367 0.485618 0.868406
0.72871 0.45864 0.884489
0.85684 0.413779 0.882521
0.88072 0.409628 0.88307
0.877943 0.390875 0.877943
0.87097 0.36492 0.87097
0 0.711421 0.822385
0 0.690547 0.815518
0 0.666316 0.812604
0 0.670176 0.864836
0.582803 0.680003 0.928801
0.855253 0.641001 0.934203
0.916732 0.602487 0.929229
0.925139 0.592767 0.929259
0.917647 0.557061 0.921691
0 0.73286 0.831693
0 0.729168 0.828031
0 0.720745 0.830503
0 0.753323 0.86598
0.150362 0.807401 0.940536
0.779004 0.839139 0.96614
0.938521 0.815915 0.968414
0.963226 0.792447 0.964111
0.96112 0.765652 0.957732
0 0.747921 0.842741
0 0.740627 0.835798
0 0.733928 0.832731
0 0.759487 0.857664
0 0.827878 0.913405
0.600946 0.910918 0.966934
0.907912 0.93373 0.978424
0.981338 0.925429 0.977142
0.989792 0.917144 0.970581
0 0.757061 0.855879
0 0.757015 0.855787
0 0.751476 0.848554
0 0.75848 0.85301
0 0.808667 0.889647
0.255756 0.899214 0.951782
0.809689 0.960998 0.969909
0.970916 0.975586 0.967987
0.999695 0.973053 0.960433
0 0.757061 0.855848
0 0.757061 0.854551
0 0.757061 0.852003
0 0.760555 0.854093
0 0.810529 0.888762
0.0723735 0.869688 0.928374
0.664744 0.946288 0.951568
0.926192 0.979614 0.949554
0.997894 0.985962 0.937285
0 0.299519 0.613779
0.228367 0 0.662882
0.593423 0 0.683757
0.727108 0 0.698848
0.752941 0 0.715877
0.752941 0 0.715877
0.752941 0 0.715877
0.752941 0 0.715877
0.752941 0 0.715877
0 0.365499 0.657877
0 0.303899 0.66714
0.39144 0.140124 0.753124
0.680461 0.0344549 0.770382
0.777996 0 0.773419
0.799039 0.0316014 0.783734
0.795087 0.00198367 0.775418
0.788785 0 0.767056
0.783185 0 0.759182
0 0.485878 0.727687
0 0.429953 0.699413
0.0373083 0.325048 0.767391
0.54905 0.289326 0.822095
0.774426 0.249226 0.829389
0.829709 0.224918 0.830518
0.838163 0.228794 0.832456
0.832425 0.203937 0.824826
0.828122 0.183734 0.818372
0 0.627314 0.781949
0 0.574472 0.765194
0 0.541985 0.783551
0.302174 0.471763 0.86273
0.716243 0.445853 0.880598
0.852583 0.401144 0.879118
0.876875 0.395285 0.878859
0.874769 0.378882 0.874769
0.867826 0.353368 0.867826
0 0.709361 0.82153
0 0.687465 0.814084
0 0.657984 0.807706
0 0.658503 0.857343
0.56524 0.664622 0.924559
0.845609 0.624826 0.930404
0.91136 0.584802 0.925643
0.921813 0.576669 0.925933
0.914412 0.541695 0.918532
0 0.732586 0.831403
0 0.728313 0.827436
0 0.71751 0.828138
0 0.746548 0.862119
0.0999466 0.794827 0.937041
0.764508 0.829084 0.964004
0.932387 0.803235 0.966949
0.959777 0.778637 0.96463
0.958816 0.757626 0.962936
0 0.746288 0.841031
0 0.739696 0.835248
0 0.733257 0.83209
0 0.756954 0.856275
0.00810254 0.822522 0.911116
0.571679 0.904265 0.968963
0.892836 0.927123 0.984009
0.977874 0.918853 0.987778
0.987671 0.907637 0.985611
0 0.757061 0.855879
0 0.756725 0.855207
0 0.751659 0.847318
0 0.754528 0.851621
0 0.803601 0.890455
0.177508 0.892454 0.958251
0.783932 0.95877 0.985092
0.962386 0.974975 0.992905
0.995697 0.974121 0.991867
0 0.757061 0.855879
0 0.757061 0.855879
0 0.757061 0.855879
0 0.759762 0.857282
0 0.80502 0.889937
0.00970474 0.863905 0.938094
0.624063 0.944808 0.975448
0.909041 0.98439 0.98851
0.992493 0.992615 0.99176
